;-- START GCODE --
;Sliced for Type A Machines Series 1
;Sliced at: Thu 14-11-2019 20:21:24
;Basic settings:
; Layer height: 0.2
; Walls: 1
; Fill: 8
; Print Speed: 60
; Support: 0
; Retraction Speed: 35
; Retraction Distance: 0.4
;Print time: 10 minutes
;Filament used: 0.667m 1.0g
;Settings based on: Type A Machines Everyday PLA
G21        ;metric values
G90        ;absolute positioning
G28     ;move to endstops
G29		;allows for auto-levelling
G1 Z15.0 F12000 ;move the platform down 15mm
G1 X150 Y5 F12000 ;center
M140 S50 ;Prep Heat Bed
M109 S220 ;Heat To temp
M190 S50 ;Heat Bed to temp
G1 X150 Y5 Z0.3 ;move the platform to purge extrusion
G92 E0 ;zero the extruded length
G1 F200 X250 E30 ;extrude 30mm of feed stock
G92 E0 ;zero the extruded length again
G1 X150 Y150  Z25 F12000 ;recenter and begin
G1 F12000

;Layer count: 27
;LAYER:0
M107
G0 F12000 X120.459 Y94.558 Z0.200
;TYPE:SKIRT
G1 F1800 X122.976 Y91.445 E0.16644
G1 X131.537 Y80.895 E0.73130
G1 X133.530 Y78.682 E0.85511
G1 X133.869 Y78.307 E0.87613
G1 X134.770 Y77.539 E0.92535
G1 X138.395 Y74.790 E1.11450
G1 X138.888 Y74.417 E1.14020
G1 X142.074 Y72.517 E1.29442
G1 X142.552 Y72.231 E1.31758
G1 X145.497 Y70.945 E1.45119
G1 X145.980 Y70.733 E1.47312
G1 X149.805 Y69.672 E1.63815
G1 X152.089 Y69.348 E1.73405
G1 X152.505 Y69.288 E1.75153
G1 X155.770 Y69.254 E1.88728
G1 X156.322 Y69.247 E1.91023
G1 X159.526 Y69.691 E2.04471
G1 X160.047 Y69.765 E2.06659
G1 X163.214 Y70.665 E2.20347
G1 X163.713 Y70.808 E2.22505
G1 X166.849 Y72.160 E2.36703
G1 X167.325 Y72.366 E2.38859
G1 X170.428 Y74.173 E2.53788
G1 X170.865 Y74.429 E2.55894
G1 X173.746 Y76.526 E2.70709
G1 X177.120 Y79.523 E2.89471
G1 X179.855 Y82.505 E3.06293
G1 X180.240 Y82.923 E3.08656
G1 X183.183 Y86.928 E3.29319
G1 X184.784 Y89.850 E3.43171
G1 X185.066 Y90.365 E3.45612
G1 X185.983 Y93.018 E3.57283
G1 X187.100 Y96.711 E3.73323
G1 X187.155 Y96.893 E3.74114
G1 X188.989 Y101.313 E3.94009
G1 X189.149 Y101.698 E3.95742
G1 X189.844 Y103.161 E4.02476
G1 X191.835 Y107.323 E4.21658
G1 X192.085 Y107.845 E4.24064
G1 X193.345 Y111.135 E4.38711
G1 X193.542 Y111.647 E4.40992
G1 X194.510 Y115.628 E4.58025
G1 X194.830 Y118.735 E4.71011
G1 X194.880 Y119.222 E4.73046
G1 X194.812 Y122.855 E4.88153
G1 X194.803 Y123.314 E4.90062
G1 X194.595 Y125.656 E4.99837
G1 X194.544 Y126.160 E5.01943
G1 X193.898 Y129.717 E5.16974
G1 X193.810 Y130.197 E5.19002
G1 X192.897 Y133.565 E5.33510
G1 X192.774 Y134.210 E5.36240
G1 X192.609 Y136.027 E5.43826
G1 X192.684 Y136.836 E5.47203
G1 X193.171 Y139.662 E5.59126
G1 X193.170 Y139.662 E5.59130
G1 X193.262 Y140.179 E5.61313
G1 X193.315 Y142.779 E5.72125
G1 X193.324 Y143.213 E5.73930
G1 X193.163 Y144.809 E5.80599
G1 X192.788 Y148.290 E5.95155
G1 X189.686 Y147.859 E6.08175
G1 X188.988 Y149.554 E6.15796
G1 X187.732 Y152.003 E6.27239
G1 X187.730 Y152.008 E6.27261
G1 X187.268 Y153.372 E6.33249
G1 X187.073 Y154.334 E6.37330
G1 X186.732 Y157.182 E6.49255
G1 X186.727 Y157.223 E6.49427
G1 X186.780 Y159.301 E6.58069
G1 X186.789 Y159.346 E6.58259
G1 X187.826 Y158.471 E6.63901
G1 X190.283 Y160.937 E6.78373
G1 X190.737 Y161.271 E6.80716
G1 X192.226 Y162.010 E6.87628
G1 X192.297 Y162.045 E6.87957
G1 X193.274 Y162.449 E6.92352
G1 X195.510 Y163.179 E7.02131
G1 X195.591 Y163.205 E7.02485
G1 X196.698 Y163.451 E7.07200
G1 X198.476 Y163.804 E7.14736
G1 X202.188 Y164.455 E7.30404
G1 X204.516 Y164.917 E7.40272
G1 X207.108 Y165.593 E7.51408
G1 X210.581 Y166.525 E7.66358
G1 X209.698 Y169.473 E7.79153
G1 X210.160 Y169.734 E7.81359
G1 X210.448 Y169.898 E7.82737
G1 X211.211 Y170.511 E7.86806
G1 X211.936 Y171.291 E7.91233
G1 X212.161 Y171.536 E7.92616
G1 X212.772 Y172.439 E7.97149
G1 X212.957 Y172.711 E7.98517
G1 X213.496 Y173.830 E8.03680
G1 X213.652 Y174.152 E8.05168
G1 X214.041 Y175.443 E8.10774
G1 X214.155 Y175.815 E8.12391
G1 X214.330 Y177.163 E8.18043
G1 X214.382 Y177.541 E8.19629
G1 X214.345 Y178.722 E8.24541
G1 X214.334 Y179.064 E8.25964
G1 X214.141 Y180.094 E8.30321
G1 X214.078 Y180.419 E8.31697
G1 X213.761 Y181.315 E8.35648
G1 X213.650 Y181.621 E8.37002
G1 X213.220 Y182.413 E8.40749
G1 X213.074 Y182.677 E8.42003
G1 X212.606 Y183.302 E8.45249
G1 X212.419 Y183.546 E8.46527
G1 X211.802 Y184.148 E8.50111
G1 X211.570 Y184.375 E8.51460
G1 X210.850 Y184.880 E8.55117
G1 X210.600 Y185.057 E8.56390
G1 X209.620 Y185.542 E8.60936
G1 X208.695 Y185.858 E8.65000
G1 X208.375 Y185.968 E8.66407
G1 X207.132 Y186.174 E8.71645
G1 X206.790 Y186.233 E8.73088
G1 X206.520 Y186.235 E8.74211
G1 X206.925 Y186.702 E8.76781
G1 X207.185 Y187.001 E8.78428
G1 X207.878 Y187.944 E8.83293
G1 X208.586 Y188.908 E8.88266
G1 X208.590 Y188.913 E8.88293
G1 X210.153 Y190.744 E8.98301
G1 X211.684 Y192.350 E9.07526
G1 X211.949 Y192.625 E9.09114
G1 X212.691 Y193.578 E9.14135
G1 X212.875 Y193.814 E9.15380
G1 X214.077 Y195.794 E9.25010
G1 X214.343 Y196.229 E9.27129
G1 X215.073 Y198.122 E9.35565
G1 X215.221 Y198.504 E9.37268
G1 X215.908 Y201.512 E9.50096
G1 X216.606 Y203.647 E9.59434
G1 X216.873 Y204.272 E9.62260
G1 X218.142 Y207.285 E9.75852
G1 X215.912 Y208.281 E9.86006
G1 X216.789 Y209.772 E9.93198
G1 X217.041 Y210.201 E9.95266
G1 X217.935 Y212.537 E10.05665
G1 X218.107 Y212.982 E10.07649
G1 X218.584 Y215.182 E10.17008
G1 X218.669 Y215.569 E10.18655
G1 X218.861 Y217.575 E10.27033
G1 X218.885 Y219.206 E10.33815
G1 X218.887 Y219.469 E10.34908
G1 X218.821 Y220.479 E10.39116
G1 X218.804 Y220.738 E10.40195
G1 X218.473 Y222.671 E10.48349
G1 X218.406 Y223.058 E10.49982
G1 X218.154 Y223.871 E10.53521
G1 X217.791 Y224.693 E10.57256
G1 X217.790 Y224.693 E10.57261
G1 X217.656 Y225.000 E10.58653
G1 X217.107 Y225.839 E10.62822
G1 X216.453 Y226.560 E10.66869
G1 X215.803 Y227.076 E10.70319
G1 X215.560 Y227.271 E10.71615
G1 X214.836 Y227.677 E10.75066
G1 X214.571 Y227.825 E10.76327
G1 X213.576 Y228.200 E10.80748
G1 X212.647 Y228.409 E10.84707
G1 X212.359 Y228.471 E10.85932
G1 X211.395 Y228.550 E10.89953
G1 X210.420 Y228.501 E10.94012
G1 X210.082 Y228.483 E10.95419
G1 X208.867 Y228.223 E11.00585
G1 X208.089 Y227.956 E11.04005
G1 X207.802 Y227.848 E11.05279
G1 X206.987 Y227.415 E11.09116
G1 X206.690 Y227.256 E11.10517
G1 X206.438 Y227.064 E11.11834
G1 X206.264 Y227.726 E11.14680
G1 X206.163 Y228.098 E11.16282
G1 X205.626 Y229.313 E11.21805
G1 X205.496 Y229.605 E11.23134
G1 X204.619 Y231.046 E11.30147
G1 X204.414 Y231.383 E11.31787
G1 X203.478 Y232.495 E11.37830
G1 X203.477 Y232.494 E11.37836
G1 X203.266 Y232.747 E11.39206
G1 X202.582 Y233.373 E11.43061
G1 X202.375 Y233.561 E11.44223
G1 X201.281 Y234.331 E11.49785
G1 X200.518 Y234.749 E11.53402
G1 X200.256 Y234.891 E11.54641
G1 X199.231 Y235.270 E11.59185
G1 X199.231 Y235.271 E11.59189
G1 X198.952 Y235.375 E11.60427
G1 X198.027 Y235.590 E11.64375
G1 X196.799 Y235.722 E11.69510
G1 X196.433 Y235.760 E11.71040
G1 X195.173 Y235.686 E11.76287
G1 X194.817 Y235.665 E11.77770
G1 X193.521 Y235.382 E11.83285
G1 X193.166 Y235.305 E11.84795
G1 X191.992 Y234.845 E11.90037
G1 X191.659 Y234.715 E11.91524
G1 X190.682 Y234.142 E11.96232
G1 X190.390 Y233.971 E11.97639
G1 X189.572 Y233.302 E12.02033
G1 X189.312 Y233.089 E12.03430
G1 X188.524 Y232.206 E12.08350
G1 X187.905 Y231.298 E12.12919
G1 X187.469 Y230.418 E12.17002
G1 X187.201 Y229.490 E12.21018
G1 X187.071 Y228.478 E12.25260
G1 X187.102 Y227.161 E12.30737
G1 X187.111 Y226.826 E12.32130
G1 X187.781 Y222.779 E12.49185
G1 X187.857 Y222.324 E12.51103
G1 X187.986 Y221.708 E12.53719
G1 X189.043 Y217.321 E12.72480
G1 X189.328 Y216.041 E12.77932
G1 X189.387 Y215.222 E12.81346
G1 X189.312 Y214.017 E12.86366
G1 X188.972 Y212.055 E12.94644
G1 X188.895 Y211.622 E12.96473
G1 X188.842 Y209.886 E13.03693
G1 X188.831 Y209.555 E13.05070
G1 X188.839 Y209.457 E13.05479
G1 X188.070 Y210.451 E13.10704
G1 X187.849 Y210.736 E13.12203
G1 X186.843 Y211.688 E13.17962
G1 X186.576 Y211.942 E13.19494
G1 X185.327 Y212.793 E13.25777
G1 X184.996 Y213.019 E13.27444
G1 X183.353 Y213.769 E13.34953
G1 X182.216 Y214.079 E13.39852
G1 X181.885 Y214.168 E13.41277
G1 X180.846 Y214.285 E13.45624
G1 X180.512 Y214.322 E13.47021
G1 X179.511 Y214.277 E13.51187
G1 X179.211 Y214.261 E13.52436
G1 X178.444 Y214.118 E13.55680
G1 X178.178 Y214.064 E13.56808
G1 X177.428 Y213.818 E13.60090
G1 X177.167 Y213.731 E13.61234
G1 X176.340 Y213.332 E13.65051
G1 X176.067 Y213.200 E13.66312
G1 X175.290 Y212.678 E13.70204
G1 X175.029 Y212.504 E13.71508
G1 X174.186 Y211.730 E13.76266
G1 X173.585 Y210.999 E13.80200
G1 X173.425 Y210.800 E13.81262
G1 X173.125 Y210.333 E13.83570
G1 X172.740 Y209.565 E13.87141
G1 X172.598 Y209.282 E13.88458
G1 X172.565 Y209.180 E13.88903
G1 X171.823 Y209.493 E13.92251
G1 X171.486 Y209.630 E13.93764
G1 X170.412 Y209.876 E13.98345
G1 X170.078 Y209.954 E13.99771
G1 X169.091 Y210.027 E14.03885
G1 X168.791 Y210.052 E14.05137
G1 X167.757 Y209.976 E14.09447
G1 X167.424 Y209.951 E14.10836
G1 X166.237 Y209.673 E14.15904
G1 X165.272 Y209.298 E14.20209
G1 X164.980 Y209.180 E14.21518
G1 X164.157 Y208.708 E14.25462
G1 X163.344 Y208.089 E14.29711
G1 X163.066 Y207.873 E14.31174
G1 X162.420 Y207.178 E14.35119
G1 X162.210 Y206.955 E14.36393
G1 X161.678 Y206.175 E14.40318
G1 X161.499 Y205.917 E14.41623
G1 X161.044 Y204.961 E14.46025
G1 X160.899 Y204.658 E14.47422
G1 X160.577 Y203.559 E14.52183
G1 X160.576 Y203.559 E14.52187
G1 X160.476 Y203.223 E14.53645
G1 X160.305 Y201.929 E14.59071
G1 X160.269 Y201.157 E14.62284
G1 X160.369 Y200.116 E14.66632
G1 X160.402 Y199.786 E14.68011
G1 X160.649 Y198.818 E14.72164
G1 X160.732 Y198.505 E14.73511
G1 X161.308 Y197.155 E14.79613
G1 X161.962 Y196.112 E14.84731
G1 X162.209 Y195.748 E14.86560
G1 X162.845 Y195.015 E14.90595
G1 X163.084 Y194.743 E14.92100
G1 X163.905 Y194.079 E14.96490
G1 X164.386 Y193.738 E14.98941
G1 X164.697 Y193.487 E15.00603
G1 X164.854 Y193.318 E15.01562
G1 X164.859 Y193.310 E15.01601
G1 X165.635 Y191.518 E15.09720
G1 X166.407 Y189.915 E15.17117
G1 X166.546 Y189.630 E15.18435
G1 X167.698 Y187.758 E15.27574
G1 X168.234 Y186.956 E15.31584
G1 X168.933 Y185.780 E15.37272
G1 X169.905 Y183.961 E15.45847
G1 X169.904 Y183.961 E15.45851
G1 X169.930 Y183.912 E15.46081
G1 X170.745 Y181.955 E15.54895
G1 X170.786 Y181.857 E15.55337
G1 X171.381 Y180.037 E15.63297
G1 X171.403 Y179.947 E15.63683
G1 X171.340 Y179.870 E15.64096
G1 X171.331 Y179.861 E15.64149
G1 X170.357 Y179.079 E15.69342
G1 X169.231 Y178.358 E15.74901
G1 X169.193 Y178.334 E15.75088
G1 X164.693 Y175.884 E15.96390
G1 X164.340 Y175.691 E15.98062
G1 X164.134 Y177.137 E16.04135
G1 X160.863 Y176.933 E16.17761
G1 X160.732 Y176.970 E16.18327
G1 X158.851 Y177.707 E16.26726
G1 X155.919 Y178.592 E16.39459
G1 X155.466 Y178.726 E16.41423
G1 X154.212 Y178.942 E16.46713
G1 X154.212 Y178.943 E16.46717
G1 X153.921 Y178.994 E16.47945
G1 X151.495 Y179.140 E16.58050
G1 X150.987 Y179.171 E16.60166
G1 X149.033 Y178.953 E16.68340
G1 X148.725 Y178.918 E16.69629
G1 X147.083 Y178.589 E16.76591
G1 X146.697 Y178.578 E16.78197
G1 X146.368 Y178.608 E16.79570
G1 X144.553 Y178.942 E16.87243
G1 X143.388 Y179.361 E16.92390
G1 X142.754 Y179.717 E16.95413
G1 X142.268 Y180.100 E16.97985
G1 X141.986 Y180.389 E16.99664
G1 X139.783 Y182.642 E17.12765
G1 X138.546 Y181.552 E17.19619
G1 X138.422 Y182.141 E17.22122
G1 X138.321 Y183.894 E17.29422
G1 X138.527 Y185.955 E17.38033
G1 X138.530 Y185.982 E17.38146
G1 X138.759 Y186.968 E17.42355
G1 X138.869 Y187.235 E17.43555
G1 X140.333 Y189.730 E17.55582
G1 X140.453 Y189.931 E17.56555
G1 X141.854 Y192.093 E17.67266
G1 X145.295 Y197.228 E17.92965
G1 X145.718 Y197.858 E17.96120
G1 X146.610 Y199.529 E18.03995
G1 X146.940 Y200.465 E18.08121
G1 X147.059 Y200.792 E18.09568
G1 X147.241 Y201.764 E18.13679
G1 X147.305 Y202.100 E18.15101
G1 X147.331 Y203.136 E18.19410
G1 X147.344 Y203.490 E18.20883
G1 X147.172 Y204.799 E18.26372
G1 X147.123 Y205.162 E18.27895
G1 X146.731 Y206.468 E18.33564
G1 X146.624 Y206.828 E18.35125
G1 X146.034 Y208.037 E18.40718
G1 X145.870 Y208.372 E18.42269
G1 X145.208 Y209.307 E18.47032
G1 X145.011 Y209.585 E18.48448
G1 X144.293 Y210.325 E18.52735
G1 X144.059 Y210.563 E18.54123
G1 X143.307 Y211.128 E18.58033
G1 X143.081 Y211.298 E18.59209
G1 X142.295 Y211.744 E18.62966
G1 X141.455 Y212.081 E18.66729
G1 X141.161 Y212.200 E18.68048
G1 X140.001 Y212.465 E18.72995
G1 X138.956 Y212.552 E18.77354
G1 X138.625 Y212.579 E18.78735
G1 X137.539 Y212.498 E18.83263
G1 X137.226 Y212.471 E18.84569
G1 X136.052 Y212.212 E18.89567
G1 X135.714 Y212.134 E18.91009
G1 X134.248 Y211.566 E18.97546
G1 X133.893 Y211.427 E18.99131
G1 X132.485 Y210.619 E19.05880
G1 X132.153 Y210.428 E19.07472
G1 X130.841 Y209.384 E19.14443
G1 X130.291 Y210.283 E19.18825
G1 X129.618 Y211.081 E19.23165
G1 X128.868 Y211.733 E19.27296
G1 X128.041 Y212.249 E19.31349
G1 X127.055 Y212.649 E19.35773
G1 X126.124 Y212.851 E19.39734
G1 X125.184 Y212.914 E19.43650
G1 X124.375 Y212.842 E19.47027
G1 X124.059 Y212.814 E19.48346
G1 X123.104 Y212.572 E19.52442
G1 X122.783 Y212.489 E19.53820
G1 X121.614 Y211.985 E19.59113
G1 X121.298 Y211.845 E19.60550
G1 X119.930 Y210.993 E19.67250
G1 X119.671 Y210.830 E19.68523
G1 X119.094 Y210.382 E19.71560
G1 X118.902 Y210.233 E19.72570
G1 X117.958 Y209.310 E19.78059
G1 X117.704 Y209.059 E19.79544
G1 X117.285 Y208.505 E19.82432
G1 X117.114 Y209.810 E19.87903
G1 X117.167 Y211.744 E19.95947
G1 X117.630 Y214.294 E20.06722
G1 X117.654 Y214.423 E20.07268
G1 X119.014 Y219.203 E20.27929
G1 X119.209 Y219.884 E20.30874
G1 X119.507 Y221.749 E20.38727
G1 X119.577 Y222.175 E20.40521
G1 X119.582 Y223.561 E20.46284
G1 X119.585 Y223.939 E20.47855
G1 X119.396 Y225.164 E20.53009
G1 X119.397 Y225.164 E20.53013
G1 X119.343 Y225.513 E20.54481
G1 X118.972 Y226.680 E20.59572
G1 X118.867 Y226.998 E20.60964
G1 X118.382 Y227.988 E20.65548
G1 X118.237 Y228.277 E20.66892
G1 X117.486 Y229.375 E20.72423
G1 X117.280 Y229.673 E20.73929
G1 X116.317 Y230.697 E20.79773
G1 X116.053 Y230.980 E20.81382
G1 X114.563 Y232.127 E20.89199
G1 X113.388 Y232.788 E20.94804
G1 X112.181 Y233.275 E21.00216
G1 X111.836 Y233.412 E21.01759
G1 X110.392 Y233.731 E21.07907
G1 X109.380 Y233.792 E21.12122
G1 X109.132 Y233.808 E21.13155
G1 X108.407 Y233.773 E21.16173
G1 X107.477 Y233.615 E21.20095
G1 X107.148 Y233.557 E21.21484
G1 X106.213 Y233.239 E21.25590
G1 X105.912 Y233.135 E21.26914
G1 X105.005 Y232.666 E21.31159
G1 X104.730 Y232.524 E21.32446
G1 X103.814 Y231.866 E21.37135
G1 X103.540 Y231.668 E21.38540
G1 X102.462 Y230.611 E21.44817
G1 X102.185 Y230.340 E21.46428
G1 X101.053 Y228.799 E21.54378
G1 X100.803 Y228.461 E21.56126
G1 X99.719 Y226.354 E21.65977
G1 X99.518 Y225.966 E21.67794
G1 X99.318 Y225.393 E21.70317
G1 X99.265 Y225.447 E21.70631
G1 X98.433 Y226.066 E21.74943
G1 X97.733 Y226.445 E21.78252
G1 X97.444 Y226.600 E21.79616
G1 X96.416 Y226.948 E21.84128
G1 X95.489 Y227.085 E21.88024
G1 X95.153 Y227.132 E21.89434
G1 X94.360 Y227.108 E21.92733
G1 X94.068 Y227.097 E21.93947
G1 X93.112 Y226.926 E21.97985
G1 X92.240 Y226.650 E22.01788
G1 X91.933 Y226.544 E22.03138
G1 X90.990 Y226.066 E22.07533
G1 X90.685 Y225.909 E22.08960
G1 X89.668 Y225.170 E22.14186
G1 X89.373 Y224.954 E22.15706
G1 X88.473 Y224.046 E22.21022
G1 X88.206 Y223.774 E22.22606
G1 X87.569 Y222.861 E22.27235
G1 X87.568 Y222.862 E22.27240
G1 X87.366 Y222.573 E22.28706
G1 X86.911 Y221.621 E22.33093
G1 X86.910 Y221.621 E22.33097
G1 X86.761 Y221.313 E22.34520
G1 X86.445 Y220.267 E22.39063
G1 X86.348 Y219.957 E22.40413
G1 X86.160 Y218.582 E22.46183
G1 X86.108 Y218.224 E22.47687
G1 X86.154 Y216.355 E22.55460
G1 X86.163 Y215.989 E22.56982
G1 X86.576 Y213.269 E22.68420
G1 X87.240 Y210.255 E22.81251
G1 X87.342 Y209.812 E22.83141
G1 X88.190 Y207.322 E22.94077
G1 X88.331 Y206.910 E22.95888
G1 X89.581 Y204.286 E23.07971
G1 X89.796 Y203.837 E23.10041
G1 X91.629 Y201.053 E23.23899
G1 X91.933 Y200.591 E23.26198
G1 X92.909 Y199.500 E23.32284
G1 X90.742 Y197.056 E23.45864
G1 X96.136 Y192.966 E23.74008
G1 X98.065 Y191.928 E23.83115
G1 X98.622 Y191.594 E23.85815
G1 X99.295 Y190.983 E23.89594
G1 X100.144 Y189.959 E23.95125
G1 X102.112 Y186.651 E24.11127
G1 X102.396 Y186.176 E24.13428
G1 X103.951 Y184.018 E24.24487
G1 X103.841 Y183.986 E24.24963
G1 X102.967 Y183.588 E24.28956
G1 X102.655 Y183.442 E24.30388
G1 X101.744 Y182.826 E24.34960
G1 X101.025 Y182.210 E24.38896
G1 X100.794 Y182.007 E24.40175
G1 X100.115 Y181.225 E24.44481
G1 X99.897 Y180.975 E24.45860
G1 X99.367 Y180.132 E24.50000
G1 X99.209 Y179.884 E24.51222
G1 X98.803 Y178.977 E24.55353
G1 X98.480 Y177.907 E24.60000
G1 X98.325 Y177.059 E24.63584
G1 X98.287 Y176.120 E24.67491
G1 X98.273 Y175.788 E24.68873
G1 X98.390 Y174.817 E24.72939
G1 X98.431 Y174.500 E24.74268
G1 X98.747 Y173.372 E24.79138
G1 X99.257 Y172.200 E24.84452
G1 X99.730 Y171.407 E24.88291
G1 X99.889 Y171.147 E24.89558
G1 X100.179 Y170.792 E24.91464
G1 X98.260 Y167.697 E25.06604
G1 X102.408 Y165.579 E25.25967
G1 X102.744 Y165.407 E25.27537
G1 X103.957 Y165.022 E25.32828
G1 X104.284 Y164.917 E25.34256
G1 X105.847 Y164.678 E25.40829
G1 X106.771 Y164.547 E25.44709
G1 X107.188 Y164.408 E25.46537
G1 X107.444 Y164.281 E25.47725
G1 X108.522 Y163.600 E25.53026
G1 X109.021 Y163.306 E25.55434
G1 X109.207 Y163.199 E25.56326
G1 X111.261 Y162.274 E25.65692
G1 X111.261 Y162.275 E25.65696
G1 X111.694 Y162.078 E25.67674
G1 X113.691 Y161.551 E25.76260
G1 X114.060 Y161.453 E25.77848
G1 X115.536 Y161.254 E25.84040
G1 X117.813 Y161.056 E25.93542
G1 X118.034 Y161.009 E25.94481
G1 X118.311 Y160.904 E25.95713
G1 X121.203 Y159.805 E26.08575
G1 X121.815 Y161.146 E26.14704
G1 X121.934 Y160.894 E26.15862
G1 X121.955 Y160.833 E26.16131
G1 X121.989 Y160.660 E26.16864
G1 X121.994 Y160.499 E26.17533
G1 X121.931 Y159.986 E26.19682
G1 X121.480 Y158.434 E26.26402
G1 X119.772 Y154.368 E26.44737
G1 X119.232 Y153.139 E26.50318
G1 X117.707 Y149.957 E26.64988
G1 X117.521 Y149.547 E26.66860
G1 X114.331 Y150.431 E26.80622
G1 X113.007 Y143.585 E27.09612
G1 X112.798 Y139.797 E27.25385
G1 X112.745 Y138.574 E27.30474
G1 X112.387 Y133.910 E27.49922
G1 X112.357 Y133.522 E27.51540
G1 X111.986 Y130.532 E27.64066
G1 X111.925 Y130.019 E27.66214
G1 X111.814 Y127.397 E27.77125
G1 X111.798 Y127.031 E27.78648
G1 X111.948 Y121.941 E27.99819
G1 X111.967 Y121.329 E28.02364
G1 X112.395 Y117.057 E28.20214
G1 X112.582 Y115.424 E28.27048
G1 X113.471 Y108.971 E28.54129
G1 X113.582 Y108.174 E28.57475
G1 X114.335 Y105.090 E28.70673
G1 X114.444 Y104.649 E28.72562
G1 X114.834 Y103.524 E28.77512
G1 X116.132 Y100.697 E28.90445
G1 X116.348 Y100.231 E28.92581
G1 X117.471 Y98.477 E29.01240
G1 X117.472 Y98.477 E29.01244
G1 X117.648 Y98.200 E29.02608
G1 X120.459 Y94.558 E29.21735
G1 F2100 E28.81735
G0 F12000 X123.592 Y97.045
;TYPE:WALL-INNER
G1 F2100 E29.21735
G1 F1800 X126.083 Y93.964 E29.38208
G1 X134.580 Y83.494 E29.94268
G1 X136.663 Y81.182 E30.07206
G1 X137.273 Y80.662 E30.10538
G1 X141.129 Y77.738 E30.30658
G1 X144.124 Y75.952 E30.45155
G1 X144.386 Y75.794 E30.46427
G1 X147.098 Y74.611 E30.58729
G1 X147.323 Y74.512 E30.59751
G1 X150.624 Y73.596 E30.73993
G1 X152.651 Y73.308 E30.82505
G1 X152.808 Y73.286 E30.83164
G1 X155.821 Y73.254 E30.95691
G1 X156.072 Y73.251 E30.96735
G1 X158.970 Y73.653 E31.08899
G1 X159.222 Y73.689 E31.09957
G1 X162.114 Y74.510 E31.22456
G1 X162.363 Y74.582 E31.23533
G1 X165.523 Y75.945 E31.37841
G1 X168.411 Y77.627 E31.51736
G1 X168.676 Y77.782 E31.53012
G1 X171.230 Y79.641 E31.66146
G1 X174.310 Y82.377 E31.83274
G1 X176.911 Y85.212 E31.99269
G1 X177.150 Y85.473 E32.00740
G1 X179.802 Y89.080 E32.19354
G1 X181.396 Y91.989 E32.33145
G1 X182.178 Y94.253 E32.43103
G1 X183.269 Y97.862 E32.58778
G1 X183.383 Y98.240 E32.60419
G1 X185.493 Y103.326 E32.83312
G1 X186.235 Y104.887 E32.90498
G1 X188.229 Y109.054 E33.09703
G1 X188.411 Y109.434 E33.11455
G1 X189.714 Y112.836 E33.26601
G1 X190.559 Y116.310 E33.41465
G1 X190.876 Y119.389 E33.54334
G1 X190.813 Y122.777 E33.68422
G1 X190.806 Y123.098 E33.69757
G1 X190.613 Y125.274 E33.78839
G1 X190.580 Y125.597 E33.80189
G1 X189.963 Y128.999 E33.94564
G1 X189.905 Y129.314 E33.95895
G1 X188.999 Y132.659 E34.10303
G1 X188.807 Y133.661 E34.14545
G1 X188.616 Y135.766 E34.23332
G1 X188.593 Y136.032 E34.24442
G1 X188.716 Y137.366 E34.30012
G1 X189.229 Y140.343 E34.42571
G1 X189.269 Y140.571 E34.43534
G1 X189.320 Y143.057 E34.53872
G1 X189.249 Y143.760 E34.56809
G1 X187.276 Y143.486 E34.65091
G1 X187.366 Y142.389 E34.69667
G1 X187.373 Y142.304 E34.70021
G1 X187.256 Y140.414 E34.77894
G1 X187.249 Y140.334 E34.78228
G1 X186.804 Y137.968 E34.88237
G1 X186.621 Y136.072 E34.96157
G1 X186.837 Y133.454 E35.07078
G1 X187.040 Y132.358 E35.11712
G1 X187.953 Y128.963 E35.26328
G1 X188.596 Y125.482 E35.41045
G1 X188.814 Y123.227 E35.50464
G1 X188.899 Y119.582 E35.65623
G1 X188.902 Y119.465 E35.66109
G1 X188.603 Y116.624 E35.77986
G1 X188.592 Y116.521 E35.78417
G1 X187.840 Y113.474 E35.91465
G1 X186.682 Y110.422 E36.05036
G1 X184.574 Y105.998 E36.25410
G1 X182.207 Y100.724 E36.49444
G1 X180.991 Y97.284 E36.64613
G1 X180.512 Y95.598 E36.71900
G1 X179.680 Y93.018 E36.83170
G1 X179.641 Y92.905 E36.83667
G1 X178.181 Y90.222 E36.96367
G1 X177.403 Y89.057 E37.02191
G1 X174.901 Y85.890 E37.18971
G1 X171.924 Y82.837 E37.36699
G1 X168.952 Y80.393 E37.52697
G1 X165.477 Y78.154 E37.69883
G1 X162.439 Y76.731 E37.83831
G1 X162.332 Y76.679 E37.84325
G1 X159.255 Y75.724 E37.97720
G1 X156.247 Y75.253 E38.10378
G1 X156.130 Y75.234 E38.10871
G1 X153.105 Y75.251 E38.23448
G1 X152.989 Y75.253 E38.23930
G1 X150.048 Y75.750 E38.36331
G1 X147.157 Y76.699 E38.48981
G1 X147.055 Y76.735 E38.49431
G1 X144.236 Y78.131 E38.62509
G1 X144.144 Y78.176 E38.62935
G1 X141.413 Y79.955 E38.76486
G1 X138.641 Y82.098 E38.91053
G1 X138.049 Y82.594 E38.94264
G1 X136.158 Y84.694 E39.06013
G1 X127.989 Y94.757 E39.59900
G1 X123.525 Y100.312 E39.89528
G1 X121.691 Y102.965 E40.02936
G1 X121.619 Y103.066 E40.03452
G1 X120.467 Y105.540 E40.14798
G1 X120.102 Y106.597 E40.19447
G1 X119.373 Y109.791 E40.33068
G1 X118.546 Y115.925 E40.58801
G1 X118.483 Y116.437 E40.60946
G1 X117.950 Y121.547 E40.82306
G1 X117.779 Y126.963 E41.04834
G1 X117.881 Y129.433 E41.15112
G1 X117.884 Y129.509 E41.15428
G1 X118.301 Y132.873 E41.29521
G1 X118.706 Y138.120 E41.51400
G1 X118.747 Y139.065 E41.55333
G1 X118.936 Y142.697 E41.70454
G1 X118.943 Y142.815 E41.70945
G1 X119.342 Y144.898 E41.79763
G1 X117.436 Y145.422 E41.87981
G1 X116.986 Y143.097 E41.97826
G1 X116.793 Y139.596 E42.12404
G1 X116.739 Y138.349 E42.17593
G1 X116.337 Y133.120 E42.39397
G1 X115.957 Y130.054 E42.52242
G1 X115.915 Y129.694 E42.53748
G1 X115.810 Y127.227 E42.64014
G1 X115.801 Y127.011 E42.64913
G1 X115.961 Y121.581 E42.87498
G1 X116.371 Y117.491 E43.04588
G1 X116.550 Y115.933 E43.11108
G1 X117.433 Y109.521 E43.38017
G1 X117.516 Y108.929 E43.40503
G1 X118.284 Y105.784 E43.53962
G1 X118.550 Y105.016 E43.57341
G1 X119.765 Y102.372 E43.69439
G1 X119.860 Y102.164 E43.70390
G1 X120.923 Y100.504 E43.78585
G1 X123.592 Y97.045 E43.96749
G1 F2100 E43.56749
G0 F12000 X119.063 Y164.878
G1 F2100 E43.96749
G1 F1800 X119.116 Y164.866 E43.96975
G1 X119.936 Y166.663 E44.05187
G1 X119.205 Y166.882 E44.08360
G1 X117.827 Y167.070 E44.14142
G1 X115.288 Y167.318 E44.24748
G1 X115.181 Y167.329 E44.25195
G1 X113.708 Y167.719 E44.31530
G1 X112.058 Y168.461 E44.39052
G1 X111.578 Y168.734 E44.41348
G1 X110.480 Y169.439 E44.46773
G1 X109.486 Y169.932 E44.51385
G1 X108.260 Y170.344 E44.56763
G1 X106.915 Y170.567 E44.62431
G1 X105.745 Y170.731 E44.67343
G1 X105.662 Y170.743 E44.67691
G1 X105.015 Y170.948 E44.70513
G1 X104.990 Y170.961 E44.70630
G1 X103.949 Y169.283 E44.78840
G1 X104.273 Y169.118 E44.80352
G1 X105.166 Y168.835 E44.84246
G1 X105.207 Y168.822 E44.84425
G1 X106.425 Y168.635 E44.89548
G1 X107.502 Y168.484 E44.94070
G1 X107.772 Y168.431 E44.95214
G1 X108.719 Y168.114 E44.99366
G1 X109.402 Y167.775 E45.02536
G1 X110.614 Y167.009 E45.08497
G1 X111.025 Y166.767 E45.10480
G1 X112.904 Y165.922 E45.19045
G1 X113.042 Y165.859 E45.19676
G1 X114.842 Y165.384 E45.27416
G1 X115.977 Y165.230 E45.32178
G1 X118.405 Y165.020 E45.42310
G1 X119.063 Y164.878 E45.45108
G1 F2100 E45.05108
G0 F12000 X107.738 Y185.604
G1 F2100 E45.45108
G1 F1800 X109.276 Y186.822 E45.53265
G1 X108.498 Y187.845 E45.58608
G1 X106.666 Y190.660 E45.72572
G1 X105.090 Y193.322 E45.85433
G1 X103.605 Y195.137 E45.95183
G1 X103.073 Y195.663 E45.98293
G1 X101.894 Y196.611 E46.04583
G1 X99.381 Y197.999 E46.16519
G1 X97.911 Y199.111 E46.24182
G1 X96.601 Y197.633 E46.32393
G1 X98.304 Y196.341 E46.41280
G1 X100.052 Y195.401 E46.49532
G1 X100.899 Y194.893 E46.53638
G1 X101.028 Y194.813 E46.54269
G1 X102.195 Y193.753 E46.60824
G1 X103.423 Y192.271 E46.68825
G1 X105.547 Y188.701 E46.86096
G1 X105.747 Y188.366 E46.87718
G1 X107.738 Y185.604 E47.01874
G1 F2100 E46.61874
G0 F12000 X138.110 Y175.834
G1 F2100 E47.01874
G1 F1800 X138.805 Y175.196 E47.05796
G1 X140.127 Y174.310 E47.12412
G1 X141.671 Y173.593 E47.19490
G1 X143.454 Y173.048 E47.27241
G1 X145.473 Y172.692 E47.35765
G1 X146.662 Y172.592 E47.40726
G1 X147.928 Y172.659 E47.45996
G1 X149.713 Y173.018 E47.53566
G1 X151.078 Y173.176 E47.59279
G1 X151.171 Y173.187 E47.59668
G1 X153.104 Y173.066 E47.67721
G1 X153.595 Y172.993 E47.69784
G1 X155.780 Y172.451 E47.79144
G1 X155.865 Y172.430 E47.79508
G1 X158.610 Y171.375 E47.91734
G1 X159.788 Y171.038 E47.96828
G1 X160.686 Y170.943 E48.00582
G1 X160.975 Y170.961 E48.01786
G1 X160.696 Y172.919 E48.10009
G1 X160.144 Y172.979 E48.12317
G1 X159.451 Y173.175 E48.15312
G1 X157.544 Y173.923 E48.23828
G1 X154.770 Y174.760 E48.35875
G1 X154.554 Y174.824 E48.36811
G1 X153.520 Y175.003 E48.41174
G1 X153.454 Y175.015 E48.41453
G1 X151.248 Y175.147 E48.50641
G1 X151.082 Y175.157 E48.51332
G1 X149.345 Y174.963 E48.58599
G1 X147.768 Y174.646 E48.65286
G1 X147.542 Y174.600 E48.66245
G1 X146.699 Y174.576 E48.69751
G1 X146.580 Y174.572 E48.70246
G1 X145.826 Y174.641 E48.73394
G1 X143.756 Y175.022 E48.82145
G1 X143.498 Y175.070 E48.83236
G1 X141.927 Y175.636 E48.90178
G1 X141.717 Y175.712 E48.91107
G1 X140.673 Y176.298 E48.96084
G1 X140.523 Y176.382 E48.96799
G1 X139.707 Y177.025 E49.01118
G1 X139.578 Y177.128 E49.01805
G1 X138.110 Y175.834 E49.09940
G1 F2100 E48.69940
G0 F12000 X186.079 Y165.181
G1 F2100 E49.09940
G1 F1800 X187.591 Y163.903 E49.18171
G1 X187.668 Y163.980 E49.18624
G1 X188.525 Y164.610 E49.23046
G1 X188.654 Y164.703 E49.23707
G1 X190.646 Y165.691 E49.32952
G1 X191.880 Y166.201 E49.38503
G1 X194.284 Y166.986 E49.49017
G1 X194.545 Y167.071 E49.50158
G1 X195.861 Y167.363 E49.55763
G1 X197.737 Y167.735 E49.63714
G1 X201.453 Y168.388 E49.79400
G1 X203.624 Y168.818 E49.88601
G1 X205.567 Y169.325 E49.96950
G1 X205.002 Y171.213 E50.05143
G1 X201.545 Y170.416 E50.19893
G1 X197.591 Y169.723 E50.36582
G1 X194.163 Y169.011 E50.51138
G1 X191.265 Y168.083 E50.63789
G1 X189.269 Y167.244 E50.72791
G1 X187.345 Y166.210 E50.81872
G1 X186.350 Y165.457 E50.87060
G1 X186.079 Y165.181 E50.88668
G1 F2100 E50.48668
G0 F12000 X202.712 Y187.948
G1 F2100 E50.88668
G1 F1800 X203.906 Y189.326 E50.96249
G1 X205.376 Y191.295 E51.06465
G1 X207.183 Y193.426 E51.18081
G1 X208.806 Y195.128 E51.27858
G1 X208.920 Y195.246 E51.28540
G1 X209.541 Y196.043 E51.32741
G1 X210.665 Y197.881 E51.41698
G1 X210.741 Y198.007 E51.42310
G1 X211.387 Y199.679 E51.49762
G1 X212.050 Y202.585 E51.62154
G1 X212.858 Y205.054 E51.72955
G1 X212.933 Y205.231 E51.73754
G1 X211.164 Y206.021 E51.81809
G1 X210.348 Y203.844 E51.91475
G1 X209.507 Y200.298 E52.06626
G1 X208.969 Y198.878 E52.12939
G1 X208.009 Y197.298 E52.20626
G1 X207.154 Y196.231 E52.26310
G1 X205.910 Y194.979 E52.33648
G1 X203.900 Y192.618 E52.46539
G1 X202.484 Y190.700 E52.56451
G1 X201.308 Y189.341 E52.63923
G1 X202.712 Y187.948 E52.72146
G1 F2100 E52.32146
G0 F12000 X200.808 Y189.133
;TYPE:WALL-OUTER
G1 F2100 E52.72146
G1 F1800 X202.739 Y187.217 E52.83455
G1 X204.456 Y189.197 E52.94351
G1 X205.778 Y190.998 E53.03639
G1 X207.554 Y193.091 E53.15052
G1 X209.167 Y194.782 E53.24768
G1 X209.303 Y194.924 E53.25585
G1 X209.988 Y195.803 E53.30218
G1 X211.193 Y197.788 E53.39872
G1 X211.864 Y199.526 E53.47618
G1 X212.533 Y202.451 E53.60093
G1 X213.327 Y204.878 E53.70709
G1 X213.586 Y205.487 E53.73461
G1 X211.060 Y206.615 E53.84962
G1 X212.622 Y209.592 E53.98939
G1 X213.877 Y211.724 E54.09225
G1 X214.744 Y213.987 E54.19300
G1 X215.204 Y216.107 E54.28319
G1 X215.363 Y217.769 E54.35260
G1 X215.385 Y219.244 E54.41393
G1 X215.386 Y219.377 E54.41946
G1 X215.324 Y220.325 E54.45896
G1 X215.025 Y222.074 E54.53273
G1 X214.997 Y222.232 E54.53940
G1 X214.871 Y222.641 E54.55720
G1 X214.567 Y223.328 E54.58843
G1 X214.331 Y223.690 E54.60640
G1 X214.053 Y223.997 E54.62361
G1 X213.597 Y224.359 E54.64782
G1 X213.092 Y224.642 E54.67189
G1 X212.571 Y224.839 E54.69504
G1 X211.893 Y224.991 E54.72393
G1 X211.847 Y225.001 E54.72589
G1 X211.344 Y225.042 E54.74687
G1 X210.536 Y225.002 E54.78051
G1 X209.805 Y224.845 E54.81159
G1 X209.276 Y224.663 E54.83485
G1 X209.243 Y224.651 E54.83631
G1 X208.637 Y224.329 E54.86484
G1 X208.591 Y224.304 E54.86702
G1 X208.050 Y223.893 E54.89526
G1 X207.605 Y223.432 E54.92190
G1 X207.573 Y223.400 E54.92378
G1 X207.194 Y222.873 E54.95077
G1 X206.780 Y222.081 E54.98792
G1 X206.754 Y222.030 E54.99030
G1 X206.472 Y221.168 E55.02801
G1 X206.339 Y220.537 E55.05482
G1 X206.307 Y219.908 E55.08101
G1 X206.304 Y219.857 E55.08313
G1 X206.364 Y219.359 E55.10398
G1 X206.698 Y218.175 E55.15513
G1 X206.882 Y217.316 E55.19165
G1 X206.990 Y216.063 E55.24394
G1 X207.002 Y215.928 E55.24958
G1 X206.905 Y214.532 E55.30775
G1 X206.489 Y212.707 E55.38558
G1 X206.028 Y211.236 E55.44967
G1 X205.279 Y209.193 E55.54013
G1 X204.893 Y208.446 E55.57509
G1 X204.845 Y208.356 E55.57933
G1 X204.505 Y207.887 E55.60341
G1 X204.462 Y207.826 E55.60652
G1 X204.064 Y207.425 E55.63001
G1 X203.637 Y207.114 E55.65197
G1 X203.583 Y207.074 E55.65476
G1 X202.770 Y206.625 E55.69337
G1 X202.417 Y206.515 E55.70875
G1 X202.251 Y206.500 E55.71568
G1 X202.081 Y206.600 E55.72388
G1 X202.005 Y206.747 E55.73076
G1 X201.943 Y206.945 E55.73938
G1 X201.881 Y207.366 E55.75707
G1 X201.891 Y208.484 E55.80356
G1 X201.893 Y208.609 E55.80875
G1 X202.630 Y214.820 E56.06879
G1 X203.191 Y220.252 E56.29583
G1 X203.356 Y223.924 E56.44865
G1 X203.197 Y225.628 E56.51980
G1 X202.882 Y226.824 E56.57122
G1 X202.856 Y226.922 E56.57543
G1 X202.389 Y227.977 E56.62340
G1 X201.560 Y229.339 E56.68969
G1 X200.734 Y230.321 E56.74304
G1 X200.226 Y230.785 E56.77164
G1 X200.183 Y230.824 E56.77406
G1 X199.426 Y231.357 E56.81255
G1 X198.847 Y231.674 E56.83999
G1 X198.808 Y231.695 E56.84183
G1 X197.939 Y232.018 E56.88038
G1 X197.448 Y232.132 E56.90133
G1 X196.433 Y232.241 E56.94377
G1 X196.358 Y232.249 E56.94691
G1 X195.292 Y232.187 E56.99130
G1 X194.184 Y231.945 E57.03845
G1 X193.194 Y231.557 E57.08266
G1 X192.393 Y231.088 E57.12125
G1 X191.743 Y230.556 E57.15617
G1 X191.290 Y230.048 E57.18447
G1 X190.931 Y229.522 E57.21095
G1 X190.744 Y229.145 E57.22844
G1 X190.639 Y228.779 E57.24427
G1 X190.576 Y228.295 E57.26457
G1 X190.601 Y227.252 E57.30794
G1 X190.604 Y227.158 E57.31185
G1 X191.296 Y222.979 E57.48796
G1 X191.402 Y222.476 E57.50933
G1 X192.447 Y218.138 E57.69484
G1 X192.800 Y216.551 E57.76244
G1 X192.885 Y215.375 E57.81146
G1 X192.896 Y215.241 E57.81705
G1 X192.803 Y213.766 E57.87849
G1 X192.793 Y213.605 E57.88520
G1 X192.420 Y211.457 E57.97584
G1 X192.385 Y211.262 E57.98407
G1 X192.335 Y209.639 E58.05158
G1 X192.536 Y207.200 E58.15333
G1 X192.678 Y205.659 E58.21767
G1 X192.611 Y204.809 E58.25312
G1 X192.532 Y204.332 E58.27322
G1 X192.228 Y203.139 E58.32440
G1 X192.193 Y203.002 E58.33028
G1 X191.887 Y202.262 E58.36357
G1 X191.848 Y202.172 E58.36765
G1 X191.502 Y201.597 E58.39555
G1 X191.130 Y201.150 E58.41973
G1 X190.729 Y200.798 E58.44191
G1 X190.344 Y200.549 E58.46097
G1 X189.828 Y200.301 E58.48478
G1 X189.241 Y200.102 E58.51055
G1 X188.777 Y200.014 E58.53018
G1 X188.454 Y200.005 E58.54361
G1 X188.199 Y200.037 E58.55430
G1 X187.996 Y200.096 E58.56309
G1 X187.825 Y200.174 E58.57090
G1 X187.675 Y200.275 E58.57842
G1 X187.555 Y200.389 E58.58530
G1 X187.457 Y200.521 E58.59214
G1 X187.369 Y200.684 E58.59984
G1 X187.274 Y200.959 E58.61193
G1 X187.214 Y201.244 E58.62404
G1 X187.133 Y202.433 E58.67359
G1 X187.105 Y203.188 E58.70500
G1 X187.103 Y203.253 E58.70770
G1 X187.007 Y204.463 E58.75817
G1 X186.754 Y205.698 E58.81058
G1 X186.424 Y206.589 E58.85008
G1 X185.941 Y207.482 E58.89229
G1 X185.250 Y208.376 E58.93927
G1 X184.370 Y209.209 E58.98965
G1 X183.266 Y209.962 E59.04521
G1 X182.160 Y210.467 E59.09575
G1 X181.228 Y210.720 E59.13590
G1 X180.399 Y210.813 E59.17059
G1 X179.685 Y210.781 E59.20030
G1 X179.627 Y210.778 E59.20272
G1 X179.112 Y210.682 E59.22450
G1 X178.526 Y210.494 E59.25008
G1 X177.816 Y210.158 E59.28274
G1 X177.195 Y209.742 E59.31381
G1 X176.734 Y209.318 E59.33985
G1 X176.301 Y208.792 E59.36818
G1 X176.167 Y208.593 E59.37815
G1 X175.848 Y207.957 E59.40774
G1 X175.619 Y207.247 E59.43875
G1 X175.450 Y206.186 E59.48342
G1 X175.454 Y204.885 E59.53751
G1 X175.455 Y204.772 E59.54221
G1 X175.766 Y202.895 E59.62131
G1 X176.363 Y201.050 E59.70193
G1 X176.979 Y199.765 E59.76117
G1 X177.478 Y198.851 E59.80447
G1 X177.686 Y198.405 E59.82493
G1 X177.769 Y198.147 E59.83620
G1 X177.839 Y197.744 E59.85320
G1 X177.517 Y197.697 E59.86673
G1 X177.410 Y197.705 E59.87119
G1 X177.293 Y197.767 E59.87670
G1 X177.117 Y197.967 E59.88777
G1 X176.982 Y198.207 E59.89922
G1 X176.473 Y199.255 E59.94766
G1 X175.427 Y200.705 E60.02199
G1 X174.632 Y201.781 E60.07761
G1 X172.733 Y204.567 E60.21779
G1 X172.195 Y205.200 E60.25233
G1 X171.716 Y205.637 E60.27928
G1 X171.298 Y205.915 E60.30015
G1 X170.486 Y206.259 E60.33682
G1 X169.611 Y206.468 E60.37422
G1 X169.544 Y206.485 E60.37709
G1 X168.833 Y206.537 E60.40673
G1 X168.776 Y206.542 E60.40911
G1 X167.957 Y206.481 E60.44326
G1 X167.279 Y206.323 E60.47220
G1 X166.560 Y206.043 E60.50428
G1 X166.095 Y205.785 E60.52639
G1 X165.479 Y205.316 E60.55858
G1 X165.435 Y205.281 E60.56091
G1 X164.982 Y204.793 E60.58860
G1 X164.943 Y204.752 E60.59095
G1 X164.568 Y204.202 E60.61862
G1 X164.541 Y204.162 E60.62063
G1 X164.176 Y203.398 E60.65583
G1 X163.930 Y202.557 E60.69226
G1 X163.909 Y202.486 E60.69534
G1 X163.795 Y201.618 E60.73174
G1 X163.777 Y201.237 E60.74760
G1 X163.860 Y200.388 E60.78306
G1 X164.037 Y199.699 E60.81264
G1 X164.419 Y198.783 E60.85390
G1 X164.897 Y198.020 E60.89133
G1 X164.987 Y197.887 E60.89801
G1 X165.480 Y197.319 E60.92928
G1 X166.014 Y196.874 E60.95818
G1 X166.497 Y196.531 E60.98281
G1 X167.085 Y196.057 E61.01421
G1 X167.571 Y195.536 E61.04383
G1 X167.633 Y195.469 E61.04762
G1 X167.918 Y195.023 E61.06963
G1 X167.958 Y194.963 E61.07263
G1 X168.817 Y192.977 E61.16259
G1 X169.555 Y191.444 E61.23332
G1 X170.642 Y189.652 E61.32046
G1 X171.195 Y188.825 E61.36182
G1 X171.975 Y187.513 E61.42528
G1 X173.096 Y185.413 E61.52425
G1 X174.068 Y183.082 E61.62925
G1 X174.745 Y181.009 E61.71991
G1 X174.936 Y180.243 E61.75273
G1 X174.987 Y179.770 E61.77251
G1 X174.974 Y179.529 E61.78255
G1 X174.873 Y179.028 E61.80380
G1 X174.688 Y178.553 E61.82499
G1 X174.424 Y178.107 E61.84654
G1 X173.950 Y177.533 E61.87749
G1 X173.697 Y177.271 E61.89263
G1 X172.404 Y176.235 E61.96151
G1 X170.983 Y175.324 E62.03169
G1 X165.902 Y172.557 E62.27222
G1 X163.323 Y171.255 E62.39234
G1 X162.466 Y170.920 E62.43059
G1 X162.365 Y170.880 E62.43511
G1 X161.520 Y170.682 E62.47119
G1 X161.127 Y173.442 E62.58709
G1 X160.814 Y173.422 E62.60013
G1 X160.738 Y173.417 E62.60330
G1 X160.240 Y173.472 E62.62413
G1 X159.611 Y173.650 E62.65131
G1 X157.699 Y174.399 E62.73668
G1 X154.916 Y175.239 E62.85754
G1 X154.662 Y175.313 E62.86854
G1 X153.518 Y175.511 E62.91681
G1 X151.069 Y175.659 E63.01881
G1 X149.270 Y175.458 E63.09407
G1 X147.484 Y175.099 E63.16981
G1 X146.688 Y175.076 E63.20292
G1 X146.593 Y175.073 E63.20687
G1 X145.894 Y175.137 E63.23605
G1 X143.630 Y175.554 E63.33176
G1 X141.926 Y176.168 E63.40706
G1 X140.802 Y176.800 E63.46068
G1 X139.923 Y177.491 E63.50716
G1 X139.604 Y177.818 E63.52615
G1 X137.521 Y175.982 E63.64159
G1 X136.551 Y177.253 E63.70807
G1 X135.827 Y178.567 E63.77044
G1 X135.292 Y180.023 E63.83493
G1 X134.978 Y181.504 E63.89787
G1 X134.943 Y181.669 E63.90488
G1 X134.810 Y183.965 E64.00050
G1 X135.071 Y186.562 E64.10902
G1 X135.414 Y188.038 E64.17202
G1 X135.728 Y188.796 E64.20613
G1 X137.325 Y191.518 E64.33733
G1 X138.945 Y194.040 E64.46195
G1 X142.711 Y199.659 E64.74318
G1 X143.398 Y200.946 E64.80383
G1 X143.652 Y201.663 E64.83546
G1 X143.672 Y201.718 E64.83789
G1 X143.803 Y202.422 E64.86766
G1 X143.814 Y202.478 E64.87004
G1 X143.833 Y203.264 E64.90272
G1 X143.835 Y203.325 E64.90526
G1 X143.690 Y204.425 E64.95139
G1 X143.354 Y205.546 E65.00004
G1 X142.848 Y206.584 E65.04805
G1 X142.313 Y207.339 E65.08652
G1 X141.789 Y207.880 E65.11784
G1 X141.749 Y207.921 E65.12022
G1 X141.152 Y208.369 E65.15125
G1 X140.777 Y208.582 E65.16918
G1 X140.107 Y208.850 E65.19918
G1 X139.460 Y208.998 E65.22678
G1 X138.614 Y209.068 E65.26207
G1 X137.819 Y209.009 E65.29521
G1 X137.754 Y209.003 E65.29793
G1 X136.824 Y208.798 E65.33752
G1 X136.743 Y208.779 E65.34098
G1 X135.411 Y208.263 E65.40037
G1 X134.127 Y207.525 E65.46194
G1 X132.808 Y206.476 E65.53200
G1 X131.825 Y205.411 E65.59226
G1 X131.578 Y205.079 E65.60946
G1 X131.082 Y204.237 E65.65009
G1 X130.295 Y202.215 E65.74030
G1 X129.394 Y200.356 E65.82619
G1 X128.371 Y198.489 E65.91470
G1 X127.562 Y197.238 E65.97663
G1 X127.223 Y196.815 E65.99917
G1 X127.090 Y196.655 E66.00782
G1 X126.775 Y196.749 E66.02149
G1 X126.681 Y197.544 E66.05477
G1 X126.676 Y197.588 E66.05661
G1 X126.685 Y198.298 E66.08613
G1 X126.787 Y198.867 E66.11017
G1 X127.027 Y199.570 E66.14105
G1 X127.859 Y201.314 E66.22139
G1 X128.106 Y201.962 E66.25022
G1 X128.389 Y203.126 E66.30002
G1 X128.479 Y204.237 E66.34636
G1 X128.487 Y204.335 E66.35045
G1 X128.400 Y205.600 E66.40317
G1 X128.392 Y205.709 E66.40771
G1 X128.126 Y206.816 E66.45504
G1 X128.103 Y206.909 E66.45903
G1 X127.778 Y207.684 E66.49397
G1 X127.445 Y208.229 E66.52052
G1 X127.119 Y208.615 E66.54153
G1 X126.777 Y208.912 E66.56036
G1 X126.448 Y209.118 E66.57650
G1 X126.015 Y209.293 E66.59591
G1 X125.633 Y209.376 E66.61216
G1 X125.224 Y209.404 E66.62921
G1 X124.646 Y209.353 E66.65333
G1 X123.924 Y209.169 E66.68431
G1 X123.013 Y208.776 E66.72556
G1 X122.935 Y208.742 E66.72910
G1 X121.676 Y207.956 E66.79080
G1 X121.213 Y207.598 E66.81513
G1 X120.411 Y206.813 E66.86179
G1 X120.341 Y206.744 E66.86588
G1 X119.645 Y205.823 E66.91387
G1 X119.584 Y205.744 E66.91802
G1 X118.905 Y204.476 E66.97782
G1 X118.845 Y204.366 E66.98303
G1 X118.143 Y202.385 E67.07041
G1 X117.724 Y201.144 E67.12487
G1 X117.516 Y200.745 E67.14357
G1 X117.379 Y200.554 E67.15335
G1 X117.103 Y200.670 E67.16579
G1 X116.926 Y200.781 E67.17448
G1 X116.632 Y201.039 E67.19074
G1 X116.198 Y201.558 E67.21887
G1 X116.142 Y201.624 E67.22247
G1 X115.366 Y202.916 E67.28513
G1 X114.401 Y205.292 E67.39175
G1 X113.959 Y206.952 E67.46317
G1 X113.608 Y209.629 E67.57541
G1 X113.677 Y212.117 E67.67889
G1 X114.242 Y215.223 E67.81015
G1 X115.785 Y220.638 E68.04424
G1 X116.053 Y222.317 E68.11492
G1 X116.078 Y222.470 E68.12137
G1 X116.082 Y223.591 E68.16798
G1 X116.083 Y223.687 E68.17197
G1 X115.925 Y224.713 E68.21513
G1 X115.643 Y225.600 E68.25382
G1 X115.621 Y225.668 E68.25679
G1 X115.245 Y226.435 E68.29231
G1 X115.211 Y226.503 E68.29547
G1 X114.603 Y227.390 E68.34018
G1 X114.549 Y227.468 E68.34412
G1 X113.755 Y228.311 E68.39227
G1 X113.689 Y228.382 E68.39630
G1 X112.628 Y229.199 E68.45197
G1 X111.869 Y229.626 E68.48818
G1 X110.878 Y230.026 E68.53261
G1 X110.807 Y230.055 E68.53580
G1 X109.910 Y230.253 E68.57399
G1 X109.167 Y230.298 E68.60493
G1 X109.109 Y230.303 E68.60735
G1 X108.781 Y230.286 E68.62101
G1 X108.074 Y230.166 E68.65082
G1 X107.291 Y229.908 E68.68510
G1 X106.561 Y229.530 E68.71928
G1 X105.800 Y228.983 E68.75824
G1 X104.836 Y228.038 E68.81436
G1 X103.787 Y226.610 E68.88803
G1 X102.742 Y224.581 E68.98292
G1 X102.245 Y223.159 E69.04554
G1 X102.200 Y223.033 E69.05111
G1 X102.090 Y222.426 E69.07675
G1 X101.964 Y219.960 E69.17941
G1 X102.230 Y216.123 E69.33932
G1 X102.918 Y211.693 E69.52570
G1 X102.757 Y210.988 E69.55577
G1 X102.387 Y210.963 E69.57119
G1 X101.726 Y212.710 E69.64884
G1 X100.946 Y214.848 E69.74346
G1 X99.082 Y219.532 E69.95305
G1 X98.054 Y221.482 E70.04470
G1 X97.472 Y222.278 E70.08570
G1 X96.959 Y222.800 E70.11613
G1 X96.544 Y223.109 E70.13764
G1 X96.076 Y223.362 E70.15976
G1 X95.589 Y223.533 E70.18121
G1 X94.996 Y223.621 E70.20614
G1 X94.964 Y223.624 E70.20747
G1 X94.443 Y223.609 E70.22914
G1 X93.951 Y223.521 E70.24992
G1 X93.337 Y223.326 E70.27671
G1 X92.580 Y222.948 E70.31189
G1 X92.526 Y222.921 E70.31440
G1 X91.667 Y222.296 E70.35856
G1 X90.904 Y221.526 E70.40363
G1 X90.397 Y220.800 E70.44044
G1 X90.058 Y220.090 E70.47315
G1 X90.029 Y220.031 E70.47589
G1 X89.795 Y219.254 E70.50962
G1 X89.628 Y218.107 E70.55781
G1 X89.614 Y218.018 E70.56156
G1 X89.657 Y216.295 E70.63322
G1 X90.019 Y213.909 E70.73355
G1 X90.655 Y211.024 E70.85637
G1 X90.713 Y210.772 E70.86713
G1 X91.580 Y208.229 E70.97883
G1 X92.850 Y205.563 E71.10160
G1 X94.713 Y202.733 E71.24246
G1 X96.784 Y200.421 E71.37151
G1 X97.673 Y199.597 E71.42190
G1 X95.868 Y197.561 E71.53503
G1 X98.034 Y195.918 E71.64805
G1 X99.805 Y194.966 E71.73165
G1 X100.638 Y194.466 E71.77204
G1 X100.725 Y194.412 E71.77630
G1 X101.832 Y193.407 E71.83846
G1 X103.013 Y191.982 E71.91541
G1 X105.327 Y188.095 E72.10348
G1 X107.639 Y184.887 E72.26788
G1 X109.780 Y186.583 E72.38143
G1 X112.737 Y182.962 E72.57580
G1 X113.671 Y182.007 E72.63133
G1 X114.275 Y181.525 E72.66346
G1 X114.736 Y181.236 E72.68608
G1 X114.767 Y181.216 E72.68762
G1 X116.470 Y180.254 E72.76893
G1 X117.290 Y179.622 E72.81198
G1 X117.385 Y179.548 E72.81698
G1 X118.056 Y178.861 E72.85691
G1 X118.133 Y178.782 E72.86149
G1 X118.472 Y178.338 E72.88472
G1 X118.823 Y177.775 E72.91230
G1 X118.682 Y177.519 E72.92445
G1 X118.139 Y177.513 E72.94703
G1 X117.491 Y177.595 E72.97419
G1 X117.217 Y177.643 E72.98575
G1 X116.337 Y177.893 E73.02378
G1 X115.701 Y178.193 E73.05302
G1 X114.323 Y179.024 E73.11992
G1 X113.772 Y179.337 E73.14627
G1 X111.859 Y180.162 E73.23288
G1 X109.804 Y180.673 E73.32092
G1 X108.797 Y180.806 E73.36315
G1 X106.422 Y180.954 E73.46208
G1 X105.756 Y180.877 E73.48996
G1 X105.702 Y180.870 E73.49222
G1 X105.096 Y180.705 E73.51833
G1 X105.059 Y180.695 E73.51993
G1 X104.434 Y180.410 E73.54848
G1 X104.391 Y180.391 E73.55044
G1 X103.873 Y180.040 E73.57645
G1 X103.320 Y179.567 E73.60671
G1 X102.715 Y178.881 E73.64473
G1 X102.330 Y178.269 E73.67479
G1 X102.088 Y177.749 E73.69864
G1 X101.888 Y177.087 E73.72739
G1 X101.812 Y176.672 E73.74493
G1 X101.782 Y175.923 E73.77610
G1 X101.863 Y175.251 E73.80424
G1 X102.053 Y174.546 E73.83459
G1 X102.376 Y173.804 E73.86824
G1 X102.727 Y173.215 E73.89675
G1 X103.345 Y172.449 E73.93766
G1 X104.070 Y171.801 E73.97809
G1 X104.668 Y171.391 E74.00824
G1 X103.239 Y169.086 E74.12099
G1 X104.087 Y168.652 E74.16059
G1 X105.014 Y168.359 E74.20101
G1 X105.093 Y168.334 E74.20446
G1 X106.355 Y168.140 E74.25754
G1 X107.419 Y167.991 E74.30221
G1 X107.644 Y167.946 E74.31175
G1 X108.528 Y167.651 E74.35049
G1 X109.157 Y167.338 E74.37970
G1 X110.341 Y166.590 E74.43793
G1 X110.781 Y166.331 E74.45916
G1 X112.870 Y165.388 E74.55445
G1 X114.745 Y164.893 E74.63507
G1 X115.928 Y164.733 E74.68470
G1 X118.330 Y164.525 E74.78494
G1 X118.956 Y164.390 E74.81156
G1 X119.036 Y164.372 E74.81497
G1 X119.381 Y164.241 E74.83031
G1 X120.537 Y166.775 E74.94611
G1 X121.761 Y166.079 E75.00465
G1 X121.875 Y166.013 E75.01013
G1 X123.167 Y165.021 E75.07785
G1 X124.074 Y164.079 E75.13222
G1 X124.785 Y163.052 E75.18415
G1 X125.145 Y162.291 E75.21915
G1 X125.187 Y162.203 E75.22320
G1 X125.346 Y161.726 E75.24411
G1 X125.459 Y161.149 E75.26855
G1 X125.476 Y161.070 E75.27191
G1 X125.499 Y160.438 E75.29820
G1 X125.503 Y160.355 E75.30166
G1 X125.369 Y159.273 E75.34699
G1 X124.784 Y157.262 E75.43406
G1 X122.978 Y152.962 E75.62796
G1 X122.419 Y151.691 E75.68569
G1 X120.881 Y148.480 E75.83371
G1 X120.268 Y147.129 E75.89539
G1 X119.784 Y145.688 E75.95859
G1 X119.665 Y145.328 E75.97435
G1 X117.048 Y146.048 E76.08719
G1 X116.489 Y143.161 E76.20945
G1 X116.294 Y139.623 E76.35677
G1 X116.240 Y138.379 E76.40854
G1 X115.840 Y133.170 E76.62574
G1 X115.460 Y130.111 E76.75389
G1 X115.417 Y129.747 E76.76913
G1 X115.300 Y127.004 E76.88328
G1 X115.461 Y121.565 E77.10950
G1 X115.875 Y117.430 E77.28228
G1 X116.054 Y115.865 E77.34777
G1 X117.025 Y108.830 E77.64302
G1 X117.805 Y105.640 E77.77955
G1 X118.086 Y104.829 E77.81524
G1 X119.421 Y101.923 E77.94819
G1 X120.516 Y100.214 E78.03258
G1 X123.207 Y96.726 E78.21573
G1 X134.194 Y83.175 E78.94103
G1 X136.315 Y80.821 E79.07277
G1 X136.959 Y80.272 E79.10795
G1 X140.843 Y77.327 E79.31060
G1 X144.160 Y75.348 E79.47118
G1 X147.155 Y74.040 E79.60706
G1 X150.519 Y73.106 E79.75221
G1 X152.776 Y72.786 E79.84698
G1 X156.101 Y72.750 E79.98522
G1 X159.327 Y73.198 E80.12063
G1 X162.526 Y74.108 E80.25891
G1 X165.747 Y75.497 E80.40474
G1 X168.949 Y77.363 E80.55882
G1 X171.547 Y79.254 E80.69242
G1 X174.663 Y82.022 E80.86570
G1 X177.535 Y85.152 E81.04231
G1 X180.226 Y88.813 E81.23121
G1 X181.855 Y91.786 E81.37215
G1 X182.652 Y94.092 E81.47359
G1 X183.854 Y98.072 E81.64644
G1 X185.950 Y103.123 E81.87380
G1 X188.679 Y108.838 E82.13710
G1 X188.870 Y109.233 E82.15534
G1 X190.193 Y112.687 E82.30911
G1 X191.052 Y116.221 E82.46032
G1 X191.377 Y119.372 E82.59202
G1 X191.306 Y123.125 E82.74808
G1 X191.110 Y125.324 E82.83986
G1 X191.075 Y125.673 E82.85445
G1 X190.393 Y129.428 E83.01311
G1 X189.486 Y132.772 E83.15717
G1 X189.303 Y133.731 E83.19776
G1 X189.114 Y135.810 E83.28455
G1 X189.095 Y136.031 E83.29377
G1 X189.212 Y137.301 E83.34679
G1 X189.722 Y140.257 E83.47150
G1 X189.768 Y140.519 E83.48256
G1 X189.821 Y143.072 E83.58873
G1 X189.694 Y144.327 E83.64117
G1 X187.001 Y143.953 E83.75421
G1 X186.425 Y146.587 E83.86630
G1 X185.806 Y148.090 E83.93388
G1 X184.623 Y150.396 E84.04164
G1 X184.501 Y150.630 E84.05261
G1 X183.883 Y152.454 E84.13267
G1 X183.614 Y153.782 E84.18901
G1 X183.222 Y157.069 E84.32663
G1 X183.282 Y159.415 E84.42420
G1 X183.290 Y159.669 E84.43477
G1 X183.574 Y161.215 E84.50012
G1 X183.607 Y161.388 E84.50744
G1 X184.103 Y162.784 E84.56903
G1 X184.160 Y162.942 E84.57602
G1 X184.789 Y164.075 E84.62989
G1 X185.287 Y164.740 E84.66443
G1 X185.495 Y165.020 E84.67894
G1 X187.620 Y163.223 E84.79464
G1 X187.995 Y163.600 E84.81674
G1 X188.820 Y164.206 E84.85930
G1 X188.913 Y164.274 E84.86409
G1 X190.853 Y165.236 E84.95412
G1 X192.053 Y165.732 E85.00810
G1 X194.438 Y166.511 E85.11242
G1 X194.676 Y166.588 E85.12282
G1 X195.964 Y166.874 E85.17767
G1 X197.829 Y167.244 E85.25672
G1 X201.542 Y167.895 E85.41344
G1 X203.730 Y168.329 E85.50618
G1 X206.195 Y168.972 E85.61209
G1 X205.412 Y171.584 E85.72546
G1 X207.872 Y172.461 E85.83404
G1 X208.474 Y172.802 E85.86281
G1 X208.823 Y173.082 E85.88141
G1 X209.364 Y173.665 E85.91447
G1 X209.916 Y174.464 E85.95485
G1 X210.381 Y175.429 E85.99938
G1 X210.696 Y176.474 E86.04476
G1 X210.723 Y176.562 E86.04859
G1 X210.862 Y177.635 E86.09357
G1 X210.874 Y177.726 E86.09739
G1 X210.845 Y178.677 E86.13694
G1 X210.702 Y179.440 E86.16922
G1 X210.690 Y179.501 E86.17180
G1 X210.467 Y180.132 E86.19963
G1 X210.150 Y180.731 E86.22780
G1 X210.126 Y180.775 E86.22989
G1 X209.816 Y181.189 E86.25139
G1 X209.326 Y181.673 E86.28002
G1 X208.801 Y182.042 E86.30670
G1 X208.275 Y182.302 E86.33110
G1 X207.514 Y182.563 E86.36454
G1 X206.558 Y182.722 E86.40484
G1 X206.482 Y182.735 E86.40804
G1 X205.089 Y182.743 E86.46596
G1 X203.321 Y182.479 E86.54028
G1 X202.547 Y182.271 E86.57360
G1 X200.611 Y181.447 E86.66107
G1 X197.380 Y179.806 E86.81174
G1 X195.812 Y179.023 E86.88460
G1 X195.428 Y178.888 E86.90152
G1 X195.155 Y178.840 E86.91305
G1 X194.982 Y178.854 E86.92026
G1 X194.816 Y178.969 E86.92866
G1 X194.685 Y179.181 E86.93902
G1 X194.599 Y179.408 E86.94911
G1 X194.525 Y179.778 E86.96480
G1 X194.491 Y180.473 E86.99373
G1 X194.575 Y181.391 E87.03206
G1 X194.599 Y181.570 E87.03956
G1 X194.815 Y182.395 E87.07502
G1 X194.842 Y182.496 E87.07937
G1 X195.181 Y183.270 E87.11450
G1 X195.223 Y183.364 E87.11878
G1 X195.931 Y184.469 E87.17334
G1 X197.480 Y186.177 E87.26920
G1 X197.825 Y186.534 E87.28984
G1 X199.034 Y187.570 E87.35604
G1 X199.697 Y188.101 E87.39135
G1 X200.551 Y188.892 E87.43975
G1 X200.808 Y189.133 E87.45440
G0 F12000 X200.490 Y189.160
G1 F1800 X199.063 Y187.899 E87.53357
G1 X197.673 Y186.707 E87.60970
G1 X195.751 Y184.609 E87.72799
G1 X195.732 Y184.588 E87.72917
G1 X195.012 Y183.458 E87.78487
G1 X194.631 Y182.584 E87.82451
G1 X194.376 Y181.623 E87.86585
G1 X194.263 Y180.532 E87.91145
G1 X194.287 Y179.821 E87.94103
G1 X194.371 Y179.366 E87.96026
G1 X194.461 Y179.112 E87.97147
G1 X194.556 Y178.938 E87.97971
G1 X194.636 Y178.834 E87.98516
G1 X194.717 Y178.756 E87.98984
G1 X194.804 Y178.695 E87.99426
G1 X194.978 Y178.627 E88.00202
G1 X195.091 Y178.611 E88.00677
G1 X195.233 Y178.615 E88.01267
G1 X195.425 Y178.647 E88.02077
G1 X195.650 Y178.714 E88.03053
G1 X197.154 Y179.431 E88.09980
G1 X200.479 Y181.131 E88.25506
G1 X202.474 Y182.002 E88.34556
G1 X202.528 Y182.026 E88.34802
G1 X203.370 Y182.251 E88.38425
G1 X205.058 Y182.505 E88.45522
G1 X205.110 Y182.513 E88.45741
G1 X206.422 Y182.506 E88.51195
G1 X206.466 Y182.504 E88.51379
G1 X207.441 Y182.342 E88.55488
G1 X208.116 Y182.123 E88.58438
G1 X208.683 Y181.843 E88.61067
G1 X209.173 Y181.499 E88.63556
G1 X209.610 Y181.076 E88.66085
G1 X209.931 Y180.652 E88.68296
G1 X210.231 Y180.102 E88.70900
G1 X210.465 Y179.446 E88.73796
G1 X210.613 Y178.666 E88.77097
G1 X210.643 Y177.774 E88.80807
G1 X210.645 Y177.733 E88.80978
G1 X210.500 Y176.632 E88.85595
G1 X210.173 Y175.536 E88.90350
G1 X209.730 Y174.606 E88.94633
G1 X209.237 Y173.872 E88.98309
G1 X208.678 Y173.265 E89.01740
G1 X208.339 Y172.989 E89.03557
G1 X207.782 Y172.675 E89.06215
G1 X205.628 Y171.905 E89.15726
G1 X205.102 Y171.749 E89.18007
G1 X201.446 Y170.906 E89.33605
G1 X197.513 Y170.217 E89.50206
G1 X194.031 Y169.494 E89.64991
G1 X191.089 Y168.552 E89.77834
G1 X189.048 Y167.694 E89.87039
G1 X187.093 Y166.642 E89.96269
G1 X186.021 Y165.835 E90.01848
G1 X185.181 Y164.980 E90.06831
G1 X184.887 Y164.615 E90.08779
G1 X184.189 Y163.519 E90.14182
G1 X183.621 Y162.220 E90.20076
G1 X183.200 Y160.632 E90.26906
G1 X182.985 Y158.698 E90.34996
G1 X182.982 Y158.678 E90.35080
G1 X183.041 Y156.319 E90.44891
G1 X183.043 Y156.283 E90.45041
G1 X183.351 Y153.929 E90.54911
G1 X183.875 Y151.647 E90.64646
G1 X184.561 Y149.965 E90.72198
G1 X185.526 Y148.152 E90.80737
G1 X186.206 Y146.510 E90.88125
G1 X186.704 Y144.232 E90.97820
G1 X186.867 Y142.350 E91.05674
G1 X186.872 Y142.297 E91.05895
G1 X186.757 Y140.451 E91.13585
G1 X186.753 Y140.402 E91.13789
G1 X186.308 Y138.032 E91.23815
G1 X186.121 Y136.092 E91.31918
G1 X186.119 Y136.078 E91.31976
G1 X186.341 Y133.391 E91.43186
G1 X186.555 Y132.233 E91.48082
G1 X187.465 Y128.852 E91.62638
G1 X188.105 Y125.389 E91.77280
G1 X188.119 Y125.314 E91.77597
G1 X188.315 Y123.198 E91.86432
G1 X188.399 Y119.567 E92.01532
G1 X188.401 Y119.484 E92.01877
G1 X188.106 Y116.679 E92.13603
G1 X188.099 Y116.610 E92.13892
G1 X187.362 Y113.623 E92.26682
G1 X186.222 Y110.619 E92.40041
G1 X184.123 Y106.213 E92.60331
G1 X181.744 Y100.912 E92.84488
G1 X180.514 Y97.434 E92.99825
G1 X180.033 Y95.743 E93.07135
G1 X179.205 Y93.175 E93.18352
G1 X179.182 Y93.106 E93.18655
G1 X177.752 Y90.481 E93.31082
G1 X176.998 Y89.351 E93.36730
G1 X174.455 Y86.133 E93.53782
G1 X171.586 Y83.206 E93.70822
G1 X168.568 Y80.725 E93.87065
G1 X165.235 Y78.593 E94.03515
G1 X162.222 Y77.181 E94.17349
G1 X159.142 Y76.213 E94.30771
G1 X156.165 Y75.746 E94.43300
G1 X156.090 Y75.734 E94.43615
G1 X153.111 Y75.751 E94.56001
G1 X153.036 Y75.752 E94.56313
G1 X150.168 Y76.237 E94.68406
G1 X147.317 Y77.173 E94.80881
G1 X147.248 Y77.197 E94.81185
G1 X144.394 Y78.610 E94.94425
G1 X141.703 Y80.363 E95.07777
G1 X138.954 Y82.487 E95.22221
G1 X138.397 Y82.955 E95.25245
G1 X136.538 Y85.019 E95.36794
G1 X128.378 Y95.071 E95.90622
G1 X123.829 Y100.732 E96.20815
G1 X122.100 Y103.253 E96.33524
G1 X122.054 Y103.317 E96.33852
G1 X120.931 Y105.728 E96.44909
G1 X120.583 Y106.734 E96.49335
G1 X119.866 Y109.880 E96.62750
G1 X119.042 Y115.989 E96.88378
G1 X118.980 Y116.494 E96.90494
G1 X118.449 Y121.581 E97.11758
G1 X118.279 Y126.960 E97.34132
G1 X118.383 Y129.468 E97.44568
G1 X118.800 Y132.834 E97.58669
G1 X119.204 Y138.073 E97.80515
G1 X119.246 Y139.041 E97.84544
G1 X119.435 Y142.669 E97.99647
G1 X119.440 Y142.753 E97.99997
G1 X119.955 Y145.445 E98.11392
G1 X120.100 Y145.965 E98.13637
G1 X120.917 Y148.010 E98.22792
G1 X122.563 Y151.450 E98.38647
G1 X122.968 Y152.348 E98.42743
G1 X124.996 Y157.166 E98.64476
G1 X125.582 Y159.187 E98.73224
G1 X125.733 Y160.345 E98.78079
G1 X125.706 Y161.093 E98.81191
G1 X125.570 Y161.780 E98.84103
G1 X125.308 Y162.520 E98.87366
G1 X124.838 Y163.414 E98.91566
G1 X124.144 Y164.351 E98.96413
G1 X123.185 Y165.310 E99.02052
G1 X122.022 Y166.191 E99.08118
G1 X120.866 Y166.852 E99.13654
G1 X120.436 Y167.036 E99.15599
G1 X119.316 Y167.371 E99.20459
G1 X117.888 Y167.566 E99.26451
G1 X115.339 Y167.815 E99.37099
G1 X115.272 Y167.822 E99.37379
G1 X113.875 Y168.192 E99.43387
G1 X112.285 Y168.907 E99.50635
G1 X111.837 Y169.162 E99.52778
G1 X110.724 Y169.876 E99.58276
G1 X109.681 Y170.394 E99.63118
G1 X108.382 Y170.830 E99.68814
G1 X106.990 Y171.061 E99.74681
G1 X105.771 Y171.232 E99.79798
G1 X105.205 Y171.412 E99.82268
G1 X104.599 Y171.720 E99.85094
G1 X104.214 Y171.982 E99.87030
G1 X103.551 Y172.573 E99.90723
G1 X103.525 Y172.595 E99.90864
G1 X102.971 Y173.271 E99.94498
G1 X102.614 Y173.839 E99.97287
G1 X102.296 Y174.544 E100.00503
G1 X102.098 Y175.240 E100.03511
G1 X102.018 Y175.895 E100.06254
G1 X102.012 Y175.932 E100.06410
G1 X102.039 Y176.628 E100.09306
G1 X102.220 Y177.441 E100.12769
G1 X102.477 Y178.057 E100.15544
G1 X102.854 Y178.677 E100.18561
G1 X103.371 Y179.293 E100.21904
G1 X103.972 Y179.827 E100.25247
G1 X104.490 Y180.181 E100.27855
G1 X105.096 Y180.460 E100.30629
G1 X105.126 Y180.474 E100.30766
G1 X105.734 Y180.640 E100.33387
G1 X106.405 Y180.719 E100.36196
G1 X106.444 Y180.725 E100.36360
G1 X108.620 Y180.594 E100.45423
G1 X109.754 Y180.446 E100.50177
G1 X111.784 Y179.944 E100.58871
G1 X113.569 Y179.179 E100.66945
G1 X115.473 Y178.051 E100.76146
G1 X116.230 Y177.687 E100.79638
G1 X117.163 Y177.420 E100.83673
G1 X117.962 Y177.296 E100.87035
G1 X118.490 Y177.281 E100.89231
G1 X118.811 Y177.328 E100.90580
G1 X118.921 Y177.367 E100.91065
G1 X118.983 Y177.402 E100.91361
G1 X119.008 Y177.422 E100.91494
G1 X119.059 Y177.486 E100.91834
G1 X119.078 Y177.543 E100.92084
G1 X119.081 Y177.595 E100.92300
G1 X119.075 Y177.667 E100.92601
G1 X118.969 Y177.971 E100.93939
G1 X118.699 Y178.423 E100.96128
G1 X118.326 Y178.912 E100.98685
G1 X117.549 Y179.708 E101.03310
G1 X116.618 Y180.430 E101.08208
G1 X114.889 Y181.414 E101.16479
G1 X114.467 Y181.667 E101.18525
G1 X113.854 Y182.158 E101.21790
G1 X113.827 Y182.179 E101.21932
G1 X112.937 Y183.089 E101.27224
G1 X110.171 Y186.471 E101.45389
G1 X108.907 Y188.133 E101.54070
G1 X107.091 Y190.924 E101.67913
G1 X105.504 Y193.607 E101.80873
G1 X103.977 Y195.473 E101.90898
G1 X103.405 Y196.038 E101.94240
G1 X102.172 Y197.029 E102.00817
G1 X99.654 Y198.420 E102.12777
G1 X97.696 Y199.901 E102.22984
G1 X96.653 Y200.876 E102.28920
G1 X94.673 Y203.176 E102.41537
G1 X92.960 Y205.840 E102.54705
G1 X91.690 Y208.593 E102.67310
G1 X90.799 Y211.347 E102.79344
G1 X90.294 Y213.666 E102.89211
G1 X89.894 Y216.285 E103.00226
G1 X89.847 Y217.957 E103.07180
G1 X89.845 Y218.008 E103.07392
G1 X89.999 Y219.125 E103.12080
G1 X90.242 Y219.938 E103.15608
G1 X90.593 Y220.677 E103.19009
G1 X91.065 Y221.355 E103.22444
G1 X91.800 Y222.104 E103.26807
G1 X92.628 Y222.710 E103.31072
G1 X93.371 Y223.090 E103.34542
G1 X93.945 Y223.283 E103.37060
G1 X94.474 Y223.380 E103.39296
G1 X94.958 Y223.393 E103.41309
G1 X95.509 Y223.315 E103.43622
G1 X95.939 Y223.174 E103.45504
G1 X96.355 Y222.959 E103.47451
G1 X96.786 Y222.644 E103.49670
G1 X97.248 Y222.183 E103.52384
G1 X97.881 Y221.320 E103.56833
G1 X98.927 Y219.306 E103.66268
G1 X100.625 Y215.042 E103.85350
G1 X101.728 Y212.019 E103.98729
G1 X102.376 Y210.476 E104.05686
G1 X102.545 Y210.195 E104.07050
G1 X102.627 Y210.106 E104.07553
G1 X102.693 Y210.191 E104.08000
G1 X102.821 Y210.462 E104.09246
G1 X103.004 Y211.043 E104.11779
G1 X103.150 Y211.677 E104.14484
G1 X103.155 Y211.702 E104.14590
G1 X102.706 Y214.324 E104.25649
G1 X102.250 Y218.570 E104.43404
G1 X102.240 Y218.661 E104.43784
G1 X102.252 Y221.734 E104.56560
G1 X102.253 Y221.808 E104.56868
G1 X102.407 Y222.893 E104.61424
G1 X102.413 Y222.937 E104.61609
G1 X102.951 Y224.476 E104.68387
G1 X103.966 Y226.456 E104.77637
G1 X104.994 Y227.864 E104.84885
G1 X105.917 Y228.776 E104.90280
G1 X106.671 Y229.324 E104.94155
G1 X107.372 Y229.691 E104.97445
G1 X108.043 Y229.921 E105.00394
G1 X108.070 Y229.932 E105.00515
G1 X108.782 Y230.052 E105.03517
G1 X109.223 Y230.072 E105.05352
G1 X109.986 Y230.007 E105.08536
G1 X110.861 Y229.794 E105.12280
G1 X111.823 Y229.397 E105.16607
G1 X112.449 Y229.041 E105.19601
G1 X113.471 Y228.265 E105.24936
G1 X114.321 Y227.380 E105.30037
G1 X114.995 Y226.411 E105.34945
G1 X115.121 Y226.189 E105.36006
G1 X115.517 Y225.284 E105.40113
G1 X115.765 Y224.344 E105.44155
G1 X115.867 Y223.329 E105.48396
G1 X115.871 Y223.291 E105.48555
G1 X115.809 Y222.106 E105.53488
G1 X115.806 Y222.067 E105.53651
G1 X115.481 Y220.376 E105.60810
G1 X114.032 Y215.328 E105.82645
G1 X113.454 Y212.177 E105.95963
G1 X113.378 Y209.648 E106.06483
G1 X113.377 Y209.621 E106.06595
G1 X113.728 Y206.945 E106.17816
G1 X114.047 Y205.663 E106.23308
G1 X115.025 Y203.083 E106.34779
G1 X115.880 Y201.594 E106.41918
G1 X116.423 Y200.920 E106.45516
G1 X116.756 Y200.619 E106.47382
G1 X116.975 Y200.476 E106.48470
G1 X117.127 Y200.409 E106.49161
G1 X117.231 Y200.381 E106.49608
G1 X117.300 Y200.374 E106.49897
G1 X117.379 Y200.377 E106.50225
G1 X117.434 Y200.388 E106.50458
G1 X117.477 Y200.405 E106.50651
G1 X117.607 Y200.497 E106.51313
G1 X117.690 Y200.590 E106.51831
G1 X117.794 Y200.753 E106.52635
G1 X117.983 Y201.170 E106.54538
G1 X118.245 Y201.962 E106.58007
G1 X119.001 Y204.134 E106.67568
G1 X119.021 Y204.193 E106.67827
G1 X119.727 Y205.532 E106.74120
G1 X120.456 Y206.520 E106.79225
G1 X121.334 Y207.394 E106.84376
G1 X121.884 Y207.819 E106.87266
G1 X123.064 Y208.544 E106.93023
G1 X123.103 Y208.569 E106.93216
G1 X124.018 Y208.956 E106.97346
G1 X124.706 Y209.127 E107.00294
G1 X125.246 Y209.173 E107.02547
G1 X125.633 Y209.143 E107.04161
G1 X125.980 Y209.063 E107.05641
G1 X126.332 Y208.919 E107.07222
G1 X126.637 Y208.730 E107.08714
G1 X126.942 Y208.464 E107.10397
G1 X127.255 Y208.096 E107.12405
G1 X127.567 Y207.588 E107.14884
G1 X127.874 Y206.862 E107.18161
G1 X128.154 Y205.723 E107.23037
G1 X128.253 Y204.411 E107.28508
G1 X128.257 Y204.367 E107.28691
G1 X128.168 Y203.221 E107.33470
G1 X128.164 Y203.182 E107.33633
G1 X127.921 Y202.133 E107.38110
G1 X127.859 Y201.943 E107.38941
G1 X126.880 Y199.824 E107.48645
G1 X126.574 Y198.977 E107.52389
G1 X126.459 Y198.337 E107.55093
G1 X126.446 Y197.556 E107.58340
G1 X126.527 Y196.874 E107.61196
G1 X126.613 Y196.551 E107.62585
G1 X126.678 Y196.403 E107.63257
G1 X126.720 Y196.339 E107.63576
G1 X126.782 Y196.279 E107.63934
G1 X126.820 Y196.261 E107.64109
G1 X126.843 Y196.259 E107.64205
G1 X126.944 Y196.287 E107.64641
G1 X127.039 Y196.339 E107.65091
G1 X127.177 Y196.443 E107.65810
G1 X127.466 Y196.734 E107.67515
G1 X127.996 Y197.442 E107.71192
G1 X129.483 Y200.018 E107.83558
G1 X130.490 Y202.088 E107.93128
G1 X131.276 Y204.102 E108.02116
G1 X131.750 Y204.917 E108.06036
G1 X132.018 Y205.281 E108.07915
G1 X132.943 Y206.283 E108.13585
G1 X134.223 Y207.308 E108.20403
G1 X135.480 Y208.038 E108.26446
G1 X136.778 Y208.548 E108.32244
G1 X137.758 Y208.769 E108.36421
G1 X138.572 Y208.832 E108.39815
G1 X138.612 Y208.837 E108.39983
G1 X139.331 Y208.786 E108.42979
G1 X139.363 Y208.784 E108.43113
G1 X140.021 Y208.636 E108.45917
G1 X140.651 Y208.385 E108.48736
G1 X141.033 Y208.171 E108.50556
G1 X141.578 Y207.762 E108.53389
G1 X142.106 Y207.222 E108.56529
G1 X142.131 Y207.197 E108.56676
G1 X142.639 Y206.480 E108.60330
G1 X143.115 Y205.513 E108.64811
G1 X143.134 Y205.476 E108.64984
G1 X143.457 Y204.402 E108.69646
G1 X143.600 Y203.342 E108.74093
G1 X143.611 Y203.078 E108.75192
G1 X143.557 Y202.287 E108.78488
G1 X143.389 Y201.579 E108.81513
G1 X143.063 Y200.771 E108.85136
G1 X142.494 Y199.750 E108.89995
G1 X138.962 Y194.487 E109.16347
G1 X137.266 Y191.875 E109.29295
G1 X135.570 Y189.000 E109.43172
G1 X135.199 Y188.119 E109.47147
G1 X134.964 Y187.208 E109.51058
G1 X134.609 Y184.616 E109.61935
G1 X134.604 Y184.587 E109.62057
G1 X134.644 Y182.243 E109.71804
G1 X134.645 Y182.217 E109.71912
G1 X134.999 Y180.228 E109.80311
G1 X135.519 Y178.701 E109.87018
G1 X136.222 Y177.343 E109.93375
G1 X137.186 Y176.043 E110.00104
G1 X137.369 Y175.836 E110.01253
G1 X138.494 Y174.802 E110.07605
G1 X139.874 Y173.878 E110.14510
G1 X141.492 Y173.125 E110.21930
G1 X143.344 Y172.559 E110.29981
G1 X145.399 Y172.197 E110.38656
G1 X146.653 Y172.091 E110.43888
G1 X147.987 Y172.162 E110.49442
G1 X149.791 Y172.524 E110.57092
G1 X151.137 Y172.679 E110.62725
G1 X151.185 Y172.685 E110.62926
G1 X153.051 Y172.568 E110.70699
G1 X153.498 Y172.502 E110.72578
G1 X155.714 Y171.952 E110.82070
G1 X158.451 Y170.900 E110.94261
G1 X159.693 Y170.546 E110.99630
G1 X160.676 Y170.441 E111.03741
G1 X161.792 Y170.511 E111.08389
G1 X162.424 Y170.658 E111.11087
G1 X163.407 Y171.040 E111.15472
G1 X165.959 Y172.325 E111.27351
G1 X170.323 Y174.672 E111.47952
G1 X170.394 Y174.711 E111.48289
G1 X173.091 Y176.451 E111.61632
G1 X174.083 Y177.333 E111.67151
G1 X174.616 Y177.981 E111.70639
G1 X174.901 Y178.472 E111.73000
G1 X175.093 Y178.969 E111.75215
G1 X175.201 Y179.495 E111.77447
G1 X175.217 Y179.770 E111.78593
G1 X175.180 Y180.204 E111.80403
G1 X175.043 Y180.840 E111.83108
G1 X174.304 Y183.105 E111.93014
G1 X173.321 Y185.476 E112.03685
G1 X172.272 Y187.466 E112.13037
G1 X170.947 Y189.596 E112.23466
G1 X169.846 Y191.388 E112.32210
G1 X169.051 Y193.026 E112.39780
G1 X168.172 Y195.044 E112.48931
G1 X167.785 Y195.648 E112.51914
G1 X167.273 Y196.199 E112.55041
G1 X166.235 Y196.996 E112.60482
G1 X165.685 Y197.437 E112.63413
G1 X165.187 Y198.008 E112.66563
G1 X164.629 Y198.882 E112.70874
G1 X164.276 Y199.706 E112.74601
G1 X164.088 Y200.433 E112.77723
G1 X164.012 Y201.210 E112.80968
G1 X164.008 Y201.234 E112.81070
G1 X164.020 Y201.606 E112.82617
G1 X164.152 Y202.516 E112.86440
G1 X164.423 Y203.389 E112.90240
G1 X164.736 Y204.036 E112.93228
G1 X165.122 Y204.605 E112.96087
G1 X165.590 Y205.109 E112.98946
G1 X166.160 Y205.553 E113.01950
G1 X166.506 Y205.760 E113.03627
G1 X167.124 Y206.032 E113.06434
G1 X167.845 Y206.227 E113.09539
G1 X168.593 Y206.305 E113.12666
G1 X168.623 Y206.309 E113.12792
G1 X169.503 Y206.256 E113.16457
G1 X170.335 Y206.068 E113.20003
G1 X171.069 Y205.774 E113.23290
G1 X171.188 Y205.712 E113.23848
G1 X171.569 Y205.458 E113.25752
G1 X172.017 Y205.050 E113.28271
G1 X172.546 Y204.428 E113.31666
G1 X174.320 Y201.818 E113.44786
G1 X176.211 Y199.242 E113.58072
G1 X176.243 Y199.198 E113.58298
G1 X176.611 Y198.473 E113.61678
G1 X176.897 Y197.883 E113.64404
G1 X177.035 Y197.701 E113.65354
G1 X177.146 Y197.594 E113.65995
G1 X177.290 Y197.508 E113.66692
G1 X177.454 Y197.469 E113.67393
G1 X177.557 Y197.469 E113.67821
G1 X177.719 Y197.501 E113.68508
G1 X177.882 Y197.584 E113.69268
G1 X177.979 Y197.686 E113.69854
G1 X178.000 Y197.730 E113.70056
G1 X178.031 Y197.892 E113.70742
G1 X178.028 Y198.005 E113.71212
G1 X177.981 Y198.252 E113.72257
G1 X177.871 Y198.566 E113.73641
G1 X177.250 Y199.739 E113.79159
G1 X176.590 Y201.115 E113.85503
G1 X176.568 Y201.158 E113.85704
G1 X175.996 Y202.934 E113.93461
G1 X175.691 Y204.756 E114.01142
G1 X175.681 Y206.120 E114.06813
G1 X175.679 Y206.170 E114.07021
G1 X175.840 Y207.171 E114.11236
G1 X176.057 Y207.854 E114.14216
G1 X176.354 Y208.454 E114.16999
G1 X176.495 Y208.671 E114.18075
G1 X176.875 Y209.137 E114.20575
G1 X177.352 Y209.568 E114.23247
G1 X177.946 Y209.964 E114.26216
G1 X178.602 Y210.277 E114.29237
G1 X179.119 Y210.447 E114.31500
G1 X179.645 Y210.547 E114.33726
G1 X180.345 Y210.581 E114.36640
G1 X180.374 Y210.583 E114.36761
G1 X181.167 Y210.496 E114.40077
G1 X182.059 Y210.257 E114.43917
G1 X183.107 Y209.782 E114.48700
G1 X183.145 Y209.764 E114.48875
G1 X184.172 Y209.069 E114.54031
G1 X184.207 Y209.044 E114.54210
G1 X185.050 Y208.250 E114.59024
G1 X185.724 Y207.389 E114.63570
G1 X185.745 Y207.361 E114.63716
G1 X185.927 Y207.063 E114.65167
G1 X186.339 Y206.201 E114.69140
G1 X186.640 Y205.205 E114.73465
G1 X186.811 Y204.131 E114.77987
G1 X186.897 Y202.332 E114.85475
G1 X186.996 Y201.149 E114.90410
G1 X186.997 Y201.139 E114.90452
G1 X187.045 Y200.918 E114.91392
G1 X187.155 Y200.598 E114.92799
G1 X187.254 Y200.409 E114.93686
G1 X187.374 Y200.246 E114.94528
G1 X187.524 Y200.101 E114.95395
G1 X187.713 Y199.973 E114.96344
G1 X187.912 Y199.882 E114.97254
G1 X188.150 Y199.812 E114.98285
G1 X188.438 Y199.774 E114.99493
G1 X188.798 Y199.783 E115.00990
G1 X189.227 Y199.855 E115.02799
G1 X189.849 Y200.057 E115.05518
G1 X190.443 Y200.341 E115.08255
G1 X190.857 Y200.606 E115.10298
G1 X191.294 Y200.989 E115.12714
G1 X191.680 Y201.450 E115.15214
G1 X192.046 Y202.054 E115.18150
G1 X192.405 Y202.915 E115.22029
G1 X192.751 Y204.253 E115.27774
G1 X192.840 Y204.737 E115.29820
G1 X192.907 Y205.709 E115.33871
G1 X192.790 Y206.969 E115.39132
G1 X192.567 Y209.640 E115.50275
G1 X192.614 Y211.198 E115.56756
G1 X192.616 Y211.245 E115.56951
G1 X193.012 Y213.510 E115.66511
G1 X193.127 Y215.243 E115.73732
G1 X193.082 Y216.151 E115.77511
G1 X192.777 Y217.753 E115.84291
G1 X191.661 Y222.385 E116.04100
G1 X191.521 Y223.037 E116.06873
G1 X190.847 Y227.117 E116.24065
G1 X190.831 Y227.210 E116.24457
G1 X190.809 Y228.246 E116.28766
G1 X190.807 Y228.288 E116.28940
G1 X190.867 Y228.741 E116.30840
G1 X190.963 Y229.071 E116.32269
G1 X191.106 Y229.369 E116.33643
G1 X191.420 Y229.848 E116.36024
G1 X191.887 Y230.375 E116.38952
G1 X192.502 Y230.880 E116.42260
G1 X193.282 Y231.340 E116.46025
G1 X194.233 Y231.716 E116.50277
G1 X195.308 Y231.953 E116.54853
G1 X196.315 Y232.015 E116.59048
G1 X196.346 Y232.018 E116.59177
G1 X197.305 Y231.924 E116.63184
G1 X197.344 Y231.919 E116.63347
G1 X198.235 Y231.679 E116.67183
G1 X199.055 Y231.310 E116.70922
G1 X199.851 Y230.792 E116.74870
G1 X200.613 Y230.110 E116.79122
G1 X201.503 Y229.016 E116.84985
G1 X202.173 Y227.890 E116.90433
G1 X202.601 Y226.941 E116.94761
G1 X202.930 Y225.789 E116.99742
G1 X203.105 Y224.323 E117.05880
G1 X203.113 Y224.273 E117.06091
G1 X202.960 Y220.271 E117.22741
G1 X202.748 Y217.963 E117.32377
G1 X201.775 Y209.865 E117.66287
G1 X201.639 Y207.587 E117.75774
G1 X201.638 Y207.569 E117.75849
G1 X201.695 Y207.001 E117.78223
G1 X201.771 Y206.712 E117.79465
G1 X201.838 Y206.564 E117.80141
G1 X201.895 Y206.474 E117.80583
G1 X201.941 Y206.421 E117.80875
G1 X202.082 Y206.323 E117.81589
G1 X202.136 Y206.301 E117.81832
G1 X202.214 Y206.282 E117.82165
G1 X202.313 Y206.275 E117.82578
G1 X202.442 Y206.285 E117.83116
G1 X202.624 Y206.325 E117.83891
G1 X202.880 Y206.420 E117.85026
G1 X203.681 Y206.864 E117.88833
G1 X204.205 Y207.242 E117.91520
G1 X204.630 Y207.669 E117.94024
G1 X205.034 Y208.225 E117.96882
G1 X205.485 Y209.092 E118.00945
G1 X206.192 Y210.997 E118.09393
G1 X206.562 Y212.112 E118.14277
G1 X207.107 Y214.319 E118.23728
G1 X207.231 Y215.733 E118.29629
G1 X207.232 Y215.743 E118.29671
G1 X207.128 Y217.263 E118.36005
G1 X207.014 Y217.877 E118.38602
G1 X206.612 Y219.319 E118.44826
G1 X206.598 Y219.366 E118.45029
G1 X206.534 Y219.878 E118.47175
G1 X206.566 Y220.480 E118.49681
G1 X206.568 Y220.508 E118.49798
G1 X206.668 Y221.028 E118.51999
G1 X206.955 Y221.911 E118.55859
G1 X207.348 Y222.687 E118.59476
G1 X207.745 Y223.243 E118.62316
G1 X208.176 Y223.690 E118.64898
G1 X208.200 Y223.717 E118.65048
G1 X208.714 Y224.107 E118.67730
G1 X209.316 Y224.429 E118.70569
G1 X209.797 Y224.607 E118.72701
G1 X210.552 Y224.770 E118.75912
G1 X211.291 Y224.810 E118.78989
G1 X211.320 Y224.812 E118.79110
G1 X211.822 Y224.771 E118.81204
G1 X212.437 Y224.642 E118.83817
G1 X212.986 Y224.437 E118.86253
G1 X213.461 Y224.172 E118.88514
G1 X213.880 Y223.840 E118.90737
G1 X214.006 Y223.718 E118.91466
G1 X214.240 Y223.423 E118.93031
G1 X214.483 Y222.986 E118.95110
G1 X214.766 Y222.192 E118.98615
G1 X214.778 Y222.161 E118.98753
G1 X215.086 Y220.346 E119.06407
G1 X215.163 Y218.593 E119.13702
G1 X215.166 Y218.543 E119.13910
G1 X214.971 Y216.141 E119.23929
G1 X214.966 Y216.079 E119.24188
G1 X214.533 Y214.101 E119.32606
G1 X214.379 Y213.595 E119.34805
G1 X213.604 Y211.702 E119.43309
G1 X212.418 Y209.704 E119.52969
G1 X210.993 Y206.986 E119.65728
G1 X209.867 Y203.985 E119.79054
G1 X209.028 Y200.445 E119.94180
G1 X208.518 Y199.098 E120.00168
G1 X207.598 Y197.585 E120.07530
G1 X206.781 Y196.564 E120.12966
G1 X205.545 Y195.323 E120.20248
G1 X203.503 Y192.924 E120.33346
G1 X202.093 Y191.013 E120.43220
G1 X200.490 Y189.160 E120.53406
G1 F2100 E120.13406
G0 F12000 X202.000 Y188.900
;TYPE:SKIN
G1 F2100 E120.53406
G1 F1800 X202.000 Y189.873 E120.57452
G0 F12000 X202.500 Y190.451
G1 F1800 X202.500 Y188.404 E120.65962
G0 F12000 X203.000 Y188.548
G1 F1800 X203.000 Y191.105 E120.76593
G0 F12000 X203.500 Y191.782
G1 F1800 X203.500 Y189.126 E120.87635
G0 F12000 X204.000 Y189.745
G1 F1800 X204.000 Y192.460 E120.98923
G0 F12000 X204.500 Y193.053
G1 F1800 X204.500 Y190.415 E121.09890
G0 F12000 X205.000 Y191.085
G1 F1800 X205.000 Y193.640 E121.20513
G0 F12000 X205.500 Y194.227
G1 F1800 X205.500 Y191.713 E121.30965
G0 F12000 X206.000 Y192.302
G1 F1800 X206.000 Y194.815 E121.41413
G0 F12000 X206.500 Y195.324
G1 F1800 X206.500 Y192.892 E121.51524
G0 F12000 X207.000 Y193.481
G1 F1800 X207.000 Y195.827 E121.61277
G0 F12000 X207.500 Y196.383
G1 F1800 X207.500 Y194.012 E121.71135
G0 F12000 X208.000 Y194.536
G1 F1800 X208.000 Y197.007 E121.81408
G0 F12000 X208.500 Y197.768
G1 F1800 X208.500 Y195.061 E121.92662
G0 F12000 X209.000 Y195.634
G1 F1800 X209.000 Y198.591 E122.04956
G0 F12000 X209.500 Y199.785
G1 F1800 X209.500 Y196.310 E122.19403
G0 F12000 X210.000 Y197.129
G1 F1800 X210.000 Y201.619 E122.38071
G1 F2100 E121.98071
G0 F12000 X211.500 Y200.963
G1 F2100 E122.38071
G1 F1800 X211.500 Y205.681 E122.57686
G0 F12000 X212.000 Y205.457
G1 F1800 X212.000 Y202.996 E122.67917
G1 F2100 E122.27917
G0 F12000 X212.500 Y204.523
G1 F2100 E122.67917
G1 F1800 X212.500 Y205.233 E122.70869
G1 F2100 E122.30869
G0 F12000 X211.000 Y205.084
G1 F2100 E122.70869
G1 F1800 X211.000 Y199.163 E122.95486
G0 F12000 X210.500 Y197.948
G1 F1800 X210.500 Y203.728 E123.19516
G1 F2100 E122.79516
G0 F12000 X204.500 Y170.917
G1 F2100 E123.19516
G1 F1800 X204.500 Y169.228 E123.26538
G0 F12000 X205.000 Y169.358
G1 F1800 X205.000 Y170.608 E123.31735
G0 F12000 X204.000 Y170.802
G1 F1800 X204.000 Y169.097 E123.38824
G0 F12000 X203.500 Y168.972
G1 F1800 X203.500 Y170.686 E123.45950
G0 F12000 X203.000 Y170.571
G1 F1800 X203.000 Y168.873 E123.53009
G0 F12000 X202.500 Y168.774
G1 F1800 X202.500 Y170.456 E123.60002
G0 F12000 X202.000 Y170.341
G1 F1800 X202.000 Y168.675 E123.66929
G0 F12000 X201.500 Y168.576
G1 F1800 X201.500 Y170.230 E123.73805
G0 F12000 X201.000 Y170.142
G1 F1800 X201.000 Y168.486 E123.80690
G0 F12000 X200.500 Y168.398
G1 F1800 X200.500 Y170.055 E123.87579
G0 F12000 X200.000 Y169.967
G1 F1800 X200.000 Y168.310 E123.94468
G0 F12000 X199.500 Y168.223
G1 F1800 X199.500 Y169.880 E124.01357
G0 F12000 X199.000 Y169.792
G1 F1800 X199.000 Y168.135 E124.08246
G0 F12000 X198.500 Y168.047
G1 F1800 X198.500 Y169.704 E124.15135
G0 F12000 X198.000 Y169.617
G1 F1800 X198.000 Y167.959 E124.22028
G0 F12000 X197.500 Y167.867
G1 F1800 X197.500 Y169.525 E124.28921
G0 F12000 X197.000 Y169.421
G1 F1800 X197.000 Y167.768 E124.35794
G0 F12000 X196.500 Y167.668
G1 F1800 X196.500 Y169.317 E124.42650
G0 F12000 X196.000 Y169.213
G1 F1800 X196.000 Y167.569 E124.49485
G0 F12000 X195.500 Y167.463
G1 F1800 X195.500 Y169.110 E124.56332
G0 F12000 X195.000 Y169.006
G1 F1800 X195.000 Y167.352 E124.63209
G0 F12000 X194.500 Y167.241
G1 F1800 X194.500 Y168.902 E124.70114
G0 F12000 X194.000 Y168.775
G1 F1800 X194.000 Y167.078 E124.77169
G0 F12000 X193.500 Y166.915
G1 F1800 X193.500 Y168.615 E124.84237
G0 F12000 X193.000 Y168.455
G1 F1800 X193.000 Y166.752 E124.91317
G0 F12000 X192.500 Y166.589
G1 F1800 X192.500 Y168.295 E124.98410
G0 F12000 X192.000 Y168.134
G1 F1800 X192.000 Y166.426 E125.05511
G0 F12000 X191.500 Y166.234
G1 F1800 X191.500 Y167.974 E125.12745
G0 F12000 X191.000 Y167.782
G1 F1800 X191.000 Y166.028 E125.20038
G0 F12000 X190.500 Y165.815
G1 F1800 X190.500 Y167.572 E125.27342
G0 F12000 X190.000 Y167.362
G1 F1800 X190.000 Y165.567 E125.34805
G0 F12000 X189.500 Y165.319
G1 F1800 X189.500 Y167.152 E125.42426
G0 F12000 X189.000 Y166.901
G1 F1800 X189.000 Y165.071 E125.50034
G0 F12000 X188.500 Y164.808
G1 F1800 X188.500 Y166.632 E125.57617
G0 F12000 X188.000 Y166.364
G1 F1800 X188.000 Y164.441 E125.65612
G0 F12000 X187.500 Y164.209
G1 F1800 X187.500 Y166.095 E125.73453
G0 F12000 X187.000 Y165.729
G1 F1800 X187.000 Y164.632 E125.78014
G0 F12000 X186.500 Y165.054
G1 F1800 X186.500 Y165.351 E125.79249
G1 F2100 E125.39249
G0 F12000 X189.000 Y143.548
G1 F2100 E125.79249
G1 F1800 X189.000 Y140.041 E125.93829
G1 F2100 E125.53829
G0 F12000 X187.500 Y141.521
G1 F2100 E125.93829
G1 F1800 X187.500 Y131.321 E126.36236
G1 F2100 E125.96236
G0 F12000 X189.000 Y131.986
G1 F2100 E126.36236
G1 F1800 X189.000 Y122.763 E126.74581
G1 F2100 E126.34581
G0 F12000 X190.500 Y124.537
G1 F2100 E126.74581
G1 F1800 X190.500 Y117.452 E127.04037
G1 F2100 E126.64037
G0 F12000 X189.000 Y118.730
G1 F2100 E127.04037
G1 F1800 X189.000 Y111.459 E127.34266
G0 F12000 X188.500 Y110.154
G1 F1800 X188.500 Y115.417 E127.56147
G1 F2100 E127.16147
G0 F12000 X190.000 Y114.753
G1 F2100 E127.56147
G1 F1800 X190.000 Y127.811 E128.10436
G1 F2100 E127.70436
G0 F12000 X188.500 Y126.964
G1 F2100 E128.10436
G1 F1800 X188.500 Y135.121 E128.44349
G1 F2100 E128.04349
G0 F12000 X188.500 Y136.928
G1 F2100 E128.44349
G1 F1800 X188.500 Y143.479 E128.71585
G0 F12000 X188.000 Y143.410
G1 F1800 X188.000 Y129.464 E129.29566
G1 F2100 E128.89566
G0 F12000 X189.500 Y130.141
G1 F2100 E129.29566
G1 F1800 X189.500 Y112.764 E130.01811
G1 F2100 E129.61811
G0 F12000 X188.000 Y113.401
G1 F2100 E130.01811
G1 F1800 X188.000 Y108.980 E130.20191
G0 F12000 X187.500 Y107.933
G1 F1800 X187.500 Y112.084 E130.37449
G0 F12000 X187.000 Y110.767
G1 F1800 X187.000 Y106.886 E130.53584
G0 F12000 X186.500 Y105.840
G1 F1800 X186.500 Y109.633 E130.69354
G0 F12000 X186.000 Y108.584
G1 F1800 X186.000 Y104.793 E130.85115
G0 F12000 X185.500 Y103.746
G1 F1800 X185.500 Y107.534 E131.00864
G0 F12000 X185.000 Y106.485
G1 F1800 X185.000 Y102.594 E131.17040
G0 F12000 X184.500 Y101.389
G1 F1800 X184.500 Y105.407 E131.33745
G0 F12000 X184.000 Y104.293
G1 F1800 X184.000 Y100.184 E131.50829
G0 F12000 X183.500 Y98.980
G1 F1800 X183.500 Y103.179 E131.68286
G0 F12000 X183.000 Y102.064
G1 F1800 X183.000 Y97.578 E131.86937
G1 F2100 E131.46937
G0 F12000 X181.500 Y98.199
G1 F2100 E131.86937
G1 F1800 X181.500 Y92.825 E132.09279
G0 F12000 X181.000 Y91.630
G1 F1800 X181.000 Y96.677 E132.30262
G1 F2100 E131.90262
G0 F12000 X182.500 Y95.924
G1 F2100 E132.30262
G1 F1800 X182.500 Y100.950 E132.51158
G0 F12000 X182.000 Y99.613
G1 F1800 X182.000 Y94.274 E132.73355
G1 F2100 E132.33355
G0 F12000 X180.500 Y94.989
G1 F2100 E132.73355
G1 F1800 X180.500 Y90.718 E132.91111
G0 F12000 X180.000 Y89.806
G1 F1800 X180.000 Y93.439 E133.06216
G0 F12000 X179.500 Y92.279
G1 F1800 X179.500 Y88.965 E133.19994
G0 F12000 X179.000 Y88.285
G1 F1800 X179.000 Y91.361 E133.32782
G0 F12000 X178.500 Y90.443
G1 F1800 X178.500 Y87.604 E133.44585
G0 F12000 X178.000 Y86.924
G1 F1800 X178.000 Y89.636 E133.55861
G0 F12000 X177.500 Y88.897
G1 F1800 X177.500 Y86.244 E133.66891
G0 F12000 X177.000 Y85.568
G1 F1800 X177.000 Y88.264 E133.78099
G0 F12000 X176.500 Y87.631
G1 F1800 X176.500 Y85.023 E133.88942
G0 F12000 X176.000 Y84.478
G1 F1800 X176.000 Y86.998 E133.99419
G0 F12000 X175.500 Y86.365
G1 F1800 X175.500 Y83.933 E134.09530
G0 F12000 X175.000 Y83.388
G1 F1800 X175.000 Y85.741 E134.19313
G0 F12000 X174.500 Y85.228
G1 F1800 X174.500 Y82.843 E134.29228
G0 F12000 X174.000 Y82.336
G1 F1800 X174.000 Y84.715 E134.39119
G0 F12000 X173.500 Y84.202
G1 F1800 X173.500 Y81.892 E134.48723
G0 F12000 X173.000 Y81.448
G1 F1800 X173.000 Y83.690 E134.58044
G0 F12000 X172.500 Y83.177
G1 F1800 X172.500 Y81.004 E134.67078
G0 F12000 X172.000 Y80.560
G1 F1800 X172.000 Y82.673 E134.75863
G0 F12000 X171.500 Y82.262
G1 F1800 X171.500 Y80.116 E134.84785
G0 F12000 X171.000 Y79.691
G1 F1800 X171.000 Y81.851 E134.93765
G0 F12000 X170.500 Y81.439
G1 F1800 X170.500 Y79.327 E135.02546
G0 F12000 X170.000 Y78.963
G1 F1800 X170.000 Y81.028 E135.11131
G0 F12000 X169.500 Y80.617
G1 F1800 X169.500 Y78.599 E135.19521
G0 F12000 X169.000 Y78.235
G1 F1800 X169.000 Y80.215 E135.27753
G0 F12000 X168.500 Y79.893
G1 F1800 X168.500 Y77.883 E135.36110
G0 F12000 X168.000 Y77.591
G1 F1800 X168.000 Y79.571 E135.44342
G0 F12000 X167.500 Y79.249
G1 F1800 X167.500 Y77.300 E135.52445
G0 F12000 X167.000 Y77.009
G1 F1800 X167.000 Y78.927 E135.60419
G0 F12000 X166.500 Y78.605
G1 F1800 X166.500 Y76.717 E135.68268
G0 F12000 X166.000 Y76.426
G1 F1800 X166.000 Y78.283 E135.75989
G0 F12000 X165.500 Y77.972
G1 F1800 X165.500 Y76.134 E135.83630
G0 F12000 X165.000 Y75.911
G1 F1800 X165.000 Y77.737 E135.91222
G0 F12000 X164.500 Y77.503
G1 F1800 X164.500 Y75.695 E135.98739
G0 F12000 X164.000 Y75.479
G1 F1800 X164.000 Y77.268 E136.06176
G0 F12000 X163.500 Y77.034
G1 F1800 X163.500 Y75.264 E136.13535
G0 F12000 X163.000 Y75.048
G1 F1800 X163.000 Y76.799 E136.20815
G0 F12000 X162.500 Y76.564
G1 F1800 X162.500 Y74.833 E136.28012
G0 F12000 X162.000 Y74.661
G1 F1800 X162.000 Y76.393 E136.35213
G0 F12000 X161.500 Y76.238
G1 F1800 X161.500 Y74.519 E136.42359
G0 F12000 X161.000 Y74.376
G1 F1800 X161.000 Y76.082 E136.49452
G0 F12000 X160.500 Y75.927
G1 F1800 X160.500 Y74.234 E136.56491
G0 F12000 X160.000 Y74.092
G1 F1800 X160.000 Y75.772 E136.63475
G0 F12000 X159.500 Y75.617
G1 F1800 X159.500 Y73.950 E136.70406
G0 F12000 X159.000 Y73.834
G1 F1800 X159.000 Y75.507 E136.77361
G0 F12000 X158.500 Y75.428
G1 F1800 X158.500 Y73.765 E136.84275
G0 F12000 X158.000 Y73.696
G1 F1800 X158.000 Y75.350 E136.91152
G0 F12000 X157.500 Y75.271
G1 F1800 X157.500 Y73.627 E136.97987
G0 F12000 X157.000 Y73.557
G1 F1800 X157.000 Y75.193 E137.04789
G0 F12000 X156.500 Y75.114
G1 F1800 X156.500 Y73.488 E137.11549
G0 F12000 X156.000 Y73.426
G1 F1800 X156.000 Y75.060 E137.18342
G0 F12000 X155.500 Y75.063
G1 F1800 X155.500 Y73.432 E137.25123
G0 F12000 X155.000 Y73.437
G1 F1800 X155.000 Y75.066 E137.31896
G0 F12000 X154.500 Y75.069
G1 F1800 X154.500 Y73.442 E137.38660
G0 F12000 X154.000 Y73.448
G1 F1800 X154.000 Y75.072 E137.45412
G0 F12000 X153.500 Y75.075
G1 F1800 X153.500 Y73.453 E137.52155
G0 F12000 X153.000 Y73.459
G1 F1800 X153.000 Y75.078 E137.58886
G0 F12000 X152.500 Y75.159
G1 F1800 X152.500 Y73.506 E137.65759
G0 F12000 X152.000 Y73.577
G1 F1800 X152.000 Y75.243 E137.72685
G0 F12000 X151.500 Y75.328
G1 F1800 X151.500 Y73.648 E137.79670
G0 F12000 X151.000 Y73.719
G1 F1800 X151.000 Y75.413 E137.86712
G0 F12000 X150.500 Y75.497
G1 F1800 X150.500 Y73.811 E137.93722
G0 F12000 X150.000 Y73.950
G1 F1800 X150.000 Y75.582 E138.00507
G0 F12000 X149.500 Y75.746
G1 F1800 X149.500 Y74.089 E138.07396
G0 F12000 X149.000 Y74.228
G1 F1800 X149.000 Y75.910 E138.14389
G0 F12000 X148.500 Y76.074
G1 F1800 X148.500 Y74.367 E138.21486
G0 F12000 X148.000 Y74.505
G1 F1800 X148.000 Y76.238 E138.28691
G0 F12000 X147.500 Y76.402
G1 F1800 X147.500 Y74.644 E138.36000
G0 F12000 X147.000 Y74.843
G1 F1800 X147.000 Y76.569 E138.43176
G0 F12000 X146.500 Y76.815
G1 F1800 X146.500 Y75.061 E138.50468
G0 F12000 X146.000 Y75.280
G1 F1800 X146.000 Y77.062 E138.57877
G0 F12000 X145.500 Y77.309
G1 F1800 X145.500 Y75.498 E138.65406
G0 F12000 X145.000 Y75.716
G1 F1800 X145.000 Y77.557 E138.73060
G0 F12000 X144.500 Y77.804
G1 F1800 X144.500 Y75.934 E138.80834
G0 F12000 X144.000 Y76.227
G1 F1800 X144.000 Y78.061 E138.88459
G0 F12000 X143.500 Y78.387
G1 F1800 X143.500 Y76.526 E138.96196
G0 F12000 X143.000 Y76.825
G1 F1800 X143.000 Y78.713 E139.04046
G0 F12000 X142.500 Y79.039
G1 F1800 X142.500 Y77.123 E139.12012
G0 F12000 X142.000 Y77.422
G1 F1800 X142.000 Y79.364 E139.20086
G0 F12000 X141.500 Y79.690
G1 F1800 X141.500 Y77.721 E139.28272
G0 F12000 X141.000 Y78.055
G1 F1800 X141.000 Y80.053 E139.36578
G0 F12000 X140.500 Y80.440
G1 F1800 X140.500 Y78.434 E139.44918
G0 F12000 X140.000 Y78.814
G1 F1800 X140.000 Y80.826 E139.53283
G0 F12000 X139.500 Y81.213
G1 F1800 X139.500 Y79.193 E139.61682
G0 F12000 X139.000 Y79.572
G1 F1800 X139.000 Y81.599 E139.70109
G0 F12000 X138.500 Y81.988
G1 F1800 X138.500 Y79.951 E139.78578
G0 F12000 X138.000 Y80.330
G1 F1800 X138.000 Y82.407 E139.87213
G0 F12000 X137.500 Y82.943
G1 F1800 X137.500 Y80.709 E139.96501
G0 F12000 X137.000 Y81.124
G1 F1800 X137.000 Y83.498 E140.06371
G0 F12000 X136.500 Y84.053
G1 F1800 X136.500 Y81.624 E140.16469
G0 F12000 X136.000 Y82.179
G1 F1800 X136.000 Y84.611 E140.26580
G0 F12000 X135.500 Y85.229
G1 F1800 X135.500 Y82.734 E140.36953
G0 F12000 X135.000 Y83.289
G1 F1800 X135.000 Y85.847 E140.47588
G0 F12000 X134.500 Y86.466
G1 F1800 X134.500 Y83.869 E140.58385
G0 F12000 X134.000 Y84.486
G1 F1800 X134.000 Y87.084 E140.69187
G0 F12000 X133.500 Y87.702
G1 F1800 X133.500 Y85.103 E140.79992
G0 F12000 X133.000 Y85.719
G1 F1800 X133.000 Y88.320 E140.90806
G0 F12000 X132.500 Y88.938
G1 F1800 X132.500 Y86.336 E141.01624
G0 F12000 X132.000 Y86.952
G1 F1800 X132.000 Y89.556 E141.12450
G0 F12000 X131.500 Y90.174
G1 F1800 X131.500 Y87.569 E141.23280
G0 F12000 X131.000 Y88.186
G1 F1800 X131.000 Y90.793 E141.34119
G0 F12000 X130.500 Y91.411
G1 F1800 X130.500 Y88.802 E141.44966
G0 F12000 X130.000 Y89.419
G1 F1800 X130.000 Y92.029 E141.55817
G0 F12000 X129.500 Y92.647
G1 F1800 X129.500 Y90.036 E141.66672
G0 F12000 X129.000 Y90.652
G1 F1800 X129.000 Y93.265 E141.77536
G0 F12000 X128.500 Y93.883
G1 F1800 X128.500 Y91.269 E141.88403
G0 F12000 X128.000 Y91.886
G1 F1800 X128.000 Y94.501 E141.99275
G0 F12000 X127.500 Y95.119
G1 F1800 X127.500 Y92.502 E142.10156
G0 F12000 X127.000 Y93.119
G1 F1800 X127.000 Y95.738 E142.21044
G0 F12000 X126.500 Y96.356
G1 F1800 X126.500 Y93.736 E142.31937
G0 F12000 X126.000 Y94.352
G1 F1800 X126.000 Y96.974 E142.42838
G0 F12000 X125.500 Y97.592
G1 F1800 X125.500 Y94.969 E142.53743
G0 F12000 X125.000 Y95.585
G1 F1800 X125.000 Y98.210 E142.64656
G0 F12000 X124.500 Y98.828
G1 F1800 X124.500 Y96.202 E142.75574
G0 F12000 X124.000 Y96.819
G1 F1800 X124.000 Y99.446 E142.86496
G0 F12000 X123.500 Y100.065
G1 F1800 X123.500 Y97.450 E142.97368
G0 F12000 X123.000 Y98.098
G1 F1800 X123.000 Y100.763 E143.08448
G0 F12000 X122.500 Y101.486
G1 F1800 X122.500 Y98.746 E143.19839
G0 F12000 X122.000 Y99.394
G1 F1800 X122.000 Y102.209 E143.31543
G0 F12000 X121.500 Y102.932
G1 F1800 X121.500 Y100.043 E143.43554
G0 F12000 X121.000 Y100.710
G1 F1800 X121.000 Y103.982 E143.57157
G0 F12000 X120.500 Y105.055
G1 F1800 X120.500 Y101.490 E143.71979
G0 F12000 X120.000 Y102.276
G1 F1800 X120.000 Y106.357 E143.88945
G1 F2100 E143.48945
G0 F12000 X118.500 Y105.695
G1 F2100 E143.88945
G1 F1800 X118.500 Y114.991 E144.27594
G1 F2100 E143.87594
G0 F12000 X117.000 Y113.955
G1 F2100 E144.27594
G1 F1800 X117.000 Y139.996 E145.35860
G1 F2100 E144.95860
G0 F12000 X118.500 Y137.724
G1 F2100 E145.35860
G1 F1800 X118.500 Y144.949 E145.65898
G0 F12000 X118.000 Y145.087
G1 F1800 X118.000 Y131.862 E146.20881
G1 F2100 E145.80881
G0 F12000 X116.500 Y133.003
G1 F2100 E146.20881
G1 F1800 X116.500 Y117.960 E146.83422
G1 F2100 E146.43422
G0 F12000 X118.000 Y119.385
G1 F2100 E146.83422
G1 F1800 X118.000 Y107.685 E147.32065
G1 F2100 E146.92065
G0 F12000 X119.500 Y108.448
G1 F2100 E147.32065
G1 F1800 X119.500 Y103.365 E147.53198
G0 F12000 X119.000 Y104.454
G1 F1800 X119.000 Y111.257 E147.81482
G1 F2100 E147.41482
G0 F12000 X117.500 Y110.329
G1 F2100 E147.81482
G1 F1800 X117.500 Y144.832 E149.24928
G1 F2100 E148.84928
G0 F12000 X119.000 Y144.811
G1 F2100 E149.24928
G1 F1800 X119.000 Y144.042 E149.28125
G1 F2100 E148.88125
G0 F12000 X116.000 Y127.571
G1 F2100 E149.28125
G1 F1800 X116.000 Y126.191 E149.33863
G1 F2100 E148.93863
G0 F12000 X119.000 Y165.070
G1 F2100 E149.33863
G1 F1800 X119.000 Y166.734 E149.40781
G0 F12000 X118.500 Y166.802
G1 F1800 X118.500 Y165.178 E149.47533
G0 F12000 X118.000 Y165.230
G1 F1800 X118.000 Y166.871 E149.54355
G0 F12000 X117.500 Y166.927
G1 F1800 X117.500 Y165.273 E149.61232
G0 F12000 X117.000 Y165.316
G1 F1800 X117.000 Y166.976 E149.68133
G0 F12000 X116.500 Y167.025
G1 F1800 X116.500 Y165.360 E149.75055
G0 F12000 X116.000 Y165.403
G1 F1800 X116.000 Y167.074 E149.82003
G0 F12000 X115.500 Y167.123
G1 F1800 X115.500 Y165.471 E149.88871
G0 F12000 X115.000 Y165.539
G1 F1800 X115.000 Y167.196 E149.95760
G0 F12000 X114.500 Y167.328
G1 F1800 X114.500 Y165.655 E150.02715
G0 F12000 X114.000 Y165.787
G1 F1800 X114.000 Y167.461 E150.09675
G0 F12000 X113.500 Y167.621
G1 F1800 X113.500 Y165.918 E150.16755
G0 F12000 X113.000 Y166.069
G1 F1800 X113.000 Y167.846 E150.24143
G0 F12000 X112.500 Y168.070
G1 F1800 X112.500 Y166.294 E150.31527
G0 F12000 X112.000 Y166.519
G1 F1800 X112.000 Y168.295 E150.38911
G0 F12000 X111.500 Y168.578
G1 F1800 X111.500 Y166.744 E150.46536
G0 F12000 X111.000 Y166.983
G1 F1800 X111.000 Y168.898 E150.54497
G0 F12000 X110.500 Y169.219
G1 F1800 X110.500 Y167.288 E150.62525
G0 F12000 X110.000 Y167.604
G1 F1800 X110.000 Y169.482 E150.70333
G0 F12000 X109.500 Y169.730
G1 F1800 X109.500 Y167.921 E150.77854
G0 F12000 X109.000 Y168.170
G1 F1800 X109.000 Y169.911 E150.85092
G0 F12000 X108.500 Y170.079
G1 F1800 X108.500 Y168.372 E150.92189
G0 F12000 X108.000 Y168.539
G1 F1800 X108.000 Y170.210 E150.99137
G0 F12000 X107.500 Y170.293
G1 F1800 X107.500 Y168.661 E151.05922
G0 F12000 X107.000 Y168.731
G1 F1800 X107.000 Y170.375 E151.12757
G0 F12000 X106.500 Y170.448
G1 F1800 X106.500 Y168.800 E151.19608
G0 F12000 X106.000 Y168.877
G1 F1800 X106.000 Y170.518 E151.26431
G0 F12000 X105.500 Y170.610
G1 F1800 X105.500 Y168.954 E151.33316
G0 F12000 X105.000 Y169.071
G1 F1800 X105.000 Y170.645 E151.39859
G0 F12000 X104.500 Y169.839
G1 F1800 X104.500 Y169.229 E151.42396
G1 F2100 E151.02396
G0 F12000 X119.500 Y166.612
G1 F2100 E151.42396
G1 F1800 X119.500 Y166.128 E151.44408
G1 F2100 E151.04408
G0 F12000 X138.500 Y175.713
G1 F2100 E151.44408
G1 F1800 X138.500 Y175.943 E151.45364
G0 F12000 X139.000 Y176.385
G1 F1800 X139.000 Y175.275 E151.49979
G0 F12000 X139.500 Y174.940
G1 F1800 X139.500 Y176.826 E151.57820
G0 F12000 X140.000 Y176.572
G1 F1800 X140.000 Y174.604 E151.66002
G0 F12000 X140.500 Y174.328
G1 F1800 X140.500 Y176.195 E151.73764
G0 F12000 X141.000 Y175.915
G1 F1800 X141.000 Y174.096 E151.81327
G0 F12000 X141.500 Y173.865
G1 F1800 X141.500 Y175.634 E151.88681
G0 F12000 X142.000 Y175.425
G1 F1800 X142.000 Y173.675 E151.95957
G0 F12000 X142.500 Y173.522
G1 F1800 X142.500 Y175.245 E152.03120
G0 F12000 X143.000 Y175.065
G1 F1800 X143.000 Y173.369 E152.10171
G0 F12000 X143.500 Y173.217
G1 F1800 X143.500 Y174.893 E152.17139
G0 F12000 X144.000 Y174.801
G1 F1800 X144.000 Y173.129 E152.24091
G0 F12000 X144.500 Y173.041
G1 F1800 X144.500 Y174.708 E152.31021
G0 F12000 X145.000 Y174.616
G1 F1800 X145.000 Y172.953 E152.37935
G0 F12000 X145.500 Y172.865
G1 F1800 X145.500 Y174.524 E152.44833
G0 F12000 X146.000 Y174.450
G1 F1800 X146.000 Y172.823 E152.51597
G0 F12000 X146.500 Y172.781
G1 F1800 X146.500 Y174.405 E152.58349
G0 F12000 X147.000 Y174.409
G1 F1800 X147.000 Y172.786 E152.65096
G0 F12000 X147.500 Y172.812
G1 F1800 X147.500 Y174.424 E152.71798
G0 F12000 X148.000 Y174.514
G1 F1800 X148.000 Y172.852 E152.78708
G0 F12000 X148.500 Y172.952
G1 F1800 X148.500 Y174.615 E152.85622
G0 F12000 X149.000 Y174.715
G1 F1800 X149.000 Y173.053 E152.92532
G0 F12000 X149.500 Y173.153
G1 F1800 X149.500 Y174.804 E152.99396
G0 F12000 X150.000 Y174.860
G1 F1800 X150.000 Y173.229 E153.06177
G0 F12000 X150.500 Y173.287
G1 F1800 X150.500 Y174.916 E153.12949
G0 F12000 X151.000 Y174.971
G1 F1800 X151.000 Y173.345 E153.19709
G0 F12000 X151.500 Y173.341
G1 F1800 X151.500 Y174.957 E153.26428
G0 F12000 X152.000 Y174.927
G1 F1800 X152.000 Y173.310 E153.33151
G0 F12000 X152.500 Y173.279
G1 F1800 X152.500 Y174.897 E153.39878
G0 F12000 X153.000 Y174.867
G1 F1800 X153.000 Y173.247 E153.46613
G0 F12000 X153.500 Y173.184
G1 F1800 X153.500 Y174.830 E153.53456
G0 F12000 X154.000 Y174.743
G1 F1800 X154.000 Y173.073 E153.60399
G0 F12000 X154.500 Y172.949
G1 F1800 X154.500 Y174.656 E153.67496
G0 F12000 X155.000 Y174.509
G1 F1800 X155.000 Y172.825 E153.74497
G0 F12000 X155.500 Y172.700
G1 F1800 X155.500 Y174.358 E153.81390
G0 F12000 X156.000 Y174.207
G1 F1800 X156.000 Y172.565 E153.88217
G0 F12000 X156.500 Y172.373
G1 F1800 X156.500 Y174.056 E153.95214
G0 F12000 X157.000 Y173.906
G1 F1800 X157.000 Y172.181 E154.02386
G0 F12000 X157.500 Y171.989
G1 F1800 X157.500 Y173.753 E154.09720
G0 F12000 X158.000 Y173.557
G1 F1800 X158.000 Y171.797 E154.17037
G0 F12000 X158.500 Y171.604
G1 F1800 X158.500 Y173.361 E154.24342
G0 F12000 X159.000 Y173.165
G1 F1800 X159.000 Y171.445 E154.31493
G0 F12000 X159.500 Y171.302
G1 F1800 X159.500 Y172.980 E154.38469
G0 F12000 X160.000 Y172.838
G1 F1800 X160.000 Y171.191 E154.45316
G0 F12000 X160.500 Y171.138
G1 F1800 X160.500 Y172.764 E154.52077
G1 F2100 E154.12077
G0 F12000 X187.500 Y143.341
G1 F2100 E154.52077
G1 F1800 X187.500 Y142.892 E154.53943
G0 F12000 X187.000 Y138.060
G1 F1800 X187.000 Y133.614 E154.72428
G1 F2100 E154.32428
G0 F12000 X108.500 Y186.431
G1 F2100 E154.72428
G1 F1800 X108.500 Y187.553 E154.77092
G0 F12000 X108.000 Y188.289
G1 F1800 X108.000 Y186.034 E154.86467
G0 F12000 X107.500 Y186.232
G1 F1800 X107.500 Y189.058 E154.98217
G0 F12000 X107.000 Y189.827
G1 F1800 X107.000 Y186.926 E155.10278
G0 F12000 X106.500 Y187.620
G1 F1800 X106.500 Y190.598 E155.22659
G0 F12000 X106.000 Y191.443
G1 F1800 X106.000 Y188.313 E155.35672
G0 F12000 X105.500 Y189.123
G1 F1800 X105.500 Y192.288 E155.48830
G0 F12000 X105.000 Y193.132
G1 F1800 X105.000 Y189.963 E155.62005
G0 F12000 X104.500 Y190.804
G1 F1800 X104.500 Y193.769 E155.74332
G0 F12000 X104.000 Y194.380
G1 F1800 X104.000 Y191.645 E155.85703
G0 F12000 X103.500 Y192.452
G1 F1800 X103.500 Y194.991 E155.96259
G0 F12000 X103.000 Y195.489
G1 F1800 X103.000 Y193.055 E156.06379
G0 F12000 X102.500 Y193.657
G1 F1800 X102.500 Y195.899 E156.15700
G0 F12000 X102.000 Y196.302
G1 F1800 X102.000 Y194.165 E156.24584
G0 F12000 X101.500 Y194.619
G1 F1800 X101.500 Y196.629 E156.32941
G0 F12000 X101.000 Y196.906
G1 F1800 X101.000 Y195.035 E156.40720
G0 F12000 X100.500 Y195.335
G1 F1800 X100.500 Y197.182 E156.48399
G0 F12000 X100.000 Y197.458
G1 F1800 X100.000 Y195.627 E156.56011
G0 F12000 X99.500 Y195.896
G1 F1800 X99.500 Y197.734 E156.63653
G0 F12000 X99.000 Y198.068
G1 F1800 X99.000 Y196.164 E156.71568
G0 F12000 X98.500 Y196.433
G1 F1800 X98.500 Y198.447 E156.79942
G0 F12000 X98.000 Y198.825
G1 F1800 X98.000 Y196.790 E156.88402
G0 F12000 X97.500 Y197.170
G1 F1800 X97.500 Y198.383 E156.93445
G0 F12000 X97.000 Y197.819
G1 F1800 X97.000 Y197.549 E156.94568
;LAYER:1
M106 S10
G1 F2100 E156.54568
G0 F12000 X98.309 Y196.338 Z0.400
;TYPE:WALL-INNER
G1 F2100 E156.94568
G1 F2220 X100.235 Y195.302 E157.03660
G1 X101.027 Y194.814 E157.07528
G1 X102.195 Y193.753 E157.14088
G1 X103.068 Y192.698 E157.19781
G1 X103.423 Y192.271 E157.22090
G1 X105.750 Y188.362 E157.41003
G1 X107.738 Y185.604 E157.55138
G1 X109.279 Y186.824 E157.63310
G1 X108.476 Y187.874 E157.68805
G1 X106.732 Y190.558 E157.82113
G1 X105.066 Y193.365 E157.95684
G1 X103.602 Y195.141 E158.05253
G1 X103.094 Y195.643 E158.08222
G1 X101.890 Y196.614 E158.14653
G1 X99.334 Y198.026 E158.26793
G1 X97.909 Y199.110 E158.34237
G1 X96.600 Y197.634 E158.42439
G1 X98.309 Y196.338 E158.51356
G1 F2100 E158.11356
G0 F12000 X105.037 Y170.941
G1 F2100 E158.51356
G1 F2220 X104.992 Y170.964 E158.51566
G1 X103.950 Y169.284 E158.59785
G1 X104.271 Y169.119 E158.61286
G1 X105.209 Y168.822 E158.65376
G1 X106.169 Y168.675 E158.69414
G1 X107.610 Y168.468 E158.75466
G1 X108.719 Y168.114 E158.80306
G1 X109.248 Y167.851 E158.82762
G1 X109.465 Y167.742 E158.83772
G1 X110.380 Y167.158 E158.88285
G1 X110.980 Y166.794 E158.91203
G1 X113.041 Y165.859 E159.00612
G1 X114.842 Y165.384 E159.08355
G1 X116.102 Y165.213 E159.13642
G1 X117.733 Y165.077 E159.20446
G1 X118.404 Y165.020 E159.23246
G1 X119.116 Y164.866 E159.26275
G1 X119.936 Y166.663 E159.34487
G1 X119.268 Y166.864 E159.37387
G1 X117.885 Y167.063 E159.43196
G1 X115.183 Y167.329 E159.54484
G1 X113.681 Y167.726 E159.60943
G1 X112.014 Y168.480 E159.68550
G1 X110.484 Y169.436 E159.76050
G1 X109.525 Y169.913 E159.80503
G1 X108.276 Y170.338 E159.85989
G1 X106.972 Y170.557 E159.91486
G1 X105.660 Y170.743 E159.96995
G1 X105.037 Y170.941 E159.99713
G1 F2100 E159.59713
G0 F12000 X117.436 Y145.422
G1 F2100 E159.99713
G1 F2220 X116.986 Y143.097 E160.09558
G1 X116.773 Y139.240 E160.25618
G1 X116.746 Y138.530 E160.28572
G1 X116.447 Y134.535 E160.45228
G1 X116.337 Y133.120 E160.51129
G1 X115.921 Y129.773 E160.65151
G1 X115.801 Y127.011 E160.76645
G1 X115.961 Y121.581 E160.99230
G1 X116.413 Y117.079 E161.18041
G1 X116.522 Y116.165 E161.21868
G1 X117.259 Y110.782 E161.44457
G1 X117.515 Y108.930 E161.52230
G1 X118.285 Y105.780 E161.65712
G1 X118.578 Y104.936 E161.69426
G1 X119.864 Y102.158 E161.82153
G1 X120.923 Y100.504 E161.90318
G1 X123.862 Y96.695 E162.10320
G1 X134.580 Y83.494 E162.81015
G1 X136.660 Y81.185 E162.93936
G1 X137.350 Y80.597 E162.97705
G1 X141.129 Y77.738 E163.17406
G1 X144.387 Y75.794 E163.33179
G1 X147.319 Y74.513 E163.46482
G1 X150.624 Y73.596 E163.60741
G1 X152.814 Y73.285 E163.69938
G1 X156.071 Y73.251 E163.83479
G1 X159.221 Y73.688 E163.96701
G1 X162.360 Y74.581 E164.10269
G1 X165.519 Y75.943 E164.24571
G1 X168.679 Y77.785 E164.39778
G1 X171.230 Y79.641 E164.52894
G1 X174.310 Y82.377 E164.70022
G1 X177.150 Y85.473 E164.87489
G1 X179.802 Y89.080 E165.06102
G1 X181.396 Y91.989 E165.19893
G1 X182.253 Y94.469 E165.30802
G1 X183.383 Y98.240 E165.47169
G1 X185.493 Y103.326 E165.70061
G1 X186.309 Y105.042 E165.77961
G1 X188.413 Y109.440 E165.98231
G1 X189.714 Y112.836 E166.13350
G1 X190.559 Y116.310 E166.28214
G1 X190.876 Y119.389 E166.41083
G1 X190.806 Y123.100 E166.56514
G1 X190.595 Y125.474 E166.66423
G1 X190.089 Y128.312 E166.78408
G1 X189.905 Y129.314 E166.82644
G1 X188.999 Y132.660 E166.97056
G1 X188.851 Y133.434 E167.00332
G1 X188.788 Y133.756 E167.01696
G1 X188.593 Y136.032 E167.11193
G1 X188.690 Y137.089 E167.15606
G1 X188.728 Y137.493 E167.17293
G1 X189.269 Y140.571 E167.30286
G1 X189.320 Y143.057 E167.40624
G1 X189.249 Y143.760 E167.43562
G1 X187.276 Y143.486 E167.51843
G1 X187.360 Y142.456 E167.56140
G1 X187.373 Y142.304 E167.56774
G1 X187.260 Y140.489 E167.64334
G1 X187.250 Y140.341 E167.64951
G1 X186.795 Y137.922 E167.75184
G1 X186.621 Y136.074 E167.82902
G1 X186.832 Y133.521 E167.93552
G1 X186.842 Y133.409 E167.94019
G1 X187.038 Y132.370 E167.98415
G1 X187.919 Y129.089 E168.12539
G1 X188.573 Y125.606 E168.27273
G1 X188.807 Y123.305 E168.36889
G1 X188.902 Y119.463 E168.52867
G1 X188.615 Y116.730 E168.64292
G1 X188.592 Y116.523 E168.65158
G1 X187.878 Y113.628 E168.77554
G1 X187.826 Y113.418 E168.78454
G1 X186.724 Y110.530 E168.91305
G1 X184.652 Y106.161 E169.11408
G1 X182.206 Y100.719 E169.36214
G1 X181.037 Y97.413 E169.50793
G1 X180.528 Y95.658 E169.58390
G1 X179.712 Y93.117 E169.69485
G1 X179.644 Y92.909 E169.70395
G1 X178.153 Y90.171 E169.83357
G1 X177.444 Y89.119 E169.88631
G1 X174.993 Y86.006 E170.05104
G1 X174.830 Y85.801 E170.06193
G1 X171.924 Y82.837 E170.23450
G1 X168.863 Y80.320 E170.39926
G1 X165.477 Y78.154 E170.56637
G1 X162.545 Y76.780 E170.70099
G1 X162.330 Y76.678 E170.71089
G1 X159.419 Y75.776 E170.83759
G1 X159.199 Y75.706 E170.84719
G1 X156.125 Y75.234 E170.97649
G1 X152.994 Y75.252 E171.10666
G1 X150.207 Y75.723 E171.22417
G1 X149.993 Y75.759 E171.23320
G1 X147.263 Y76.665 E171.35278
G1 X147.058 Y76.733 E171.36176
G1 X144.146 Y78.175 E171.49686
G1 X141.513 Y79.891 E171.62752
G1 X138.744 Y82.018 E171.77269
G1 X138.069 Y82.576 E171.80910
G1 X136.226 Y84.618 E171.92346
G1 X127.838 Y94.943 E172.47653
G1 X123.428 Y100.433 E172.76929
G1 X121.752 Y102.876 E172.89247
G1 X121.618 Y103.068 E172.90220
G1 X120.445 Y105.587 E173.01773
G1 X120.114 Y106.563 E173.06057
G1 X119.407 Y109.641 E173.19187
G1 X119.359 Y109.848 E173.20071
G1 X118.576 Y115.700 E173.44618
G1 X118.486 Y116.414 E173.47609
G1 X117.973 Y121.331 E173.68163
G1 X117.940 Y121.642 E173.69463
G1 X117.779 Y126.963 E173.91595
G1 X117.877 Y129.343 E174.01499
G1 X117.884 Y129.510 E174.02194
G1 X118.285 Y132.749 E174.15763
G1 X118.691 Y137.929 E174.37365
G1 X118.746 Y139.035 E174.41969
G1 X118.929 Y142.561 E174.56648
G1 X118.943 Y142.813 E174.57697
G1 X119.342 Y144.898 E174.66523
G1 X117.436 Y145.422 E174.74741
G1 F2100 E174.34741
G0 F12000 X138.802 Y175.198
G1 F2100 E174.74741
G1 F2220 X140.098 Y174.329 E174.81228
G1 X141.657 Y173.599 E174.88385
G1 X143.434 Y173.054 E174.96113
G1 X145.390 Y172.706 E175.04373
G1 X146.650 Y172.593 E175.09632
G1 X146.663 Y172.592 E175.09686
G1 X147.910 Y172.658 E175.14878
G1 X147.925 Y172.659 E175.14940
G1 X149.610 Y172.997 E175.22085
G1 X151.035 Y173.170 E175.28053
G1 X151.169 Y173.187 E175.28615
G1 X153.006 Y173.071 E175.36267
G1 X153.142 Y173.062 E175.36834
G1 X153.597 Y172.992 E175.38748
G1 X155.700 Y172.471 E175.47756
G1 X155.865 Y172.429 E175.48464
G1 X158.505 Y171.415 E175.60221
G1 X159.783 Y171.040 E175.65758
G1 X160.685 Y170.943 E175.69530
G1 X160.975 Y170.961 E175.70738
G1 X160.696 Y172.918 E175.78957
G1 X160.143 Y172.979 E175.81270
G1 X159.390 Y173.194 E175.84525
G1 X157.351 Y173.998 E175.93638
G1 X154.556 Y174.824 E176.05755
G1 X153.736 Y174.965 E176.09214
G1 X153.453 Y175.015 E176.10409
G1 X151.083 Y175.157 E176.20280
G1 X149.815 Y175.016 E176.25584
G1 X149.342 Y174.962 E176.27563
G1 X148.090 Y174.711 E176.32872
G1 X147.542 Y174.600 E176.35197
G1 X146.576 Y174.572 E176.39215
G1 X145.963 Y174.629 E176.41774
G1 X144.153 Y174.947 E176.49415
G1 X143.497 Y175.070 E176.52189
G1 X141.717 Y175.712 E176.60056
G1 X140.871 Y176.186 E176.64088
G1 X140.522 Y176.383 E176.65754
G1 X139.861 Y176.904 E176.69253
G1 X139.578 Y177.129 E176.70757
G1 X138.109 Y175.834 E176.78898
G1 X138.802 Y175.198 E176.82809
G1 F2100 E176.42809
G0 F12000 X186.079 Y165.181
G1 F2100 E176.82809
G1 F2220 X187.591 Y163.903 E176.91040
G1 X187.724 Y164.036 E176.91822
G1 X188.378 Y164.506 E176.95170
G1 X188.656 Y164.704 E176.96589
G1 X190.646 Y165.691 E177.05824
G1 X192.000 Y166.251 E177.11916
G1 X194.545 Y167.071 E177.23032
G1 X195.604 Y167.306 E177.27542
G1 X197.381 Y167.665 E177.35080
G1 X197.912 Y167.770 E177.37330
G1 X201.818 Y168.451 E177.53814
G1 X203.798 Y168.854 E177.62215
G1 X205.567 Y169.323 E177.69824
G1 X205.001 Y171.214 E177.78030
G1 X201.681 Y170.447 E177.92197
G1 X197.748 Y169.750 E178.08803
G1 X194.250 Y169.028 E178.23652
G1 X194.101 Y168.997 E178.24285
G1 X191.343 Y168.108 E178.36333
G1 X189.338 Y167.273 E178.45362
G1 X187.397 Y166.238 E178.54508
G1 X187.345 Y166.210 E178.54753
G1 X186.362 Y165.466 E178.59879
G1 X186.079 Y165.181 E178.61548
G1 F2100 E178.21548
G0 F12000 X202.712 Y187.948
G1 F2100 E178.61548
G1 F2220 X204.057 Y189.500 E178.70087
G1 X204.531 Y190.144 E178.73411
G1 X205.243 Y191.113 E178.78411
G1 X205.458 Y191.406 E178.79921
G1 X207.355 Y193.627 E178.92065
G1 X208.920 Y195.246 E179.01427
G1 X209.581 Y196.095 E179.05900
G1 X210.740 Y198.004 E179.15185
G1 X211.387 Y199.680 E179.22654
G1 X212.050 Y202.584 E179.35038
G1 X212.632 Y204.365 E179.42828
G1 X212.858 Y205.054 E179.45843
G1 X212.933 Y205.231 E179.46642
G1 X211.160 Y206.023 E179.54715
G1 X210.326 Y203.784 E179.64649
G1 X209.548 Y200.475 E179.78781
G1 X209.490 Y200.231 E179.79824
G1 X208.958 Y198.851 E179.85973
G1 X208.066 Y197.392 E179.93082
G1 X207.991 Y197.269 E179.93681
G1 X207.183 Y196.267 E179.99033
G1 X205.954 Y195.024 E180.06300
G1 X203.967 Y192.697 E180.19022
G1 X202.535 Y190.769 E180.29007
G1 X201.307 Y189.342 E180.36834
G1 X202.712 Y187.948 E180.45062
G1 F2100 E180.05062
G0 F12000 X200.808 Y189.133
;TYPE:WALL-OUTER
G1 F2100 E180.45062
G1 F2220 X202.739 Y187.217 E180.56372
G1 X204.456 Y189.197 E180.67268
G1 X205.850 Y191.094 E180.77055
G1 X207.725 Y193.290 E180.89060
G1 X209.304 Y194.924 E180.98507
G1 X209.989 Y195.805 E181.03147
G1 X211.193 Y197.788 E181.12792
G1 X211.864 Y199.526 E181.20537
G1 X212.533 Y202.451 E181.33012
G1 X213.327 Y204.878 E181.43629
