;-- START GCODE --
;Sliced for Type A Machines Series 1
;Sliced at: Sun 10-11-2019 15:06:16
;Basic settings:
; Layer height: 0.3
; Walls: 1
; Fill: 8
; Print Speed: 60
; Support: 0
; Retraction Speed: 35
; Retraction Distance: 0.4
;Print time: 4 minutes
;Filament used: 0.399m 1.0g
;Settings based on: Type A Machines Everyday PLA
G21        ;metric values
G90        ;absolute positioning
G28     ;move to endstops
G29		;allows for auto-levelling
G1 Z15.0 F12000 ;move the platform down 15mm
G1 X150 Y5 F12000 ;center
M140 S50 ;Prep Heat Bed
M109 S220 ;Heat To temp
M190 S50 ;Heat Bed to temp
G1 X150 Y5 Z0.3 ;move the platform to purge extrusion
G92 E0 ;zero the extruded length
G1 F200 X250 E30 ;extrude 30mm of feed stock
G92 E0 ;zero the extruded length again
G1 X150 Y150  Z25 F12000 ;recenter and begin
G1 F12000

;Layer count: 13
;LAYER:0
M107
G0 F12000 X122.295 Y93.706 Z0.200
;TYPE:SKIRT
G1 F1800 X124.789 Y90.630 E0.16464
G1 X132.940 Y80.584 E0.70249
G1 X133.369 Y80.055 E0.73081
G1 X135.289 Y77.921 E0.85015
G1 X135.523 Y77.661 E0.86469
G1 X136.297 Y77.005 E0.90688
G1 X139.942 Y74.242 E1.09703
G1 X140.252 Y74.008 E1.11318
G1 X143.687 Y71.957 E1.27951
G1 X146.673 Y70.668 E1.41473
G1 X147.015 Y70.519 E1.43024
G1 X150.125 Y69.680 E1.56416
G1 X150.457 Y69.590 E1.57846
G1 X152.680 Y69.283 E1.67176
G1 X156.014 Y69.251 E1.81038
G1 X156.419 Y69.248 E1.82722
G1 X159.639 Y69.740 E1.96264
G1 X160.014 Y69.799 E1.97843
G1 X163.554 Y70.886 E2.13238
G1 X166.744 Y72.360 E2.27848
G1 X167.063 Y72.507 E2.29309
G1 X170.048 Y74.348 E2.43889
G1 X170.334 Y74.525 E2.45288
G1 X173.438 Y76.956 E2.61679
G1 X173.714 Y77.172 E2.63136
G1 X176.665 Y80.039 E2.80242
G1 X176.921 Y80.288 E2.81727
G1 X179.587 Y83.485 E2.99033
G1 X179.799 Y83.739 E3.00409
G1 X181.171 Y85.713 E3.10403
G1 X181.341 Y85.955 E3.11633
G1 X182.882 Y88.787 E3.25037
G1 X183.090 Y89.168 E3.26842
G1 X183.922 Y91.657 E3.37753
G1 X184.988 Y95.228 E3.53247
G1 X184.992 Y95.241 E3.53303
G1 X186.613 Y99.295 E3.71455
G1 X186.612 Y99.295 E3.71459
G1 X186.653 Y99.397 E3.71916
G1 X187.959 Y102.194 E3.84750
G1 X190.104 Y106.683 E4.05434
G1 X191.378 Y109.948 E4.20006
G1 X191.506 Y110.278 E4.21477
G1 X192.300 Y113.436 E4.35015
G1 X192.390 Y113.795 E4.36554
G1 X192.733 Y116.976 E4.49856
G1 X192.774 Y117.335 E4.51358
G1 X192.693 Y121.117 E4.67085
G1 X192.687 Y121.393 E4.68233
G1 X192.507 Y123.422 E4.76702
G1 X192.448 Y123.960 E4.78952
G1 X191.776 Y127.638 E4.94496
G1 X190.842 Y131.147 E5.09593
G1 X190.654 Y132.094 E5.13607
G1 X190.460 Y134.380 E5.23145
G1 X190.580 Y135.682 E5.28581
G1 X191.072 Y138.475 E5.40372
G1 X191.139 Y138.847 E5.41943
G1 X191.185 Y141.137 E5.51466
G1 X191.195 Y141.446 E5.52751
G1 X191.027 Y143.133 E5.59800
G1 X190.461 Y145.750 E5.70932
G1 X190.372 Y146.144 E5.72611
G1 X189.539 Y148.165 E5.81699
G1 X188.289 Y150.585 E5.93023
G1 X187.905 Y151.664 E5.97785
G1 X187.610 Y153.033 E6.03607
G1 X187.269 Y155.907 E6.15640
G1 X187.324 Y158.020 E6.24427
G1 X187.546 Y159.229 E6.29538
G1 X187.918 Y160.274 E6.34150
G1 X188.306 Y160.975 E6.37481
G1 X188.561 Y161.314 E6.39244
G1 X189.111 Y161.877 E6.42516
G1 X189.694 Y162.313 E6.45543
G1 X191.254 Y163.153 E6.52909
G1 X192.962 Y163.881 E6.60628
G1 X195.550 Y164.724 E6.71945
G1 X196.959 Y165.050 E6.77957
G1 X198.787 Y165.411 E6.85704
G1 X202.736 Y166.101 E7.02371
G1 X204.896 Y166.536 E7.11531
G1 X207.500 Y167.220 E7.22725
G1 X209.939 Y168.081 E7.33478
G1 X210.309 Y168.214 E7.35113
G1 X211.384 Y168.821 E7.40245
G1 X212.167 Y169.438 E7.44390
G1 X213.117 Y170.453 E7.50170
G1 X213.933 Y171.644 E7.56172
G1 X214.640 Y173.088 E7.62857
G1 X215.075 Y174.498 E7.68991
G1 X215.178 Y174.825 E7.70417
G1 X215.366 Y176.269 E7.76471
G1 X215.409 Y176.568 E7.77727
G1 X215.370 Y177.842 E7.83026
G1 X215.357 Y178.139 E7.84262
G1 X215.114 Y179.434 E7.89740
G1 X214.772 Y180.423 E7.94090
G1 X214.668 Y180.708 E7.95352
G1 X214.217 Y181.539 E7.99283
G1 X214.086 Y181.777 E8.00412
G1 X213.460 Y182.610 E8.04744
G1 X212.606 Y183.452 E8.09730
G1 X211.632 Y184.148 E8.14707
G1 X210.571 Y184.682 E8.19646
G1 X209.625 Y185.000 E8.23795
G1 X209.353 Y185.096 E8.24994
G1 X207.783 Y185.356 E8.31610
G1 X206.109 Y185.375 E8.38570
G1 X205.779 Y185.380 E8.39943
G1 X203.753 Y185.079 E8.48458
G1 X203.485 Y185.037 E8.49586
G1 X203.103 Y184.934 E8.51231
G1 X203.946 Y185.718 E8.56017
G1 X205.785 Y187.829 E8.67657
G1 X206.564 Y188.870 E8.73062
G1 X207.273 Y189.834 E8.78038
G1 X209.149 Y192.044 E8.90090
G1 X210.995 Y194.007 E9.01293
G1 X211.506 Y194.659 E9.04737
G1 X211.634 Y194.830 E9.05625
G1 X212.654 Y196.500 E9.13760
G1 X212.856 Y196.828 E9.15362
G1 X213.477 Y198.437 E9.22532
G1 X213.583 Y198.713 E9.23762
G1 X214.392 Y202.192 E9.38611
G1 X214.398 Y202.220 E9.38731
G1 X214.854 Y203.618 E9.44844
G1 X215.356 Y204.842 E9.50344
G1 X216.669 Y207.357 E9.62140
G1 X217.901 Y209.460 E9.72273
G1 X218.099 Y209.791 E9.73876
G1 X219.071 Y212.319 E9.85137
G1 X219.202 Y212.660 E9.86655
G1 X219.704 Y214.981 E9.96528
G1 X219.705 Y214.981 E9.96532
G1 X219.770 Y215.276 E9.97788
G1 X219.975 Y217.413 E10.06713
G1 X219.990 Y219.030 E10.13436
G1 X219.993 Y219.227 E10.14256
G1 X219.922 Y220.312 E10.18776
G1 X219.909 Y220.512 E10.19609
G1 X219.601 Y222.409 E10.27600
G1 X219.543 Y222.750 E10.29038
G1 X219.151 Y223.921 E10.34172
G1 X219.048 Y224.223 E10.35498
G1 X218.629 Y225.010 E10.39205
G1 X218.502 Y225.256 E10.40356
G1 X217.952 Y225.975 E10.44120
G1 X217.489 Y226.451 E10.46880
G1 X216.845 Y226.962 E10.50298
G1 X216.617 Y227.141 E10.51503
G1 X215.666 Y227.674 E10.56036
G1 X214.854 Y227.984 E10.59649
G1 X214.576 Y228.093 E10.60891
G1 X213.437 Y228.335 E10.65732
G1 X212.753 Y228.395 E10.68587
G1 X212.486 Y228.427 E10.69705
G1 X211.399 Y228.372 E10.74230
G1 X211.100 Y228.356 E10.75474
G1 X209.995 Y228.121 E10.80171
G1 X209.734 Y228.061 E10.81285
G1 X208.835 Y227.733 E10.85263
G1 X207.949 Y227.266 E10.89427
G1 X207.678 Y227.122 E10.90703
G1 X207.349 Y226.871 E10.92423
G1 X207.132 Y227.697 E10.95974
G1 X207.046 Y228.006 E10.97308
G1 X206.401 Y229.468 E11.03951
G1 X205.326 Y231.251 E11.12607
G1 X204.303 Y232.486 E11.19274
G1 X204.121 Y232.706 E11.20461
G1 X203.383 Y233.381 E11.24620
G1 X203.200 Y233.544 E11.25638
G1 X202.052 Y234.351 E11.31472
G1 X201.099 Y234.864 E11.35972
G1 X199.808 Y235.349 E11.41706
G1 X198.797 Y235.594 E11.46031
G1 X197.514 Y235.728 E11.51394
G1 X197.202 Y235.760 E11.52698
G1 X195.873 Y235.682 E11.58233
G1 X195.567 Y235.664 E11.59507
G1 X194.185 Y235.362 E11.65388
G1 X193.882 Y235.294 E11.66679
G1 X192.434 Y234.728 E11.73143
G1 X191.348 Y234.104 E11.78350
G1 X191.079 Y233.945 E11.79649
G1 X190.039 Y233.095 E11.85234
G1 X189.172 Y232.136 E11.90609
G1 X188.682 Y231.405 E11.94267
G1 X188.525 Y231.173 E11.95432
G1 X188.127 Y230.335 E11.99289
G1 X187.863 Y229.421 E12.03244
G1 X187.777 Y228.735 E12.06119
G1 X187.732 Y228.465 E12.07257
G1 X187.766 Y226.997 E12.13362
G1 X187.777 Y226.716 E12.14531
G1 X188.490 Y222.396 E12.32734
G1 X188.665 Y221.524 E12.36432
G1 X189.777 Y216.911 E12.56160
G1 X190.029 Y215.760 E12.61058
G1 X190.090 Y214.920 E12.64560
G1 X190.012 Y213.684 E12.69709
G1 X189.647 Y211.578 E12.78595
G1 X189.589 Y211.250 E12.79980
G1 X189.533 Y209.410 E12.87633
G1 X189.523 Y209.166 E12.88649
G1 X189.551 Y208.820 E12.90092
G1 X189.497 Y208.920 E12.90564
G1 X188.619 Y210.070 E12.96580
G1 X188.424 Y210.317 E12.97888
G1 X187.371 Y211.316 E13.03923
G1 X187.370 Y211.315 E13.03928
G1 X187.142 Y211.534 E13.05243
G1 X185.822 Y212.433 E13.11883
G1 X185.555 Y212.618 E13.13233
G1 X184.172 Y213.252 E13.19558
G1 X183.876 Y213.386 E13.20909
G1 X182.459 Y213.773 E13.27016
G1 X181.326 Y213.910 E13.31761
G1 X181.029 Y213.947 E13.33005
G1 X179.957 Y213.900 E13.37466
G1 X179.691 Y213.886 E13.38574
G1 X178.700 Y213.701 E13.42765
G1 X177.667 Y213.366 E13.47280
G1 X176.556 Y212.838 E13.52394
G1 X175.700 Y212.269 E13.56667
G1 X175.458 Y212.107 E13.57878
G1 X174.571 Y211.294 E13.62881
G1 X173.968 Y210.550 E13.66862
G1 X173.835 Y210.383 E13.67750
G1 X173.533 Y209.913 E13.70072
G1 X173.024 Y208.895 E13.74804
G1 X172.961 Y208.705 E13.75636
G1 X171.850 Y209.155 E13.80620
G1 X170.667 Y209.435 E13.85674
G1 X170.373 Y209.503 E13.86929
G1 X169.340 Y209.580 E13.91235
G1 X169.076 Y209.602 E13.92337
G1 X167.989 Y209.522 E13.96868
G1 X167.696 Y209.500 E13.98090
G1 X166.668 Y209.261 E14.02478
G1 X166.382 Y209.191 E14.03702
G1 X165.262 Y208.735 E14.08729
G1 X164.374 Y208.234 E14.12968
G1 X163.339 Y207.441 E14.18389
G1 X162.458 Y206.510 E14.23718
G1 X161.875 Y205.667 E14.27979
G1 X161.706 Y205.422 E14.29217
G1 X161.240 Y204.441 E14.33732
G1 X161.239 Y204.441 E14.33736
G1 X161.103 Y204.159 E14.35038
G1 X160.687 Y202.747 E14.41158
G1 X160.490 Y201.336 E14.47081
G1 X160.463 Y200.592 E14.50176
G1 X160.567 Y199.515 E14.54675
G1 X160.596 Y199.224 E14.55891
G1 X160.913 Y197.985 E14.61208
G1 X161.486 Y196.622 E14.67355
G1 X162.283 Y195.330 E14.73666
G1 X163.246 Y194.187 E14.79880
G1 X164.161 Y193.432 E14.84812
G1 X164.652 Y193.087 E14.87307
G1 X164.949 Y192.847 E14.88894
G1 X165.101 Y192.683 E14.89824
G1 X165.131 Y192.637 E14.90052
G1 X165.965 Y190.716 E14.98759
G1 X166.804 Y188.985 E15.06756
G1 X168.067 Y186.916 E15.16834
G1 X168.586 Y186.146 E15.20695
G1 X169.300 Y184.942 E15.26515
G1 X170.287 Y183.088 E15.35247
G1 X171.114 Y181.100 E15.44199
G1 X171.796 Y179.042 E15.53212
G1 X171.802 Y179.017 E15.53319
G1 X171.706 Y178.902 E15.53942
G1 X170.756 Y178.141 E15.59003
G1 X169.581 Y177.380 E15.64823
G1 X164.740 Y174.737 E15.87754
G1 X162.075 Y173.384 E16.00180
G1 X161.490 Y173.154 E16.02793
G1 X161.441 Y173.143 E16.03002
G1 X160.879 Y173.106 E16.05343
G1 X160.512 Y173.146 E16.06878
G1 X159.860 Y173.329 E16.09694
G1 X157.697 Y174.178 E16.19354
G1 X155.174 Y174.920 E16.30288
G1 X154.885 Y175.003 E16.31538
G1 X153.598 Y175.224 E16.36967
G1 X151.447 Y175.364 E16.45929
G1 X151.069 Y175.389 E16.47504
G1 X149.279 Y175.190 E16.54992
G1 X147.261 Y174.806 E16.63532
G1 X146.359 Y174.791 E16.67283
G1 X145.867 Y174.839 E16.69338
G1 X143.832 Y175.208 E16.77936
G1 X142.162 Y175.784 E16.85281
G1 X140.981 Y176.435 E16.90887
G1 X140.157 Y177.085 E16.95251
G1 X139.785 Y177.465 E16.97462
G1 X139.215 Y178.206 E17.01348
G1 X138.735 Y179.077 E17.05483
G1 X138.369 Y180.067 E17.09871
G1 X138.120 Y181.241 E17.14861
G1 X138.016 Y183.037 E17.22340
G1 X138.227 Y185.170 E17.31251
G1 X138.453 Y186.142 E17.35400
G1 X138.602 Y186.515 E17.37070
G1 X140.127 Y189.104 E17.49562
G1 X141.695 Y191.532 E17.61579
G1 X145.534 Y197.253 E17.90223
G1 X146.295 Y198.674 E17.96925
G1 X146.449 Y198.959 E17.98271
G1 X146.799 Y199.951 E18.02645
G1 X146.907 Y200.246 E18.03951
G1 X147.149 Y201.534 E18.09399
G1 X147.182 Y202.627 E18.13946
G1 X147.198 Y202.959 E18.15328
G1 X147.015 Y204.359 E18.21198
G1 X146.973 Y204.671 E18.22506
G1 X146.559 Y206.050 E18.28492
G1 X146.469 Y206.354 E18.29811
G1 X145.843 Y207.635 E18.35738
G1 X145.704 Y207.920 E18.37057
G1 X145.011 Y208.900 E18.42047
G1 X144.843 Y209.138 E18.43258
G1 X143.919 Y210.093 E18.48783
G1 X142.932 Y210.845 E18.53941
G1 X142.106 Y211.323 E18.57909
G1 X140.983 Y211.774 E18.62940
G1 X139.740 Y212.067 E18.68250
G1 X138.667 Y212.150 E18.72724
G1 X138.380 Y212.173 E18.73921
G1 X137.221 Y212.086 E18.78753
G1 X136.948 Y212.060 E18.79893
G1 X135.730 Y211.791 E18.85079
G1 X135.441 Y211.724 E18.86313
G1 X133.666 Y211.037 E18.94226
G1 X132.101 Y210.151 E19.01703
G1 X131.822 Y209.988 E19.03046
G1 X130.445 Y208.893 E19.10360
G1 X129.885 Y209.815 E19.14845
G1 X129.215 Y210.624 E19.19212
G1 X128.423 Y211.324 E19.23607
G1 X127.506 Y211.884 E19.28074
G1 X126.579 Y212.250 E19.32218
G1 X125.655 Y212.451 E19.36149
G1 X124.706 Y212.513 E19.40103
G1 X123.831 Y212.437 E19.43754
G1 X123.539 Y212.406 E19.44975
G1 X122.566 Y212.157 E19.49151
G1 X122.283 Y212.085 E19.50365
G1 X121.042 Y211.550 E19.55983
G1 X120.771 Y211.429 E19.57217
G1 X119.205 Y210.452 E19.64891
G1 X118.391 Y209.834 E19.69140
G1 X117.366 Y208.837 E19.75085
G1 X117.150 Y208.626 E19.76340
G1 X116.630 Y207.940 E19.79919
G1 X116.437 Y209.408 E19.86075
G1 X116.491 Y211.390 E19.94318
G1 X116.984 Y214.104 E20.05786
G1 X118.417 Y219.119 E20.27471
G1 X118.538 Y219.541 E20.29296
G1 X118.876 Y221.549 E20.37762
G1 X118.935 Y221.892 E20.39209
G1 X118.952 Y223.391 E20.45441
G1 X118.957 Y223.714 E20.46784
G1 X118.731 Y225.259 E20.53276
G1 X118.338 Y226.545 E20.58867
G1 X118.244 Y226.834 E20.60130
G1 X117.621 Y228.113 E20.66045
G1 X116.810 Y229.309 E20.72053
G1 X116.638 Y229.566 E20.73338
G1 X115.604 Y230.667 E20.79618
G1 X115.382 Y230.904 E20.80968
G1 X114.126 Y231.876 E20.87571
G1 X113.881 Y232.066 E20.88860
G1 X112.799 Y232.673 E20.94018
G1 X112.557 Y232.809 E20.95172
G1 X111.346 Y233.277 E21.00570
G1 X111.062 Y233.386 E21.01834
G1 X109.958 Y233.625 E21.06531
G1 X109.645 Y233.697 E21.07866
G1 X108.576 Y233.760 E21.12318
G1 X108.372 Y233.776 E21.13169
G1 X107.637 Y233.737 E21.16229
G1 X106.426 Y233.533 E21.21334
G1 X105.393 Y233.189 E21.25861
G1 X105.118 Y233.094 E21.27071
G1 X104.164 Y232.600 E21.31537
G1 X103.924 Y232.476 E21.32660
G1 X102.957 Y231.783 E21.37606
G1 X102.719 Y231.610 E21.38830
G1 X101.579 Y230.492 E21.45468
G1 X101.347 Y230.265 E21.46817
G1 X100.145 Y228.631 E21.55251
G1 X99.943 Y228.355 E21.56673
G1 X98.795 Y226.123 E21.67108
G1 X98.643 Y225.828 E21.68488
G1 X98.411 Y225.164 E21.71412
G1 X98.307 Y225.272 E21.72035
G1 X97.424 Y225.928 E21.76609
G1 X96.489 Y226.428 E21.81017
G1 X95.609 Y226.732 E21.84888
G1 X95.150 Y226.848 E21.86856
G1 X94.454 Y226.938 E21.89774
G1 X94.173 Y226.981 E21.90955
G1 X93.318 Y226.956 E21.94512
G1 X93.050 Y226.946 E21.95627
G1 X92.048 Y226.766 E21.99859
G1 X90.960 Y226.413 E22.04615
G1 X89.692 Y225.779 E22.10509
G1 X88.366 Y224.826 E22.17298
G1 X87.355 Y223.820 E22.23227
G1 X87.118 Y223.576 E22.24641
G1 X86.452 Y222.623 E22.29475
G1 X86.282 Y222.385 E22.30691
G1 X85.795 Y221.367 E22.35383
G1 X85.794 Y221.367 E22.35387
G1 X85.662 Y221.095 E22.36644
G1 X85.338 Y220.019 E22.41316
G1 X85.249 Y219.744 E22.42518
G1 X85.047 Y218.276 E22.48678
G1 X85.003 Y217.970 E22.49964
G1 X85.051 Y215.992 E22.58190
G1 X85.058 Y215.705 E22.59383
G1 X85.497 Y212.813 E22.71544
G1 X86.179 Y209.763 E22.84538
G1 X86.248 Y209.456 E22.85846
G1 X87.190 Y206.704 E22.97939
G1 X87.300 Y206.385 E22.99342
G1 X88.879 Y203.179 E23.14200
G1 X89.057 Y202.818 E23.15874
G1 X91.111 Y199.865 E23.30829
G1 X91.340 Y199.537 E23.32492
G1 X93.607 Y197.139 E23.46211
G1 X93.606 Y197.138 E23.46217
G1 X93.795 Y196.938 E23.47361
G1 X94.283 Y196.498 E23.50093
G1 X96.371 Y194.912 E23.60994
G1 X96.667 Y194.686 E23.62543
G1 X98.675 Y193.614 E23.72006
G1 X99.364 Y193.182 E23.75387
G1 X100.419 Y192.233 E23.81287
G1 X101.576 Y190.829 E23.88851
G1 X103.030 Y188.364 E24.00749
G1 X105.032 Y185.284 E24.16021
G1 X106.360 Y183.517 E24.25211
G1 X105.934 Y183.543 E24.26986
G1 X105.534 Y183.569 E24.28652
G1 X104.260 Y183.422 E24.33984
G1 X103.308 Y183.169 E24.38079
G1 X103.013 Y183.086 E24.39353
G1 X102.090 Y182.665 E24.43571
G1 X101.812 Y182.535 E24.44847
G1 X100.854 Y181.886 E24.49658
G1 X99.972 Y181.123 E24.54506
G1 X99.060 Y180.085 E24.60251
G1 X98.355 Y178.982 E24.65693
G1 X97.905 Y177.999 E24.70188
G1 X97.575 Y176.884 E24.75022
G1 X97.432 Y176.067 E24.78471
G1 X97.396 Y175.142 E24.82319
G1 X97.378 Y174.823 E24.83648
G1 X97.530 Y173.554 E24.88961
G1 X97.869 Y172.318 E24.94290
G1 X98.401 Y171.117 E24.99751
G1 X98.988 Y170.146 E25.04468
G1 X99.760 Y169.193 E25.09567
G1 X99.957 Y168.956 E25.10849
G1 X100.838 Y168.169 E25.15760
G1 X101.039 Y167.986 E25.16890
G1 X101.822 Y167.450 E25.20835
G1 X102.651 Y167.026 E25.24706
G1 X102.921 Y166.882 E25.25978
G1 X104.067 Y166.519 E25.30976
G1 X105.389 Y166.316 E25.36537
G1 X106.616 Y166.136 E25.41693
G1 X107.487 Y165.850 E25.45504
G1 X108.088 Y165.553 E25.48291
G1 X109.152 Y164.875 E25.53537
G1 X109.793 Y164.501 E25.56622
G1 X111.591 Y163.687 E25.64828
G1 X111.591 Y163.686 E25.64832
G1 X111.917 Y163.538 E25.66320
G1 X113.639 Y163.083 E25.73725
G1 X113.904 Y163.014 E25.74864
G1 X115.248 Y162.832 E25.80503
G1 X117.320 Y162.668 E25.89144
G1 X118.141 Y162.516 E25.92615
G1 X118.726 Y162.304 E25.95202
G1 X119.354 Y161.947 E25.98205
G1 X120.311 Y161.220 E26.03202
G1 X120.858 Y160.652 E26.06480
G1 X121.257 Y160.076 E26.09394
G1 X121.450 Y159.667 E26.11274
G1 X121.477 Y159.587 E26.11625
G1 X121.507 Y159.434 E26.12273
G1 X121.516 Y159.225 E26.13143
G1 X121.451 Y158.702 E26.15334
G1 X121.017 Y157.207 E26.21806
G1 X119.147 Y152.732 E26.41970
G1 X118.690 Y151.700 E26.46662
G1 X117.071 Y148.321 E26.62240
G1 X116.482 Y147.014 E26.68200
G1 X116.481 Y147.014 E26.68204
G1 X116.384 Y146.798 E26.69189
G1 X115.796 Y144.997 E26.77065
G1 X115.207 Y141.974 E26.89870
G1 X115.139 Y141.620 E26.91369
G1 X114.936 Y137.757 E27.07451
G1 X114.896 Y136.762 E27.11591
G1 X114.511 Y131.734 E27.32556
G1 X114.098 Y128.320 E27.46854
G1 X114.097 Y128.320 E27.46858
G1 X114.059 Y128.025 E27.48094
G1 X113.937 Y125.142 E27.60091
G1 X114.096 Y119.856 E27.82078
G1 X114.108 Y119.494 E27.83584
G1 X114.648 Y114.303 E28.05282
G1 X114.726 Y113.619 E28.08144
G1 X115.638 Y106.990 E28.35964
G1 X115.705 Y106.510 E28.37979
G1 X116.480 Y103.385 E28.51365
G1 X116.552 Y103.099 E28.52591
G1 X116.829 Y102.306 E28.56083
G1 X116.898 Y102.125 E28.56888
G1 X118.107 Y99.532 E28.68783
G1 X118.251 Y99.229 E28.70178
G1 X119.108 Y97.874 E28.76843
G1 X122.295 Y93.706 E28.98657
G1 F2100 E28.58657
G0 F12000 X125.048 Y95.869
;TYPE:WALL-OUTER
G1 F2100 E28.98657
G1 F1800 X136.027 Y82.334 E29.71114
G1 X137.965 Y80.179 E29.83164
G1 X138.493 Y79.732 E29.86040
G1 X142.206 Y76.918 E30.05409
G1 X145.283 Y75.081 E30.20308
G1 X148.180 Y73.830 E30.33428
G1 X151.152 Y73.028 E30.46226
G1 X152.940 Y72.781 E30.53730
G1 X156.167 Y72.750 E30.67147
G1 X159.101 Y73.198 E30.79486
G1 X159.224 Y73.217 E30.80004
G1 X162.299 Y74.161 E30.93377
G1 X165.406 Y75.597 E31.07607
G1 X168.326 Y77.399 E31.21873
G1 X171.411 Y79.814 E31.38162
G1 X174.350 Y82.669 E31.55197
G1 X177.012 Y85.861 E31.72477
G1 X178.309 Y87.728 E31.81928
G1 X178.362 Y87.802 E31.82306
G1 X179.871 Y90.576 E31.95435
G1 X180.584 Y92.709 E32.04786
G1 X181.686 Y96.400 E32.20800
G1 X183.444 Y100.798 E32.40492
G1 X184.788 Y103.676 E32.53697
G1 X186.894 Y108.084 E32.74008
G1 X188.166 Y111.346 E32.88564
G1 X188.935 Y114.407 E33.01686
G1 X189.256 Y117.373 E33.14089
G1 X189.270 Y117.493 E33.14591
G1 X189.190 Y121.197 E33.29995
G1 X189.023 Y123.077 E33.37841
G1 X188.981 Y123.462 E33.39452
G1 X188.358 Y126.869 E33.53851
G1 X187.433 Y130.346 E33.68810
G1 X187.183 Y131.601 E33.74130
G1 X186.959 Y134.240 E33.85141
G1 X186.946 Y134.384 E33.85742
G1 X187.109 Y136.151 E33.93120
G1 X187.625 Y139.082 E34.05493
G1 X187.645 Y139.195 E34.05970
G1 X187.687 Y141.243 E34.14486
G1 X187.689 Y141.324 E34.14823
G1 X187.563 Y142.592 E34.20121
G1 X187.043 Y144.994 E34.30338
G1 X187.022 Y145.086 E34.30731
G1 X186.361 Y146.689 E34.37940
G1 X185.138 Y149.058 E34.49024
G1 X185.073 Y149.182 E34.49606
G1 X184.532 Y150.700 E34.56306
G1 X184.154 Y152.456 E34.63774
G1 X183.764 Y155.748 E34.77556
G1 X183.829 Y158.257 E34.87991
G1 X183.834 Y158.393 E34.88556
G1 X184.137 Y160.046 E34.95543
G1 X184.156 Y160.143 E34.95954
G1 X184.687 Y161.634 E35.02534
G1 X184.719 Y161.722 E35.02924
G1 X185.358 Y162.875 E35.08404
G1 X185.900 Y163.599 E35.12164
G1 X186.797 Y164.517 E35.17500
G1 X187.806 Y165.271 E35.22737
G1 X189.734 Y166.311 E35.31845
G1 X191.727 Y167.159 E35.40850
G1 X194.613 Y168.099 E35.53469
G1 X196.223 Y168.471 E35.60339
G1 X198.182 Y168.859 E35.68641
G1 X202.087 Y169.540 E35.85121
G1 X204.098 Y169.945 E35.93650
G1 X206.472 Y170.569 E36.03855
G1 X208.766 Y171.379 E36.13970
G1 X208.845 Y171.407 E36.14318
G1 X209.432 Y171.738 E36.17120
G1 X209.788 Y172.019 E36.19005
G1 X210.384 Y172.655 E36.22629
G1 X210.899 Y173.406 E36.26415
G1 X211.376 Y174.383 E36.30935
G1 X211.736 Y175.548 E36.36005
G1 X211.896 Y176.732 E36.40972
G1 X211.901 Y176.766 E36.41115
G1 X211.872 Y177.710 E36.45041
G1 X211.871 Y177.736 E36.45150
G1 X211.721 Y178.538 E36.48542
G1 X211.474 Y179.251 E36.51679
G1 X211.147 Y179.857 E36.54542
G1 X211.139 Y179.872 E36.54612
G1 X210.819 Y180.298 E36.56828
G1 X210.341 Y180.769 E36.59618
G1 X209.819 Y181.142 E36.62285
G1 X209.219 Y181.444 E36.65078
G1 X208.493 Y181.688 E36.68262
G1 X207.473 Y181.859 E36.72562
G1 X206.057 Y181.875 E36.78449
G1 X206.009 Y181.876 E36.78649
G1 X204.282 Y181.619 E36.85908
G1 X203.337 Y181.373 E36.89968
G1 X201.370 Y180.522 E36.98878
G1 X198.004 Y178.807 E37.14584
G1 X196.620 Y178.118 E37.21011
G1 X196.176 Y177.954 E37.22979
G1 X195.901 Y177.905 E37.24141
G1 X195.727 Y177.919 E37.24866
G1 X195.559 Y178.036 E37.25718
G1 X195.428 Y178.250 E37.26761
G1 X195.341 Y178.479 E37.27779
G1 X195.265 Y178.856 E37.29378
G1 X195.234 Y179.515 E37.32121
G1 X195.231 Y179.560 E37.32308
G1 X195.322 Y180.544 E37.36417
G1 X195.340 Y180.678 E37.36979
G1 X195.571 Y181.559 E37.40766
G1 X195.587 Y181.619 E37.41024
G1 X195.958 Y182.462 E37.44853
G1 X196.652 Y183.559 E37.50250
G1 X196.696 Y183.626 E37.50583
G1 X198.351 Y185.451 E37.60826
G1 X198.622 Y185.727 E37.62434
G1 X199.914 Y186.833 E37.69505
G1 X200.554 Y187.344 E37.72910
G1 X201.425 Y188.153 E37.77852
G1 X203.062 Y190.033 E37.88216
G1 X203.752 Y190.954 E37.93000
G1 X204.523 Y192.003 E37.98413
G1 X206.546 Y194.386 E38.11409
G1 X208.335 Y196.286 E38.22259
G1 X208.726 Y196.786 E38.24898
G1 X209.674 Y198.336 E38.32451
G1 X209.708 Y198.391 E38.32720
G1 X210.210 Y199.690 E38.38510
G1 X211.022 Y203.153 E38.53298
G1 X211.543 Y204.752 E38.60290
G1 X212.180 Y206.321 E38.67330
G1 X213.605 Y209.051 E38.80133
G1 X214.893 Y211.249 E38.90725
G1 X214.941 Y211.331 E38.91120
G1 X215.838 Y213.663 E39.01508
G1 X216.288 Y215.740 E39.10343
G1 X216.476 Y217.598 E39.18107
G1 X216.490 Y219.082 E39.24278
G1 X216.491 Y219.150 E39.24560
G1 X216.429 Y220.103 E39.28531
G1 X216.148 Y221.835 E39.35826
G1 X216.139 Y221.894 E39.36074
G1 X215.836 Y222.801 E39.40050
G1 X215.540 Y223.365 E39.42698
G1 X215.294 Y223.688 E39.44386
G1 X215.142 Y223.845 E39.45294
G1 X214.677 Y224.214 E39.47762
G1 X214.181 Y224.494 E39.50130
G1 X213.576 Y224.726 E39.52824
G1 X212.914 Y224.868 E39.55639
G1 X212.373 Y224.915 E39.57897
G1 X211.558 Y224.875 E39.61289
G1 X210.751 Y224.703 E39.64720
G1 X210.256 Y224.525 E39.66907
G1 X209.574 Y224.165 E39.70113
G1 X209.040 Y223.758 E39.72904
G1 X208.541 Y223.250 E39.75865
G1 X208.131 Y222.681 E39.78781
G1 X207.715 Y221.878 E39.82540
G1 X207.397 Y220.925 E39.86717
G1 X207.283 Y220.360 E39.89114
G1 X207.242 Y219.635 E39.92133
G1 X207.302 Y219.132 E39.94239
G1 X207.661 Y217.860 E39.99734
G1 X207.840 Y216.996 E40.03402
G1 X207.952 Y215.645 E40.09038
G1 X207.861 Y214.305 E40.14622
G1 X207.855 Y214.223 E40.14964
G1 X207.410 Y212.277 E40.23263
G1 X206.940 Y210.799 E40.29711
G1 X206.232 Y208.877 E40.38227
G1 X205.775 Y207.968 E40.42457
G1 X205.382 Y207.416 E40.45274
G1 X204.992 Y207.017 E40.47594
G1 X204.960 Y206.985 E40.47782
G1 X204.496 Y206.648 E40.50166
G1 X203.643 Y206.172 E40.54227
G1 X203.291 Y206.062 E40.55760
G1 X203.037 Y206.056 E40.56817
G1 X202.920 Y206.204 E40.57601
G1 X202.813 Y206.493 E40.58882
G1 X202.750 Y206.926 E40.60701
G1 X202.761 Y208.121 E40.65670
G1 X202.762 Y208.191 E40.65961
G1 X203.472 Y214.185 E40.91055
G1 X204.083 Y220.038 E41.15521
G1 X204.251 Y223.763 E41.31024
G1 X204.096 Y225.442 E41.38034
G1 X204.090 Y225.502 E41.38285
G1 X203.754 Y226.780 E41.43779
G1 X203.287 Y227.854 E41.48648
G1 X202.464 Y229.219 E41.55274
G1 X201.579 Y230.287 E41.61041
G1 X201.040 Y230.781 E41.64081
G1 X200.210 Y231.368 E41.68307
G1 X199.651 Y231.669 E41.70947
G1 X198.777 Y231.997 E41.74828
G1 X198.203 Y232.137 E41.77284
G1 X197.125 Y232.249 E41.81790
G1 X196.042 Y232.186 E41.86300
G1 X194.946 Y231.946 E41.90965
G1 X193.953 Y231.564 E41.95388
G1 X193.108 Y231.078 E41.99441
G1 X192.456 Y230.550 E42.02929
G1 X191.940 Y229.979 E42.06129
G1 X191.577 Y229.437 E42.08841
G1 X191.410 Y229.089 E42.10446
G1 X191.302 Y228.714 E42.12068
G1 X191.239 Y228.222 E42.14130
G1 X191.265 Y227.105 E42.18776
G1 X191.266 Y227.069 E42.18925
G1 X191.935 Y223.020 E42.35987
G1 X192.082 Y222.282 E42.39116
G1 X193.196 Y217.663 E42.58870
G1 X193.485 Y216.344 E42.64484
G1 X193.501 Y216.273 E42.64786
G1 X193.592 Y215.017 E42.70022
G1 X193.599 Y214.940 E42.70343
G1 X193.499 Y213.362 E42.76917
G1 X193.494 Y213.274 E42.77284
G1 X193.080 Y210.892 E42.87335
G1 X193.031 Y209.302 E42.93949
G1 X193.028 Y209.237 E42.94219
G1 X193.242 Y206.640 E43.05053
G1 X193.369 Y205.271 E43.10769
G1 X193.377 Y205.190 E43.11108
G1 X193.306 Y204.281 E43.14898
G1 X193.229 Y203.839 E43.16764
G1 X192.903 Y202.564 E43.22235
G1 X192.549 Y201.682 E43.26186
G1 X192.207 Y201.101 E43.28989
G1 X192.181 Y201.059 E43.29194
G1 X191.819 Y200.625 E43.31544
G1 X191.414 Y200.262 E43.33805
G1 X191.005 Y199.994 E43.35838
G1 X190.454 Y199.729 E43.38380
G1 X189.855 Y199.530 E43.41004
G1 X189.410 Y199.449 E43.42885
G1 X189.084 Y199.441 E43.44241
G1 X188.825 Y199.473 E43.45326
G1 X188.619 Y199.533 E43.46218
G1 X188.446 Y199.612 E43.47008
G1 X188.293 Y199.715 E43.47775
G1 X188.173 Y199.830 E43.48466
G1 X188.073 Y199.963 E43.49158
G1 X187.983 Y200.129 E43.49943
G1 X187.887 Y200.408 E43.51170
G1 X187.826 Y200.697 E43.52398
G1 X187.739 Y201.967 E43.57690
G1 X187.713 Y202.742 E43.60914
G1 X187.619 Y203.932 E43.65877
G1 X187.615 Y203.974 E43.66052
G1 X187.358 Y205.231 E43.71386
G1 X187.012 Y206.164 E43.75523
G1 X186.551 Y207.010 E43.79529
G1 X185.852 Y207.926 E43.84319
G1 X185.829 Y207.955 E43.84473
G1 X184.939 Y208.799 E43.89573
G1 X183.850 Y209.541 E43.95051
G1 X182.721 Y210.067 E44.00230
G1 X181.784 Y210.329 E44.04275
G1 X180.907 Y210.435 E44.07947
G1 X180.889 Y210.437 E44.08023
G1 X180.128 Y210.404 E44.11189
G1 X180.107 Y210.403 E44.11277
G1 X179.564 Y210.302 E44.13573
G1 X178.964 Y210.107 E44.16196
G1 X178.282 Y209.783 E44.19335
G1 X177.626 Y209.347 E44.22610
G1 X177.124 Y208.886 E44.25444
G1 X176.693 Y208.354 E44.28290
G1 X176.584 Y208.188 E44.29116
G1 X176.266 Y207.551 E44.32076
G1 X176.031 Y206.841 E44.35185
G1 X175.852 Y205.754 E44.39765
G1 X175.847 Y205.725 E44.39888
G1 X175.851 Y204.336 E44.45662
G1 X175.852 Y204.290 E44.45854
G1 X176.156 Y202.450 E44.53607
G1 X176.776 Y200.498 E44.62122
G1 X177.437 Y199.122 E44.68469
G1 X177.934 Y198.219 E44.72754
G1 X178.123 Y197.806 E44.74642
G1 X178.207 Y197.545 E44.75782
G1 X178.280 Y197.132 E44.77526
G1 X177.941 Y197.092 E44.78945
G1 X177.790 Y197.116 E44.79581
G1 X177.655 Y197.238 E44.80337
G1 X177.550 Y197.370 E44.81039
G1 X177.411 Y197.612 E44.82199
G1 X177.270 Y197.939 E44.83679
G1 X176.890 Y198.688 E44.87171
G1 X175.777 Y200.225 E44.95061
G1 X174.987 Y201.294 E45.00587
G1 X173.175 Y203.956 E45.13975
G1 X172.564 Y204.699 E45.17974
G1 X172.074 Y205.153 E45.20752
G1 X171.644 Y205.445 E45.22913
G1 X170.780 Y205.812 E45.26815
G1 X169.843 Y206.034 E45.30819
G1 X169.081 Y206.090 E45.33995
G1 X169.061 Y206.092 E45.34079
G1 X168.226 Y206.030 E45.37560
G1 X167.480 Y205.856 E45.40745
G1 X166.788 Y205.577 E45.43847
G1 X166.304 Y205.304 E45.46157
G1 X165.694 Y204.836 E45.49353
G1 X165.183 Y204.297 E45.52441
G1 X164.746 Y203.664 E45.55639
G1 X164.387 Y202.911 E45.59108
G1 X164.378 Y202.893 E45.59191
G1 X164.119 Y202.010 E45.63017
G1 X163.981 Y201.027 E45.67144
G1 X163.970 Y200.697 E45.68517
G1 X164.053 Y199.829 E45.72142
G1 X164.240 Y199.102 E45.75263
G1 X164.605 Y198.231 E45.79189
G1 X165.127 Y197.387 E45.83315
G1 X165.718 Y196.685 E45.87130
G1 X166.275 Y196.225 E45.90133
G1 X166.761 Y195.884 E45.92602
G1 X167.348 Y195.408 E45.95744
G1 X167.870 Y194.844 E45.98939
G1 X168.199 Y194.342 E46.01434
G1 X169.144 Y192.181 E46.11240
G1 X169.882 Y190.660 E46.18269
G1 X171.009 Y188.813 E46.27264
G1 X171.541 Y188.025 E46.31217
G1 X172.351 Y186.659 E46.37820
G1 X173.453 Y184.587 E46.47576
G1 X174.396 Y182.321 E46.57781
G1 X175.166 Y179.998 E46.67955
G1 X175.334 Y179.283 E46.71009
G1 X175.376 Y178.847 E46.72830
G1 X175.363 Y178.604 E46.73842
G1 X175.261 Y178.094 E46.76004
G1 X175.073 Y177.610 E46.78163
G1 X174.804 Y177.157 E46.80353
G1 X174.297 Y176.543 E46.83664
G1 X174.065 Y176.307 E46.85039
G1 X172.809 Y175.302 E46.91727
G1 X171.365 Y174.366 E46.98882
G1 X166.366 Y171.637 E47.22560
G1 X163.512 Y170.188 E47.35867
G1 X162.536 Y169.805 E47.40226
G1 X161.953 Y169.669 E47.42715
G1 X160.873 Y169.598 E47.47215
G1 X160.802 Y169.593 E47.47511
G1 X159.901 Y169.693 E47.51280
G1 X159.839 Y169.700 E47.51539
G1 X158.800 Y169.991 E47.56025
G1 X156.563 Y170.863 E47.66007
G1 X154.192 Y171.560 E47.76282
G1 X154.096 Y171.588 E47.76698
G1 X153.187 Y171.744 E47.80532
G1 X151.148 Y171.877 E47.89027
G1 X149.810 Y171.728 E47.94624
G1 X147.739 Y171.334 E48.03389
G1 X147.624 Y171.311 E48.03877
G1 X146.304 Y171.290 E48.09365
G1 X146.227 Y171.288 E48.09685
G1 X145.385 Y171.369 E48.13202
G1 X143.068 Y171.789 E48.22992
G1 X142.942 Y171.813 E48.23525
G1 X140.731 Y172.576 E48.33250
G1 X139.041 Y173.508 E48.41273
G1 X137.876 Y174.427 E48.47443
G1 X137.809 Y174.480 E48.47798
G1 X137.137 Y175.167 E48.51793
G1 X136.279 Y176.282 E48.57642
G1 X135.585 Y177.541 E48.63619
G1 X135.542 Y177.617 E48.63982
G1 X134.997 Y179.097 E48.70539
G1 X134.641 Y180.772 E48.77659
G1 X134.505 Y183.105 E48.87375
G1 X134.768 Y185.747 E48.98413
G1 X135.103 Y187.189 E49.04568
G1 X135.452 Y188.063 E49.08481
G1 X137.145 Y190.937 E49.22348
G1 X138.787 Y193.480 E49.34933
G1 X142.533 Y199.063 E49.62886
G1 X143.216 Y200.339 E49.68903
G1 X143.514 Y201.160 E49.72534
G1 X143.521 Y201.179 E49.72618
G1 X143.659 Y201.914 E49.75727
G1 X143.686 Y202.795 E49.79392
G1 X143.687 Y202.816 E49.79479
G1 X143.540 Y203.934 E49.84167
G1 X143.198 Y205.075 E49.89120
G1 X142.682 Y206.132 E49.94010
G1 X142.141 Y206.898 E49.97909
G1 X141.586 Y207.471 E50.01225
G1 X140.986 Y207.928 E50.04361
G1 X140.572 Y208.168 E50.06350
G1 X139.921 Y208.429 E50.09266
G1 X139.201 Y208.598 E50.12341
G1 X138.373 Y208.663 E50.15794
G1 X137.523 Y208.599 E50.19338
G1 X137.495 Y208.596 E50.19455
G1 X136.500 Y208.376 E50.23692
G1 X135.172 Y207.867 E50.29604
G1 X133.844 Y207.115 E50.35949
G1 X132.460 Y206.024 E50.43276
G1 X131.512 Y204.997 E50.49087
G1 X131.215 Y204.609 E50.51118
G1 X130.716 Y203.764 E50.55198
G1 X129.938 Y201.779 E50.64062
G1 X128.939 Y199.700 E50.73652
G1 X127.844 Y197.714 E50.83081
G1 X127.091 Y196.577 E50.88750
G1 X127.046 Y196.512 E50.89079
G1 X126.642 Y196.033 E50.91684
G1 X126.328 Y196.128 E50.93048
G1 X126.233 Y196.940 E50.96447
G1 X126.228 Y196.973 E50.96586
G1 X126.236 Y197.650 E50.99401
G1 X126.238 Y197.702 E50.99617
G1 X126.347 Y198.306 E51.02169
G1 X126.600 Y199.037 E51.05385
G1 X127.393 Y200.686 E51.12992
G1 X127.698 Y201.464 E51.16466
G1 X127.962 Y202.568 E51.21186
G1 X127.971 Y202.606 E51.21348
G1 X128.068 Y203.794 E51.26303
G1 X128.072 Y203.835 E51.26475
G1 X127.978 Y205.189 E51.32118
G1 X127.975 Y205.234 E51.32305
G1 X127.692 Y206.419 E51.37370
G1 X127.683 Y206.456 E51.37529
G1 X127.362 Y207.221 E51.40978
G1 X127.025 Y207.781 E51.43695
G1 X126.693 Y208.181 E51.45856
G1 X126.333 Y208.500 E51.47856
G1 X125.945 Y208.737 E51.49746
G1 X125.553 Y208.891 E51.51497
G1 X125.164 Y208.976 E51.53153
G1 X124.747 Y209.004 E51.54890
G1 X124.172 Y208.953 E51.57290
G1 X123.421 Y208.764 E51.60510
G1 X122.447 Y208.344 E51.64920
G1 X122.418 Y208.332 E51.65050
G1 X121.195 Y207.569 E51.71043
G1 X120.677 Y207.175 E51.73749
G1 X119.781 Y206.304 E51.78944
G1 X119.032 Y205.316 E51.84099
G1 X119.007 Y205.282 E51.84274
G1 X118.256 Y203.885 E51.90868
G1 X117.503 Y201.766 E52.00218
G1 X117.124 Y200.640 E52.05157
G1 X116.977 Y200.312 E52.06652
G1 X116.797 Y200.036 E52.08021
G1 X116.502 Y200.106 E52.09282
G1 X116.307 Y200.229 E52.10241
G1 X116.007 Y200.491 E52.11896
G1 X115.544 Y201.045 E52.14898
G1 X114.719 Y202.400 E52.21494
G1 X113.788 Y204.695 E52.31790
G1 X113.739 Y204.816 E52.32333
G1 X113.288 Y206.506 E52.39605
G1 X112.931 Y209.228 E52.51019
G1 X112.996 Y211.630 E52.61009
G1 X113.001 Y211.761 E52.61554
G1 X113.572 Y214.903 E52.74831
G1 X115.118 Y220.312 E52.98219
G1 X115.427 Y222.143 E53.05939
G1 X115.452 Y223.450 E53.11374
G1 X115.453 Y223.492 E53.11549
G1 X115.307 Y224.488 E53.15734
G1 X115.001 Y225.489 E53.20086
G1 X114.582 Y226.358 E53.24097
G1 X113.893 Y227.376 E53.29207
G1 X113.019 Y228.307 E53.34516
G1 X111.974 Y229.116 E53.40011
G1 X111.062 Y229.635 E53.44373
G1 X110.060 Y230.022 E53.48839
G1 X109.167 Y230.215 E53.52638
G1 X108.352 Y230.267 E53.56033
G1 X108.333 Y230.268 E53.56112
G1 X108.022 Y230.252 E53.57407
G1 X107.271 Y230.126 E53.60573
G1 X106.514 Y229.873 E53.63891
G1 X105.755 Y229.482 E53.67441
G1 X104.979 Y228.925 E53.71412
G1 X103.998 Y227.963 E53.77124
G1 X102.930 Y226.510 E53.84621
G1 X101.868 Y224.446 E53.94272
G1 X101.335 Y222.921 E54.00988
G1 X101.315 Y222.868 E54.01224
G1 X101.200 Y222.238 E54.03886
G1 X101.074 Y219.739 E54.14289
G1 X101.331 Y216.020 E54.29788
G1 X102.006 Y211.578 E54.48467
G1 X102.046 Y211.329 E54.49516
G1 X101.882 Y210.616 E54.52557
G1 X101.512 Y210.591 E54.54099
G1 X100.810 Y212.447 E54.62349
G1 X100.013 Y214.636 E54.72034
G1 X98.151 Y219.305 E54.92933
G1 X97.108 Y221.286 E55.02240
G1 X96.513 Y222.100 E55.06432
G1 X95.997 Y222.625 E55.09493
G1 X95.542 Y222.966 E55.11857
G1 X95.086 Y223.210 E55.14007
G1 X94.603 Y223.376 E55.16130
G1 X94.497 Y223.403 E55.16585
G1 X93.963 Y223.472 E55.18824
G1 X93.438 Y223.458 E55.21007
G1 X93.427 Y223.458 E55.21053
G1 X92.903 Y223.363 E55.23267
G1 X92.292 Y223.165 E55.25937
G1 X91.506 Y222.772 E55.29591
G1 X90.634 Y222.146 E55.34053
G1 X89.843 Y221.358 E55.38695
G1 X89.320 Y220.617 E55.42466
G1 X89.307 Y220.599 E55.42559
G1 X88.942 Y219.836 E55.46075
G1 X88.681 Y218.980 E55.49796
G1 X88.674 Y218.959 E55.49888
G1 X88.515 Y217.799 E55.54755
G1 X88.509 Y217.765 E55.54899
G1 X88.552 Y216.009 E55.62202
G1 X88.937 Y213.467 E55.72891
G1 X89.620 Y210.413 E55.85901
G1 X90.540 Y207.727 E55.97705
G1 X92.079 Y204.602 E56.12188
G1 X94.061 Y201.755 E56.26610
G1 X96.243 Y199.444 E56.39824
G1 X96.526 Y199.189 E56.41408
G1 X98.566 Y197.639 E56.52060
G1 X100.433 Y196.642 E56.60859
G1 X101.480 Y195.986 E56.65996
G1 X102.876 Y194.730 E56.73803
G1 X102.954 Y194.659 E56.74242
G1 X104.450 Y192.845 E56.84017
G1 X106.003 Y190.212 E56.96726
G1 X107.904 Y187.289 E57.11223
G1 X109.132 Y185.654 E57.19724
G1 X112.038 Y182.092 E57.38836
G1 X112.942 Y181.167 E57.44213
G1 X113.673 Y180.574 E57.48127
G1 X115.836 Y179.335 E57.58490
G1 X116.712 Y178.660 E57.63088
G1 X117.482 Y177.886 E57.67627
G1 X117.528 Y177.840 E57.67898
G1 X117.889 Y177.366 E57.70375
G1 X118.227 Y176.814 E57.73066
G1 X118.086 Y176.560 E57.74273
G1 X117.537 Y176.554 E57.76556
G1 X116.846 Y176.642 E57.79452
G1 X116.599 Y176.687 E57.80496
G1 X115.705 Y176.941 E57.84360
G1 X115.027 Y177.260 E57.87475
G1 X113.588 Y178.133 E57.94473
G1 X113.070 Y178.423 E57.96941
G1 X111.218 Y179.220 E58.05323
G1 X111.152 Y179.248 E58.05621
G1 X109.156 Y179.746 E58.14174
G1 X107.973 Y179.914 E58.19142
G1 X105.702 Y180.050 E58.28600
G1 X105.619 Y180.056 E58.28946
G1 X104.919 Y179.976 E58.31876
G1 X104.230 Y179.792 E58.34840
G1 X103.558 Y179.488 E58.37907
G1 X103.547 Y179.483 E58.37957
G1 X102.990 Y179.106 E58.40753
G1 X102.443 Y178.633 E58.43760
G1 X101.867 Y177.977 E58.47389
G1 X101.433 Y177.298 E58.50740
G1 X101.192 Y176.771 E58.53149
G1 X100.987 Y176.078 E58.56154
G1 X100.920 Y175.699 E58.57754
G1 X100.891 Y174.950 E58.60870
G1 X100.890 Y174.931 E58.60949
G1 X100.974 Y174.229 E58.63889
G1 X101.174 Y173.499 E58.67035
G1 X101.513 Y172.734 E58.70514
G1 X101.859 Y172.161 E58.73297
G1 X102.466 Y171.412 E58.77305
G1 X102.487 Y171.389 E58.77435
G1 X103.195 Y170.757 E58.81380
G1 X103.610 Y170.468 E58.83483
G1 X104.269 Y170.130 E58.86562
G1 X104.866 Y169.937 E58.89171
G1 X105.909 Y169.777 E58.93558
G1 X107.286 Y169.575 E58.99344
G1 X107.476 Y169.537 E59.00149
G1 X108.744 Y169.121 E59.05698
G1 X108.820 Y169.095 E59.06031
G1 X109.809 Y168.606 E59.10618
G1 X110.971 Y167.866 E59.16346
G1 X111.401 Y167.615 E59.18416
G1 X113.096 Y166.847 E59.26153
G1 X114.584 Y166.454 E59.32551
G1 X115.627 Y166.313 E59.36927
G1 X117.670 Y166.151 E59.45447
G1 X117.778 Y166.142 E59.45898
G1 X118.990 Y165.919 E59.51021
G1 X119.068 Y165.904 E59.51352
G1 X120.130 Y165.519 E59.56048
G1 X120.199 Y165.494 E59.56353
G1 X121.286 Y164.875 E59.61554
G1 X122.578 Y163.893 E59.68301
G1 X122.652 Y163.836 E59.68689
G1 X123.517 Y162.937 E59.73876
G1 X123.573 Y162.880 E59.74208
G1 X124.296 Y161.834 E59.79494
G1 X124.706 Y160.970 E59.83471
G1 X124.866 Y160.485 E59.85594
G1 X124.993 Y159.848 E59.88294
G1 X125.023 Y159.143 E59.91228
G1 X125.026 Y159.094 E59.91432
G1 X124.890 Y157.992 E59.96048
G1 X124.322 Y156.038 E60.04508
G1 X122.376 Y151.380 E60.25496
G1 X121.869 Y150.235 E60.30702
G1 X120.246 Y146.848 E60.46317
G1 X119.653 Y145.532 E60.52318
G1 X119.189 Y144.110 E60.58537
G1 X118.622 Y141.200 E60.70863
G1 X118.433 Y137.592 E60.85884
G1 X118.391 Y136.564 E60.90161
G1 X117.994 Y131.389 E61.11740
G1 X117.568 Y127.870 E61.26477
G1 X117.550 Y127.728 E61.27072
G1 X117.439 Y125.119 E61.37929
G1 X117.601 Y119.742 E61.60294
G1 X118.128 Y114.682 E61.81445
G1 X118.198 Y114.059 E61.84051
G1 X119.146 Y107.175 E62.12941
G1 X119.908 Y104.104 E62.26096
G1 X120.117 Y103.508 E62.28722
G1 X121.275 Y101.021 E62.40128
G1 X121.325 Y100.915 E62.40615
G1 X121.980 Y99.880 E62.45707
G1 X125.048 Y95.869 E62.66702
G1 F2100 E62.26702
G0 F12000 X123.332 Y98.425
G1 F2100 E62.66702
G1 F1800 X121.565 Y101.001 E62.79689
G1 X121.526 Y101.055 E62.79966
G1 X120.377 Y103.522 E62.91281
G1 X120.023 Y104.553 E62.95813
G1 X119.297 Y107.738 E63.09394
G1 X118.458 Y113.980 E63.35579
G1 X118.395 Y114.484 E63.37690
G1 X117.853 Y119.692 E63.59460
G1 X117.687 Y125.029 E63.81659
G1 X117.684 Y125.111 E63.82000
G1 X117.789 Y127.643 E63.92536
G1 X118.219 Y131.125 E64.07123
G1 X118.627 Y136.446 E64.29310
G1 X118.668 Y137.409 E64.33317
G1 X118.861 Y141.112 E64.48733
G1 X118.865 Y141.180 E64.49016
G1 X119.391 Y143.934 E64.60673
G1 X119.538 Y144.451 E64.62908
G1 X120.371 Y146.539 E64.72254
G1 X122.051 Y150.046 E64.88421
G1 X122.470 Y150.978 E64.92669
G1 X124.490 Y155.778 E65.14321
G1 X125.126 Y157.935 E65.23670
G1 X125.268 Y159.079 E65.28463
G1 X125.241 Y159.843 E65.31641
G1 X125.102 Y160.544 E65.34612
G1 X124.835 Y161.298 E65.37938
G1 X124.353 Y162.213 E65.42237
G1 X123.640 Y163.176 E65.47219
G1 X122.674 Y164.139 E65.52890
G1 X121.489 Y165.036 E65.59069
G1 X120.309 Y165.709 E65.64717
G1 X119.865 Y165.898 E65.66723
G1 X118.743 Y166.232 E65.71590
G1 X117.262 Y166.435 E65.77805
G1 X114.676 Y166.688 E65.88607
G1 X114.621 Y166.695 E65.88838
G1 X113.193 Y167.072 E65.94978
G1 X111.574 Y167.800 E66.02358
G1 X111.120 Y168.060 E66.04534
G1 X109.985 Y168.790 E66.10144
G1 X108.910 Y169.322 E66.15131
G1 X107.630 Y169.749 E66.20741
G1 X106.187 Y169.990 E66.26823
G1 X104.971 Y170.160 E66.31928
G1 X104.376 Y170.347 E66.34521
G1 X103.759 Y170.662 E66.37401
G1 X103.372 Y170.927 E66.39351
G1 X102.679 Y171.542 E66.43203
G1 X102.091 Y172.255 E66.47045
G1 X101.743 Y172.816 E66.49790
G1 X101.431 Y173.508 E66.52946
G1 X101.416 Y173.540 E66.53093
G1 X101.219 Y174.242 E66.56124
G1 X101.134 Y174.938 E66.59039
G1 X101.160 Y175.642 E66.61968
G1 X101.188 Y175.844 E66.62816
G1 X101.345 Y176.481 E66.65544
G1 X101.612 Y177.118 E66.68415
G1 X101.999 Y177.748 E66.71489
G1 X102.515 Y178.362 E66.74824
G1 X103.128 Y178.906 E66.78231
G1 X103.654 Y179.262 E66.80872
G1 X104.288 Y179.555 E66.83775
G1 X104.919 Y179.728 E66.86496
G1 X105.600 Y179.808 E66.89346
G1 X105.633 Y179.814 E66.89486
G1 X107.862 Y179.680 E66.98770
G1 X109.010 Y179.530 E67.03583
G1 X111.043 Y179.027 E67.12290
G1 X112.894 Y178.238 E67.20656
G1 X114.827 Y177.091 E67.30000
G1 X115.613 Y176.716 E67.33621
G1 X116.547 Y176.449 E67.37660
G1 X117.361 Y176.324 E67.41084
G1 X117.882 Y176.309 E67.43251
G1 X118.155 Y176.342 E67.44394
G1 X118.340 Y176.402 E67.45202
G1 X118.393 Y176.431 E67.45454
G1 X118.461 Y176.493 E67.45836
G1 X118.497 Y176.579 E67.46224
G1 X118.500 Y176.637 E67.46465
G1 X118.494 Y176.709 E67.46766
G1 X118.468 Y176.814 E67.47215
G1 X118.383 Y177.022 E67.48150
G1 X118.110 Y177.477 E67.50356
G1 X117.729 Y177.979 E67.52976
G1 X116.937 Y178.790 E67.57689
G1 X115.988 Y179.525 E67.62679
G1 X114.224 Y180.528 E67.71116
G1 X113.803 Y180.780 E67.73155
G1 X113.158 Y181.296 E67.76590
G1 X112.234 Y182.241 E67.82084
G1 X109.419 Y185.684 E68.00574
G1 X108.112 Y187.407 E68.09565
G1 X106.280 Y190.229 E68.23553
G1 X104.657 Y192.974 E68.36811
G1 X103.143 Y194.812 E68.46711
G1 X102.518 Y195.432 E68.50372
G1 X101.270 Y196.430 E68.57015
G1 X98.720 Y197.834 E68.69118
G1 X96.717 Y199.349 E68.79559
G1 X95.615 Y200.390 E68.85861
G1 X93.616 Y202.727 E68.98647
G1 X91.922 Y205.382 E69.11741
G1 X90.613 Y208.217 E69.24723
G1 X89.714 Y211.007 E69.36910
G1 X89.206 Y213.348 E69.46869
G1 X88.800 Y216.014 E69.58081
G1 X88.754 Y217.707 E69.65122
G1 X88.752 Y217.753 E69.65313
G1 X88.909 Y218.895 E69.70106
G1 X89.157 Y219.721 E69.73692
G1 X89.515 Y220.471 E69.77147
G1 X90.005 Y221.174 E69.80709
G1 X90.731 Y221.908 E69.85002
G1 X91.588 Y222.539 E69.89426
G1 X92.341 Y222.924 E69.92942
G1 X92.924 Y223.119 E69.95498
G1 X93.459 Y223.215 E69.97758
G1 X93.950 Y223.231 E69.99800
G1 X94.516 Y223.149 E70.02178
G1 X94.953 Y223.004 E70.04092
G1 X95.375 Y222.785 E70.06069
G1 X95.814 Y222.462 E70.08335
G1 X96.287 Y221.989 E70.11116
G1 X96.934 Y221.101 E70.15684
G1 X96.956 Y221.072 E70.15835
G1 X97.999 Y219.044 E70.25316
G1 X99.721 Y214.713 E70.44694
G1 X100.840 Y211.645 E70.58271
G1 X101.495 Y210.086 E70.65301
G1 X101.659 Y209.813 E70.66625
G1 X101.759 Y209.708 E70.67228
G1 X101.822 Y209.795 E70.67675
G1 X101.954 Y210.073 E70.68954
G1 X102.143 Y210.670 E70.71558
G1 X102.293 Y211.325 E70.74351
G1 X102.296 Y211.339 E70.74411
G1 X101.833 Y214.047 E70.85833
G1 X101.373 Y218.348 E71.03816
G1 X101.365 Y218.418 E71.04109
G1 X101.376 Y221.561 E71.17176
G1 X101.377 Y221.621 E71.17426
G1 X101.537 Y222.752 E71.22175
G1 X102.090 Y224.341 E71.29170
G1 X103.126 Y226.358 E71.38597
G1 X104.171 Y227.787 E71.45957
G1 X105.124 Y228.726 E71.51519
G1 X105.873 Y229.268 E71.55363
G1 X106.587 Y229.640 E71.58710
G1 X107.293 Y229.880 E71.61810
G1 X108.021 Y230.006 E71.64882
G1 X108.458 Y230.025 E71.66701
G1 X109.218 Y229.962 E71.69871
G1 X109.248 Y229.959 E71.69996
G1 X110.126 Y229.745 E71.73754
G1 X111.103 Y229.341 E71.78149
G1 X111.750 Y228.973 E71.81244
G1 X112.793 Y228.182 E71.86686
G1 X113.655 Y227.281 E71.91870
G1 X114.338 Y226.296 E71.96853
G1 X114.482 Y226.039 E71.98078
G1 X114.880 Y225.115 E72.02261
G1 X115.125 Y224.156 E72.06376
G1 X115.222 Y223.115 E72.10723
G1 X115.226 Y223.089 E72.10832
G1 X115.154 Y221.837 E72.16046
G1 X114.805 Y220.066 E72.23551
G1 X113.343 Y214.986 E72.45528
G1 X112.766 Y211.827 E72.58879
G1 X112.688 Y209.222 E72.69714
G1 X113.048 Y206.479 E72.81216
G1 X113.372 Y205.184 E72.86766
G1 X114.351 Y202.601 E72.98250
G1 X115.236 Y201.051 E73.05671
G1 X115.783 Y200.373 E73.09293
G1 X116.125 Y200.060 E73.11220
G1 X116.355 Y199.911 E73.12359
G1 X116.512 Y199.841 E73.13074
G1 X116.608 Y199.815 E73.13488
G1 X116.681 Y199.807 E73.13793
G1 X116.777 Y199.812 E73.14193
G1 X116.882 Y199.846 E73.14651
G1 X117.001 Y199.934 E73.15267
G1 X117.089 Y200.035 E73.15824
G1 X117.202 Y200.216 E73.16711
G1 X117.385 Y200.625 E73.18574
G1 X117.655 Y201.444 E73.22159
G1 X118.431 Y203.673 E73.31972
G1 X119.174 Y205.088 E73.38616
G1 X119.920 Y206.091 E73.43813
G1 X120.796 Y206.954 E73.48926
G1 X121.357 Y207.389 E73.51877
G1 X122.580 Y208.140 E73.57844
G1 X123.529 Y208.541 E73.62127
G1 X124.226 Y208.714 E73.65113
G1 X124.771 Y208.760 E73.67387
G1 X125.163 Y208.730 E73.69021
G1 X125.516 Y208.648 E73.70528
G1 X125.871 Y208.502 E73.72124
G1 X126.176 Y208.313 E73.73615
G1 X126.492 Y208.041 E73.75349
G1 X126.810 Y207.666 E73.77393
G1 X127.127 Y207.147 E73.79921
G1 X127.441 Y206.409 E73.83256
G1 X127.724 Y205.247 E73.88228
G1 X127.823 Y203.920 E73.93760
G1 X127.828 Y203.878 E73.93936
G1 X127.736 Y202.687 E73.98903
G1 X127.485 Y201.598 E74.03549
G1 X127.424 Y201.411 E74.04367
G1 X126.412 Y199.219 E74.14404
G1 X126.117 Y198.394 E74.18047
G1 X125.998 Y197.736 E74.20827
G1 X125.986 Y196.939 E74.24141
G1 X126.067 Y196.251 E74.27021
G1 X126.155 Y195.920 E74.28445
G1 X126.222 Y195.768 E74.29136
G1 X126.270 Y195.696 E74.29495
G1 X126.316 Y195.648 E74.29772
G1 X126.371 Y195.624 E74.30021
G1 X126.414 Y195.622 E74.30200
G1 X126.438 Y195.626 E74.30301
G1 X126.489 Y195.644 E74.30526
G1 X126.594 Y195.701 E74.31023
G1 X126.740 Y195.811 E74.31783
G1 X127.031 Y196.105 E74.33503
G1 X127.573 Y196.828 E74.37259
G1 X129.091 Y199.460 E74.49892
G1 X130.114 Y201.563 E74.59614
G1 X130.924 Y203.640 E74.68883
G1 X131.392 Y204.436 E74.72722
G1 X131.663 Y204.802 E74.74615
G1 X132.621 Y205.841 E74.80491
G1 X133.912 Y206.869 E74.87352
G1 X135.190 Y207.609 E74.93492
G1 X136.511 Y208.127 E74.99391
G1 X137.505 Y208.350 E75.03626
G1 X138.344 Y208.416 E75.07125
G1 X138.376 Y208.419 E75.07259
G1 X139.107 Y208.366 E75.10306
G1 X139.136 Y208.363 E75.10427
G1 X139.804 Y208.213 E75.13274
G1 X140.444 Y207.958 E75.16138
G1 X140.830 Y207.741 E75.17979
G1 X141.386 Y207.323 E75.20871
G1 X141.938 Y206.758 E75.24155
G1 X142.464 Y206.020 E75.27923
G1 X142.959 Y205.014 E75.32584
G1 X143.295 Y203.904 E75.37406
G1 X143.441 Y202.826 E75.41928
G1 X143.451 Y202.547 E75.43089
G1 X143.395 Y201.774 E75.46311
G1 X143.392 Y201.743 E75.46441
G1 X143.221 Y201.020 E75.49529
G1 X142.884 Y200.194 E75.53238
G1 X142.297 Y199.148 E75.58225
G1 X138.703 Y193.797 E75.85024
G1 X136.985 Y191.150 E75.98144
G1 X135.265 Y188.232 E76.12226
G1 X134.883 Y187.322 E76.16329
G1 X134.649 Y186.400 E76.20284
G1 X134.286 Y183.747 E76.31417
G1 X134.327 Y181.353 E76.41371
G1 X134.328 Y181.336 E76.41442
G1 X134.689 Y179.302 E76.50031
G1 X135.218 Y177.752 E76.56840
G1 X135.937 Y176.368 E76.63324
G1 X136.917 Y175.047 E76.70162
G1 X137.107 Y174.834 E76.71349
G1 X138.259 Y173.778 E76.77846
G1 X139.648 Y172.851 E76.84789
G1 X141.319 Y172.072 E76.92454
G1 X143.231 Y171.490 E77.00763
G1 X145.284 Y171.135 E77.09425
G1 X146.567 Y171.029 E77.14778
G1 X147.909 Y171.102 E77.20365
G1 X149.753 Y171.471 E77.28184
G1 X151.110 Y171.626 E77.33862
G1 X151.156 Y171.633 E77.34056
G1 X153.069 Y171.513 E77.42025
G1 X153.483 Y171.452 E77.43764
G1 X155.697 Y170.908 E77.53243
G1 X158.566 Y169.812 E77.66012
G1 X159.806 Y169.461 E77.71369
G1 X160.824 Y169.350 E77.75627
G1 X161.960 Y169.422 E77.80359
G1 X162.601 Y169.570 E77.83094
G1 X163.605 Y169.962 E77.87575
G1 X166.210 Y171.274 E77.99702
G1 X170.650 Y173.662 E78.20662
G1 X173.414 Y175.440 E78.34325
G1 X174.473 Y176.372 E78.40190
G1 X175.005 Y177.022 E78.43682
G1 X175.300 Y177.529 E78.46121
G1 X175.495 Y178.035 E78.48376
G1 X175.604 Y178.570 E78.50646
G1 X175.619 Y178.847 E78.51799
G1 X175.583 Y179.284 E78.53622
G1 X175.442 Y179.937 E78.56399
G1 X174.685 Y182.258 E78.66549
G1 X173.684 Y184.667 E78.77395
G1 X172.617 Y186.688 E78.86896
G1 X170.148 Y190.678 E79.06404
G1 X169.340 Y192.344 E79.14102
G1 X168.448 Y194.397 E79.23408
G1 X168.052 Y195.011 E79.26446
G1 X167.532 Y195.569 E79.29617
G1 X166.469 Y196.384 E79.35186
G1 X165.917 Y196.828 E79.38131
G1 X165.410 Y197.409 E79.41337
G1 X164.836 Y198.310 E79.45778
G1 X164.493 Y199.116 E79.49420
G1 X164.479 Y199.147 E79.49562
G1 X164.294 Y199.876 E79.52689
G1 X164.217 Y200.666 E79.55989
G1 X164.215 Y200.692 E79.56097
G1 X164.226 Y201.065 E79.57648
G1 X164.362 Y201.995 E79.61556
G1 X164.637 Y202.882 E79.65417
G1 X164.955 Y203.540 E79.68455
G1 X165.348 Y204.116 E79.71354
G1 X165.824 Y204.628 E79.74261
G1 X166.405 Y205.080 E79.77321
G1 X166.754 Y205.289 E79.79012
G1 X167.401 Y205.573 E79.81950
G1 X168.118 Y205.764 E79.85035
G1 X168.875 Y205.841 E79.88198
G1 X168.899 Y205.846 E79.88300
G1 X169.771 Y205.794 E79.91932
G1 X169.803 Y205.792 E79.92065
G1 X170.650 Y205.600 E79.95676
G1 X171.397 Y205.300 E79.99023
G1 X171.513 Y205.239 E79.99568
G1 X171.900 Y204.981 E80.01502
G1 X172.358 Y204.564 E80.04077
G1 X172.897 Y203.931 E80.07533
G1 X174.708 Y201.265 E80.20933
G1 X176.625 Y198.653 E80.34403
G1 X176.655 Y198.614 E80.34607
G1 X177.029 Y197.878 E80.38040
G1 X177.323 Y197.271 E80.40844
G1 X177.458 Y197.091 E80.41779
G1 X177.565 Y196.989 E80.42394
G1 X177.733 Y196.889 E80.43207
G1 X177.889 Y196.852 E80.43873
G1 X177.994 Y196.852 E80.44310
G1 X178.166 Y196.888 E80.45040
G1 X178.335 Y196.974 E80.45829
G1 X178.436 Y197.090 E80.46468
G1 X178.450 Y197.119 E80.46602
G1 X178.482 Y197.289 E80.47321
G1 X178.480 Y197.398 E80.47775
G1 X178.430 Y197.660 E80.48883
G1 X178.320 Y197.974 E80.50267
G1 X177.684 Y199.173 E80.55909
G1 X177.003 Y200.595 E80.62464
G1 X176.415 Y202.408 E80.70389
G1 X176.401 Y202.451 E80.70577
G1 X176.100 Y204.280 E80.78283
G1 X176.092 Y205.662 E80.84029
G1 X176.090 Y205.707 E80.84216
G1 X176.253 Y206.731 E80.88527
G1 X176.475 Y207.424 E80.91552
G1 X176.778 Y208.034 E80.94384
G1 X176.921 Y208.254 E80.95475
G1 X177.309 Y208.730 E80.98028
G1 X177.809 Y209.181 E81.00827
G1 X178.414 Y209.578 E81.03836
G1 X179.067 Y209.887 E81.06839
G1 X179.590 Y210.057 E81.09126
G1 X180.123 Y210.158 E81.11381
G1 X180.834 Y210.193 E81.14341
G1 X180.859 Y210.195 E81.14445
G1 X181.672 Y210.106 E81.17845
G1 X182.579 Y209.863 E81.21749
G1 X183.663 Y209.370 E81.26700
G1 X184.727 Y208.652 E81.32037
G1 X185.621 Y207.818 E81.37120
G1 X186.306 Y206.942 E81.41743
G1 X186.547 Y206.549 E81.43660
G1 X186.958 Y205.661 E81.47728
G1 X187.254 Y204.638 E81.52155
G1 X187.416 Y203.533 E81.56799
G1 X187.494 Y201.819 E81.63932
G1 X187.592 Y200.619 E81.68938
G1 X187.646 Y200.364 E81.70021
G1 X187.760 Y200.032 E81.71481
G1 X187.862 Y199.840 E81.72385
G1 X187.985 Y199.674 E81.73243
G1 X188.133 Y199.532 E81.74096
G1 X188.325 Y199.401 E81.75063
G1 X188.533 Y199.305 E81.76015
G1 X188.774 Y199.234 E81.77059
G1 X189.066 Y199.197 E81.78283
G1 X189.434 Y199.206 E81.79814
G1 X189.871 Y199.280 E81.81656
G1 X190.508 Y199.486 E81.84440
G1 X191.119 Y199.778 E81.87255
G1 X191.530 Y200.042 E81.89286
G1 X191.968 Y200.426 E81.91708
G1 X192.375 Y200.913 E81.94346
G1 X192.744 Y201.522 E81.97307
G1 X193.108 Y202.398 E82.01251
G1 X193.464 Y203.774 E82.07160
G1 X193.550 Y204.248 E82.09163
G1 X193.619 Y205.231 E82.13260
G1 X193.497 Y206.540 E82.18725
G1 X193.273 Y209.240 E82.29989
G1 X193.321 Y210.833 E82.36615
G1 X193.323 Y210.873 E82.36782
G1 X193.727 Y213.188 E82.46552
G1 X193.842 Y214.940 E82.53851
G1 X193.797 Y215.864 E82.57698
G1 X193.485 Y217.504 E82.64638
G1 X192.345 Y222.232 E82.84858
G1 X192.201 Y222.904 E82.87715
G1 X191.518 Y227.059 E83.05222
G1 X191.484 Y228.182 E83.09893
G1 X191.482 Y228.212 E83.10018
G1 X191.543 Y228.673 E83.11951
G1 X191.641 Y229.009 E83.13406
G1 X191.786 Y229.312 E83.14803
G1 X192.106 Y229.801 E83.17232
G1 X192.582 Y230.337 E83.20213
G1 X193.207 Y230.851 E83.23577
G1 X193.978 Y231.304 E83.27295
G1 X194.969 Y231.701 E83.31733
G1 X196.064 Y231.940 E83.36393
G1 X197.087 Y232.003 E83.40654
G1 X197.119 Y232.005 E83.40787
G1 X198.113 Y231.907 E83.44940
G1 X199.038 Y231.659 E83.48922
G1 X199.884 Y231.279 E83.52777
G1 X200.663 Y230.767 E83.56653
G1 X200.692 Y230.749 E83.56795
G1 X201.470 Y230.049 E83.61146
G1 X202.362 Y228.947 E83.67040
G1 X203.042 Y227.801 E83.72580
G1 X203.484 Y226.820 E83.77054
G1 X203.814 Y225.644 E83.82132
G1 X203.989 Y224.154 E83.88369
G1 X203.996 Y224.111 E83.88550
G1 X203.842 Y220.112 E84.05189
G1 X203.618 Y217.649 E84.15471
G1 X202.753 Y210.499 E84.45414
G1 X202.633 Y209.464 E84.49746
G1 X202.494 Y207.129 E84.59471
G1 X202.554 Y206.548 E84.61899
G1 X202.631 Y206.256 E84.63155
G1 X202.697 Y206.108 E84.63828
G1 X202.815 Y205.949 E84.64651
G1 X202.873 Y205.902 E84.64962
G1 X202.940 Y205.862 E84.65286
G1 X203.000 Y205.839 E84.65553
G1 X203.082 Y205.820 E84.65903
G1 X203.186 Y205.811 E84.66337
G1 X203.315 Y205.820 E84.66875
G1 X203.504 Y205.863 E84.67681
G1 X203.764 Y205.960 E84.68835
G1 X204.584 Y206.413 E84.72729
G1 X205.111 Y206.794 E84.75433
G1 X205.545 Y207.230 E84.77991
G1 X205.955 Y207.792 E84.80883
G1 X206.417 Y208.678 E84.85037
G1 X207.141 Y210.628 E84.93685
G1 X207.521 Y211.782 E84.98736
G1 X208.064 Y213.987 E85.08177
G1 X208.195 Y215.445 E85.14263
G1 X208.090 Y216.989 E85.20698
G1 X207.972 Y217.625 E85.23387
G1 X207.555 Y219.117 E85.29828
G1 X207.484 Y219.656 E85.32088
G1 X207.517 Y220.284 E85.34702
G1 X207.620 Y220.828 E85.37004
G1 X207.919 Y221.741 E85.40998
G1 X208.314 Y222.517 E85.44619
G1 X208.717 Y223.081 E85.47500
G1 X209.176 Y223.557 E85.50250
G1 X209.702 Y223.957 E85.52997
G1 X210.315 Y224.285 E85.55887
G1 X210.802 Y224.465 E85.58046
G1 X211.573 Y224.630 E85.61324
G1 X212.324 Y224.671 E85.64451
G1 X212.345 Y224.673 E85.64539
G1 X212.860 Y224.632 E85.66687
G1 X213.488 Y224.499 E85.69355
G1 X214.046 Y224.289 E85.71834
G1 X214.528 Y224.021 E85.74127
G1 X214.954 Y223.684 E85.76385
G1 X215.079 Y223.562 E85.77111
G1 X215.317 Y223.262 E85.78704
G1 X215.563 Y222.819 E85.80810
G1 X215.861 Y221.987 E85.84485
G1 X216.178 Y220.124 E85.92341
G1 X216.257 Y218.269 E86.00060
G1 X216.058 Y215.832 E86.10226
G1 X216.054 Y215.783 E86.10430
G1 X215.612 Y213.770 E86.18999
G1 X215.453 Y213.249 E86.21264
G1 X214.639 Y211.273 E86.30149
G1 X213.451 Y209.285 E86.39777
G1 X212.005 Y206.524 E86.52735
G1 X210.857 Y203.453 E86.66366
G1 X210.010 Y199.868 E86.81681
G1 X209.492 Y198.510 E86.87723
G1 X208.555 Y196.969 E86.95221
G1 X207.746 Y195.958 E87.00605
G1 X206.455 Y194.659 E87.08219
G1 X204.383 Y192.222 E87.21518
G1 X202.952 Y190.280 E87.31547
G1 X201.331 Y188.407 E87.41845
G1 X199.869 Y187.115 E87.49957
G1 X198.459 Y185.908 E87.57674
G1 X198.229 Y185.684 E87.59008
G1 X196.497 Y183.765 E87.69756
G1 X195.764 Y182.620 E87.75408
G1 X195.361 Y181.704 E87.79569
G1 X195.104 Y180.727 E87.83769
G1 X194.989 Y179.626 E87.88371
G1 X195.013 Y178.905 E87.91370
G1 X195.097 Y178.445 E87.93314
G1 X195.194 Y178.170 E87.94527
G1 X195.290 Y177.995 E87.95356
G1 X195.454 Y177.812 E87.96378
G1 X195.549 Y177.746 E87.96859
G1 X195.629 Y177.708 E87.97227
G1 X195.724 Y177.679 E87.97640
G1 X195.836 Y177.664 E87.98110
G1 X195.981 Y177.667 E87.98713
G1 X196.407 Y177.768 E88.00533
G1 X197.945 Y178.501 E88.07616
G1 X201.338 Y180.237 E88.23462
G1 X203.380 Y181.126 E88.32721
G1 X204.265 Y181.368 E88.36536
G1 X205.985 Y181.625 E88.43766
G1 X206.030 Y181.633 E88.43956
G1 X207.375 Y181.627 E88.49548
G1 X207.413 Y181.625 E88.49706
G1 X208.408 Y181.458 E88.53901
G1 X209.092 Y181.235 E88.56892
G1 X209.666 Y180.951 E88.59555
G1 X210.165 Y180.602 E88.62086
G1 X210.608 Y180.171 E88.64656
G1 X210.934 Y179.740 E88.66903
G1 X211.239 Y179.179 E88.69557
G1 X211.476 Y178.513 E88.72496
G1 X211.627 Y177.719 E88.75857
G1 X211.656 Y176.804 E88.79663
G1 X211.658 Y176.776 E88.79779
G1 X211.508 Y175.633 E88.84572
G1 X211.177 Y174.535 E88.89340
G1 X210.726 Y173.590 E88.93693
G1 X210.225 Y172.845 E88.97426
G1 X209.657 Y172.227 E89.00916
G1 X209.315 Y171.949 E89.02748
G1 X208.746 Y171.631 E89.05458
G1 X206.545 Y170.845 E89.15175
G1 X205.995 Y170.683 E89.17558
G1 X202.284 Y169.828 E89.33391
G1 X198.281 Y169.128 E89.50286
G1 X194.695 Y168.381 E89.65515
G1 X191.746 Y167.430 E89.78397
G1 X189.670 Y166.556 E89.87762
G1 X187.695 Y165.491 E89.97091
G1 X186.608 Y164.673 E90.02747
G1 X185.746 Y163.798 E90.07853
G1 X185.449 Y163.427 E90.09829
G1 X184.744 Y162.320 E90.15286
G1 X184.166 Y161.000 E90.21277
G1 X183.737 Y159.386 E90.28220
G1 X183.513 Y157.377 E90.36624
G1 X183.575 Y154.931 E90.46797
G1 X183.888 Y152.540 E90.56822
G1 X184.423 Y150.223 E90.66709
G1 X185.131 Y148.487 E90.74503
G1 X186.105 Y146.665 E90.83093
G1 X186.783 Y145.026 E90.90467
G1 X187.307 Y142.653 E91.00570
G1 X187.464 Y140.756 E91.08484
G1 X187.470 Y140.707 E91.08689
G1 X187.350 Y138.822 E91.16542
G1 X187.347 Y138.780 E91.16717
G1 X186.894 Y136.368 E91.26920
G1 X186.704 Y134.396 E91.35157
G1 X186.930 Y131.644 E91.46637
G1 X187.151 Y130.457 E91.51657
G1 X188.081 Y127.004 E91.66524
G1 X188.727 Y123.493 E91.81366
G1 X188.741 Y123.414 E91.81700
G1 X188.940 Y121.255 E91.90714
G1 X189.023 Y117.574 E92.06022
G1 X189.026 Y117.506 E92.06305
G1 X188.716 Y114.579 E92.18542
G1 X187.956 Y111.499 E92.31731
G1 X186.797 Y108.458 E92.45261
G1 X184.662 Y103.982 E92.65879
G1 X183.209 Y100.866 E92.80173
G1 X181.477 Y96.534 E92.99569
G1 X180.389 Y92.903 E93.15328
G1 X179.650 Y90.686 E93.25044
G1 X178.183 Y87.982 E93.37834
G1 X177.350 Y86.743 E93.44041
G1 X174.765 Y83.492 E93.61309
G1 X171.895 Y80.578 E93.78313
G1 X168.851 Y78.079 E93.94687
G1 X168.799 Y78.036 E93.94968
G1 X165.469 Y75.914 E94.11384
G1 X162.341 Y74.442 E94.25757
G1 X159.242 Y73.476 E94.39253
G1 X156.211 Y73.004 E94.52006
G1 X156.152 Y72.994 E94.52255
G1 X153.107 Y73.011 E94.64915
G1 X153.045 Y73.013 E94.65173
G1 X150.056 Y73.522 E94.77778
G1 X147.114 Y74.499 E94.90667
G1 X144.263 Y75.918 E95.03907
G1 X141.485 Y77.723 E95.17680
G1 X138.707 Y79.875 E95.32290
G1 X138.142 Y80.348 E95.35353
G1 X136.252 Y82.450 E95.47105
G1 X127.919 Y92.717 E96.02081
G1 X123.332 Y98.425 E96.32525
;LAYER:1
M106 S15
G0 F12000 X123.332 Y98.425 Z0.500
;TYPE:WALL-OUTER
G1 F2220 X121.525 Y101.057 E96.52435
G1 X120.361 Y103.557 E96.69633
G1 X120.054 Y104.463 E96.75598
G1 X120.018 Y104.567 E96.76285
G1 X119.285 Y107.794 E96.96922
G1 X118.446 Y114.066 E97.36384
G1 X117.845 Y119.763 E97.72109
G1 X117.684 Y125.112 E98.05482
G1 X117.780 Y127.436 E98.19988
G1 X117.792 Y127.687 E98.21555
G1 X118.184 Y130.845 E98.41400
G1 X118.633 Y136.517 E98.76883
G1 X118.665 Y137.336 E98.81994
G1 X118.865 Y141.179 E99.05993
G1 X119.400 Y143.972 E99.23727
G1 X119.540 Y144.458 E99.26881
G1 X120.383 Y146.569 E99.41057
G1 X121.916 Y149.763 E99.63151
G1 X122.436 Y150.900 E99.70948
G1 X124.519 Y155.846 E100.04417
G1 X125.075 Y157.762 E100.16858
G1 X125.129 Y157.946 E100.18054
G1 X125.268 Y159.079 E100.25173
G1 X125.241 Y159.847 E100.29965
G1 X125.099 Y160.561 E100.34505
G1 X124.861 Y161.230 E100.38933
G1 X124.385 Y162.152 E100.45404
G1 X124.345 Y162.228 E100.45940
G1 X123.640 Y163.176 E100.53307
G1 X122.746 Y164.068 E100.61183
G1 X122.664 Y164.149 E100.61902
G1 X121.464 Y165.055 E100.71279
G1 X120.301 Y165.715 E100.79618
G1 X119.854 Y165.903 E100.82642
G1 X118.727 Y166.237 E100.89973
G1 X117.389 Y166.417 E100.98392
G1 X114.622 Y166.694 E101.15734
G1 X113.326 Y167.036 E101.24093
G1 X113.173 Y167.078 E101.25082
G1 X111.705 Y167.741 E101.35128
G1 X111.163 Y168.036 E101.38976
G1 X109.960 Y168.805 E101.47880
G1 X108.998 Y169.278 E101.54565
G1 X108.907 Y169.323 E101.55198
G1 X107.612 Y169.755 E101.63712
G1 X106.305 Y169.971 E101.71973
G1 X104.954 Y170.163 E101.80483
G1 X104.421 Y170.332 E101.83970
G1 X103.820 Y170.630 E101.88153
G1 X103.372 Y170.927 E101.91505
G1 X102.669 Y171.551 E101.97368
G1 X102.137 Y172.199 E102.02596
G1 X101.770 Y172.772 E102.06840
G1 X101.415 Y173.543 E102.12133
G1 X101.216 Y174.252 E102.16725
G1 X101.143 Y174.864 E102.20569
G1 X101.132 Y174.947 E102.21091
G1 X101.157 Y175.577 E102.25023
G1 X101.161 Y175.663 E102.25560
G1 X101.331 Y176.428 E102.30447
G1 X101.591 Y177.068 E102.34755
G1 X101.967 Y177.697 E102.39325
G1 X102.463 Y178.301 E102.44199
G1 X102.523 Y178.371 E102.44774
G1 X103.069 Y178.854 E102.49320
G1 X103.137 Y178.913 E102.49882
G1 X103.613 Y179.235 E102.53465
G1 X104.220 Y179.524 E102.57658
G1 X104.298 Y179.559 E102.58191
G1 X104.853 Y179.710 E102.61778
G1 X104.926 Y179.731 E102.62252
G1 X105.555 Y179.803 E102.66200
G1 X105.642 Y179.814 E102.66747
G1 X107.681 Y179.691 E102.79486
G1 X108.919 Y179.542 E102.87262
G1 X110.861 Y179.072 E102.99723
G1 X111.070 Y179.020 E103.01066
G1 X112.739 Y178.305 E103.12389
G1 X113.113 Y178.123 E103.14983
G1 X114.853 Y177.075 E103.27650
G1 X115.611 Y176.717 E103.32878
G1 X116.465 Y176.473 E103.38417
G1 X117.378 Y176.321 E103.44189
G1 X117.888 Y176.308 E103.47370
G1 X118.155 Y176.342 E103.49049
G1 X118.340 Y176.402 E103.50262
G1 X118.393 Y176.431 E103.50639
G1 X118.461 Y176.493 E103.51212
G1 X118.497 Y176.579 E103.51794
G1 X118.500 Y176.637 E103.52156
G1 X118.494 Y176.709 E103.52607
G1 X118.468 Y176.815 E103.53287
G1 X118.383 Y177.022 E103.54683
G1 X118.135 Y177.436 E103.57692
G1 X117.759 Y177.939 E103.61609
G1 X116.990 Y178.736 E103.68515
G1 X116.930 Y178.799 E103.69058
G1 X115.972 Y179.537 E103.76600
G1 X114.369 Y180.446 E103.88092
G1 X113.853 Y180.750 E103.91827
G1 X113.210 Y181.255 E103.96925
G1 X112.315 Y182.158 E104.04854
G1 X112.220 Y182.254 E104.05696
G1 X109.647 Y185.405 E104.31066
G1 X108.216 Y187.270 E104.45726
G1 X106.429 Y190.000 E104.66074
G1 X104.797 Y192.736 E104.85941
G1 X104.657 Y192.975 E104.87669
G1 X103.123 Y194.837 E105.02714
G1 X102.510 Y195.440 E105.08076
G1 X101.250 Y196.445 E105.18127
G1 X98.684 Y197.853 E105.36380
G1 X96.690 Y199.370 E105.52005
G1 X95.599 Y200.405 E105.61383
G1 X93.588 Y202.759 E105.80691
G1 X91.899 Y205.418 E106.00336
G1 X90.587 Y208.271 E106.19919
G1 X89.702 Y211.045 E106.38077
G1 X89.199 Y213.380 E106.52973
G1 X88.793 Y216.050 E106.69815
G1 X88.753 Y217.755 E106.80451
G1 X88.894 Y218.787 E106.86947
G1 X88.912 Y218.911 E106.87728
G1 X89.133 Y219.641 E106.92485
G1 X89.162 Y219.734 E106.93092
G1 X89.479 Y220.397 E106.97675
G1 X89.521 Y220.483 E106.98272
G1 X90.013 Y221.183 E107.03608
G1 X90.755 Y221.932 E107.10183
G1 X91.599 Y222.547 E107.16695
G1 X92.267 Y222.886 E107.21367
G1 X92.351 Y222.929 E107.21956
G1 X92.860 Y223.097 E107.25298
G1 X92.931 Y223.122 E107.25768
G1 X93.459 Y223.215 E107.29111
G1 X93.950 Y223.231 E107.32175
G1 X94.509 Y223.150 E107.35697
G1 X94.952 Y223.004 E107.38606
G1 X95.375 Y222.785 E107.41577
G1 X95.814 Y222.462 E107.44975
G1 X96.250 Y222.026 E107.48821
G1 X96.956 Y221.071 E107.56227
G1 X98.013 Y219.016 E107.70639
G1 X99.582 Y215.063 E107.97161
G1 X100.754 Y211.880 E108.18314
G1 X101.446 Y210.199 E108.29651
G1 X101.501 Y210.071 E108.30520
G1 X101.666 Y209.803 E108.32482
G1 X101.734 Y209.722 E108.33142
G1 X101.757 Y209.706 E108.33317
G1 X101.822 Y209.795 E108.34004
G1 X101.955 Y210.076 E108.35943
G1 X102.132 Y210.638 E108.39617
G1 X102.280 Y211.267 E108.43647
G1 X102.296 Y211.342 E108.44125
G1 X101.871 Y213.822 E108.59817
G1 X101.365 Y218.420 E108.88664
G1 X101.377 Y221.619 E109.08614
G1 X101.540 Y222.767 E109.15845
G1 X102.041 Y224.202 E109.25324
G1 X102.098 Y224.362 E109.26383
G1 X103.140 Y226.385 E109.40574
G1 X104.186 Y227.806 E109.51578
G1 X105.036 Y228.640 E109.59004
G1 X105.137 Y228.740 E109.59891
G1 X105.884 Y229.276 E109.65624
G1 X106.515 Y229.601 E109.70051
G1 X106.597 Y229.644 E109.70628
G1 X107.221 Y229.856 E109.74738
G1 X107.302 Y229.884 E109.75273
G1 X107.950 Y229.994 E109.79372
G1 X108.030 Y230.008 E109.79878
G1 X108.458 Y230.025 E109.82549
G1 X109.247 Y229.960 E109.87486
G1 X110.138 Y229.742 E109.93207
G1 X111.026 Y229.374 E109.99201
G1 X111.699 Y229.003 E110.03994
G1 X112.695 Y228.257 E110.11754
G1 X112.807 Y228.171 E110.12635
G1 X113.668 Y227.268 E110.20416
G1 X114.283 Y226.376 E110.27173
G1 X114.481 Y226.042 E110.29594
G1 X114.886 Y225.102 E110.35977
G1 X115.129 Y224.142 E110.42153
G1 X115.226 Y223.082 E110.48791
G1 X115.154 Y221.837 E110.56568
G1 X114.800 Y220.042 E110.67978
G1 X113.323 Y214.916 E111.01245
G1 X112.759 Y211.785 E111.21085
G1 X112.688 Y209.222 E111.37075
G1 X113.053 Y206.439 E111.54579
G1 X113.347 Y205.279 E111.62042
G1 X113.375 Y205.171 E111.62738
G1 X114.364 Y202.569 E111.80097
G1 X115.238 Y201.048 E111.91037
G1 X115.790 Y200.363 E111.96523
G1 X116.125 Y200.061 E111.99336
G1 X116.355 Y199.911 E112.01048
G1 X116.512 Y199.841 E112.02120
G1 X116.608 Y199.815 E112.02741
G1 X116.681 Y199.807 E112.03199
G1 X116.765 Y199.811 E112.03723
G1 X116.893 Y199.853 E112.04563
G1 X117.001 Y199.934 E112.05405
G1 X117.088 Y200.034 E112.06232
G1 X117.202 Y200.216 E112.07571
G1 X117.386 Y200.628 E112.10385
G1 X117.632 Y201.376 E112.15296
G1 X118.442 Y203.703 E112.30661
G1 X119.106 Y204.961 E112.39532
G1 X119.184 Y205.108 E112.40570
G1 X119.930 Y206.104 E112.48331
G1 X120.717 Y206.878 E112.55214
G1 X120.809 Y206.967 E112.56013
G1 X121.365 Y207.395 E112.60388
G1 X122.598 Y208.150 E112.69405
G1 X123.542 Y208.547 E112.75791
G1 X124.155 Y208.697 E112.79727
G1 X124.235 Y208.718 E112.80243
G1 X124.772 Y208.760 E112.83602
G1 X125.163 Y208.730 E112.86047
G1 X125.516 Y208.648 E112.88307
G1 X125.871 Y208.502 E112.90701
G1 X126.181 Y208.310 E112.92975
G1 X126.492 Y208.040 E112.95543
G1 X126.810 Y207.666 E112.98605
G1 X127.093 Y207.203 E113.01989
G1 X127.132 Y207.140 E113.02451
G1 X127.409 Y206.484 E113.06892
G1 X127.445 Y206.398 E113.07473
G1 X127.728 Y205.231 E113.14962
G1 X127.816 Y204.018 E113.22546
G1 X127.828 Y203.874 E113.23448
G1 X127.744 Y202.799 E113.30172
G1 X127.734 Y202.670 E113.30979
G1 X127.506 Y201.686 E113.37278
G1 X127.426 Y201.414 E113.39046
G1 X126.407 Y199.210 E113.54189
G1 X126.139 Y198.456 E113.59179
G1 X126.005 Y197.772 E113.63526
G1 X125.987 Y197.011 E113.68273
G1 X125.985 Y196.948 E113.68666
G1 X126.063 Y196.291 E113.72792
G1 X126.069 Y196.242 E113.73100
G1 X126.156 Y195.919 E113.75186
G1 X126.222 Y195.768 E113.76214
G1 X126.270 Y195.696 E113.76753
G1 X126.301 Y195.662 E113.77040
G1 X126.360 Y195.625 E113.77475
G1 X126.412 Y195.622 E113.77799
G1 X126.438 Y195.626 E113.77963
G1 X126.489 Y195.644 E113.78301
G1 X126.594 Y195.701 E113.79046
G1 X126.740 Y195.811 E113.80186
G1 X127.031 Y196.105 E113.82766
G1 X127.582 Y196.840 E113.88494
G1 X128.967 Y199.245 E114.05802
G1 X130.036 Y201.402 E114.20815
G1 X130.128 Y201.592 E114.22131
G1 X130.924 Y203.640 E114.35834
G1 X131.349 Y204.362 E114.41059
G1 X131.663 Y204.802 E114.44430
G1 X132.621 Y205.841 E114.53243
G1 X133.930 Y206.883 E114.63677
G1 X135.074 Y207.542 E114.71910
G1 X135.207 Y207.619 E114.72869
G1 X136.390 Y208.079 E114.80784
G1 X136.528 Y208.134 E114.81711
G1 X137.518 Y208.353 E114.88034
G1 X138.376 Y208.419 E114.93400
G1 X139.133 Y208.364 E114.98134
G1 X139.733 Y208.229 E115.01969
G1 X139.814 Y208.210 E115.02488
G1 X140.395 Y207.978 E115.06389
G1 X140.828 Y207.742 E115.09465
G1 X141.395 Y207.317 E115.13884
G1 X141.883 Y206.815 E115.18250
G1 X141.946 Y206.750 E115.18814
G1 X142.411 Y206.094 E115.23829
G1 X142.471 Y206.010 E115.24473
G1 X142.967 Y205.000 E115.31490
G1 X143.263 Y204.010 E115.37934
G1 X143.300 Y203.889 E115.38723
G1 X143.429 Y202.913 E115.44862
G1 X143.452 Y202.551 E115.47124
G1 X143.400 Y201.837 E115.51589
G1 X143.393 Y201.744 E115.52171
G1 X143.234 Y201.078 E115.56441
G1 X142.916 Y200.273 E115.61838
G1 X142.344 Y199.231 E115.69251
G1 X138.654 Y193.724 E116.10591
G1 X137.122 Y191.360 E116.28159
G1 X135.237 Y188.184 E116.51191
G1 X134.913 Y187.394 E116.56516
G1 X134.664 Y186.460 E116.62544
G1 X134.286 Y183.747 E116.79627
G1 X134.328 Y181.335 E116.94671
G1 X134.696 Y179.267 E117.07770
G1 X135.223 Y177.736 E117.17867
G1 X135.951 Y176.342 E117.27675
G1 X136.832 Y175.159 E117.36874
G1 X137.107 Y174.834 E117.39529
G1 X138.278 Y173.760 E117.49438
G1 X139.667 Y172.838 E117.59834
G1 X141.340 Y172.061 E117.71338
G1 X143.229 Y171.491 E117.83643
G1 X145.314 Y171.130 E117.96839
G1 X146.561 Y171.029 E118.04641
G1 X147.810 Y171.097 E118.12442
G1 X147.928 Y171.104 E118.13179
G1 X149.602 Y171.441 E118.23828
G1 X151.011 Y171.615 E118.32682
G1 X151.161 Y171.633 E118.33624
G1 X152.913 Y171.523 E118.44571
G1 X153.445 Y171.458 E118.47914
G1 X155.740 Y170.897 E118.62647
G1 X158.608 Y169.796 E118.81806
G1 X159.821 Y169.456 E118.89662
G1 X160.748 Y169.359 E118.95474
G1 X160.822 Y169.350 E118.95939
G1 X161.960 Y169.422 E119.03050
G1 X162.546 Y169.557 E119.06800
G1 X163.529 Y169.933 E119.13364
G1 X165.997 Y171.166 E119.30569
G1 X170.705 Y173.692 E119.63888
G1 X173.455 Y175.466 E119.84297
G1 X174.483 Y176.381 E119.92879
G1 X175.013 Y177.033 E119.98119
G1 X175.284 Y177.502 E120.01497
G1 X175.499 Y178.047 E120.05151
G1 X175.606 Y178.576 E120.08517
G1 X175.619 Y178.846 E120.10202
G1 X175.582 Y179.290 E120.12981
G1 X175.454 Y179.885 E120.16776
G1 X174.745 Y182.074 E120.31126
G1 X173.763 Y184.480 E120.47332
G1 X173.668 Y184.704 E120.48849
G1 X172.706 Y186.521 E120.61671
G1 X170.132 Y190.704 E120.92300
G1 X169.404 Y192.211 E121.02738
G1 X168.434 Y194.426 E121.17817
G1 X168.075 Y194.975 E121.21908
G1 X168.045 Y195.020 E121.22245
G1 X167.562 Y195.536 E121.26653
G1 X167.527 Y195.574 E121.26975
G1 X166.556 Y196.317 E121.34600
G1 X165.909 Y196.834 E121.39765
G1 X165.458 Y197.355 E121.44062
G1 X165.341 Y197.502 E121.45234
G1 X164.836 Y198.311 E121.51181
G1 X164.520 Y199.054 E121.56217
G1 X164.479 Y199.149 E121.56862
G1 X164.291 Y199.886 E121.61605
G1 X164.215 Y200.692 E121.66654
G1 X164.226 Y201.065 E121.68981
G1 X164.351 Y201.921 E121.74376
G1 X164.610 Y202.795 E121.80061
G1 X164.641 Y202.895 E121.80714
G1 X164.931 Y203.488 E121.84830
G1 X165.307 Y204.056 E121.89078
G1 X165.355 Y204.125 E121.89602
G1 X165.787 Y204.588 E121.93551
G1 X166.347 Y205.035 E121.98020
G1 X166.413 Y205.086 E121.98540
G1 X166.755 Y205.289 E122.01020
G1 X167.410 Y205.577 E122.05482
G1 X168.128 Y205.767 E122.10114
G1 X168.821 Y205.836 E122.14457
G1 X168.909 Y205.846 E122.15010
G1 X169.800 Y205.792 E122.20576
G1 X170.565 Y205.620 E122.25466
G1 X170.662 Y205.597 E122.26088
G1 X171.335 Y205.326 E122.30612
G1 X171.510 Y205.242 E122.31823
G1 X171.901 Y204.981 E122.34755
G1 X172.321 Y204.597 E122.38304
G1 X172.854 Y203.981 E122.43384
G1 X174.561 Y201.480 E122.62267
G1 X175.431 Y200.280 E122.71511
G1 X176.656 Y198.611 E122.84422
G1 X177.001 Y197.932 E122.89171
G1 X177.148 Y197.597 E122.91453
G1 X177.320 Y197.275 E122.93729
G1 X177.461 Y197.089 E122.95185
G1 X177.575 Y196.980 E122.96168
G1 X177.725 Y196.890 E122.97259
G1 X177.889 Y196.852 E122.98309
G1 X177.994 Y196.852 E122.98964
G1 X178.174 Y196.890 E123.00111
G1 X178.316 Y196.961 E123.01101
G1 X178.412 Y197.055 E123.01939
G1 X178.451 Y197.127 E123.02450
G1 X178.482 Y197.286 E123.03460
G1 X178.480 Y197.398 E123.04159
G1 X178.430 Y197.660 E123.05822
G1 X178.320 Y197.974 E123.07897
G1 X177.737 Y199.074 E123.15661
G1 X176.993 Y200.614 E123.26327
G1 X176.401 Y202.451 E123.38363
G1 X176.127 Y204.114 E123.48874
G1 X176.095 Y204.305 E123.50081
G1 X176.092 Y205.563 E123.57927
G1 X176.091 Y205.713 E123.58862
G1 X176.256 Y206.745 E123.65380
G1 X176.478 Y207.434 E123.69894
G1 X176.753 Y207.985 E123.73734
G1 X176.919 Y208.252 E123.75695
G1 X177.268 Y208.680 E123.79139
G1 X177.757 Y209.134 E123.83300
G1 X177.817 Y209.187 E123.83800
G1 X178.366 Y209.547 E123.87894
G1 X179.002 Y209.855 E123.92301
G1 X179.076 Y209.891 E123.92814
G1 X179.597 Y210.060 E123.96230
G1 X180.131 Y210.160 E123.99618
G1 X180.777 Y210.190 E124.03651
G1 X180.864 Y210.195 E124.04194
G1 X181.592 Y210.115 E124.08761
G1 X181.685 Y210.104 E124.09345
G1 X182.490 Y209.887 E124.14545
G1 X182.592 Y209.858 E124.15206
G1 X183.561 Y209.417 E124.21845
G1 X183.679 Y209.362 E124.22657
G1 X184.760 Y208.630 E124.30799
G1 X185.634 Y207.807 E124.38286
G1 X186.322 Y206.920 E124.45286
G1 X186.547 Y206.549 E124.47992
G1 X186.964 Y205.649 E124.54178
G1 X187.258 Y204.624 E124.60828
G1 X187.419 Y203.518 E124.67798
G1 X187.488 Y201.957 E124.77542
G1 X187.586 Y200.698 E124.85417
G1 X187.595 Y200.597 E124.86050
G1 X187.644 Y200.372 E124.87486
G1 X187.759 Y200.033 E124.89718
G1 X187.862 Y199.840 E124.91082
G1 X187.985 Y199.674 E124.92371
G1 X188.133 Y199.532 E124.93650
G1 X188.325 Y199.401 E124.95100
G1 X188.533 Y199.305 E124.96528
G1 X188.774 Y199.234 E124.98095
G1 X189.066 Y199.197 E124.99931
G1 X189.434 Y199.206 E125.02226
G1 X189.871 Y199.280 E125.04990
G1 X190.471 Y199.474 E125.08923
G1 X191.062 Y199.750 E125.12990
G1 X191.493 Y200.019 E125.16159
G1 X191.934 Y200.397 E125.19781
G1 X192.342 Y200.872 E125.23686
G1 X192.724 Y201.488 E125.28206
G1 X192.751 Y201.534 E125.28539
G1 X193.115 Y202.413 E125.34472
G1 X193.437 Y203.668 E125.42552
G1 X193.543 Y204.207 E125.45978
G1 X193.619 Y205.231 E125.52381
G1 X193.507 Y206.432 E125.59904
G1 X193.273 Y209.240 E125.77476
G1 X193.323 Y210.871 E125.87652
G1 X193.733 Y213.219 E126.02516
G1 X193.843 Y214.938 E126.13258
G1 X193.801 Y215.793 E126.18597
G1 X193.797 Y215.864 E126.19040
G1 X193.511 Y217.369 E126.28594
G1 X192.439 Y221.846 E126.57303
G1 X192.213 Y222.853 E126.63739
G1 X191.507 Y227.117 E126.90692
G1 X191.486 Y228.097 E126.96805
G1 X191.483 Y228.217 E126.97554
G1 X191.543 Y228.673 E127.00422
G1 X191.641 Y229.009 E127.02605
G1 X191.786 Y229.312 E127.04700
G1 X192.081 Y229.763 E127.08061
G1 X192.533 Y230.281 E127.12348
G1 X193.145 Y230.800 E127.17352
G1 X193.218 Y230.858 E127.17933
G1 X193.923 Y231.272 E127.23032
G1 X194.013 Y231.325 E127.23683
G1 X194.876 Y231.664 E127.29466
G1 X194.982 Y231.706 E127.30177
G1 X196.079 Y231.944 E127.37177
G1 X197.005 Y231.998 E127.42962
G1 X197.120 Y232.005 E127.43680
G1 X198.016 Y231.917 E127.49295
G1 X198.127 Y231.904 E127.49992
G1 X199.051 Y231.655 E127.55960
G1 X199.884 Y231.279 E127.61659
G1 X200.602 Y230.807 E127.67018
G1 X200.693 Y230.748 E127.67694
G1 X201.481 Y230.039 E127.74304
G1 X202.374 Y228.932 E127.83174
G1 X203.051 Y227.785 E127.91480
G1 X203.490 Y226.806 E127.98171
G1 X203.819 Y225.627 E128.05805
G1 X203.976 Y224.267 E128.14342
G1 X203.996 Y224.107 E128.15348
G1 X203.839 Y220.057 E128.40624
G1 X203.636 Y217.845 E128.54477
G1 X202.741 Y210.402 E129.01228
G1 X202.642 Y209.542 E129.06626
G1 X202.494 Y207.128 E129.21709
G1 X202.550 Y206.581 E129.25138
G1 X202.553 Y206.547 E129.25351
G1 X202.631 Y206.256 E129.27230
G1 X202.697 Y206.108 E129.28240
G1 X202.752 Y206.023 E129.28871
G1 X202.815 Y205.949 E129.29478
G1 X202.865 Y205.909 E129.29877
G1 X203.012 Y205.836 E129.30900
G1 X203.186 Y205.811 E129.31997
G1 X203.315 Y205.820 E129.32803
G1 X203.504 Y205.863 E129.34012
G1 X203.764 Y205.960 E129.35742
G1 X204.513 Y206.374 E129.41079
G1 X205.080 Y206.772 E129.45400
G1 X205.522 Y207.207 E129.49267
G1 X205.932 Y207.761 E129.53565
G1 X205.963 Y207.804 E129.53896
G1 X206.422 Y208.687 E129.60102
G1 X207.081 Y210.469 E129.71951
G1 X207.484 Y211.669 E129.79845
G1 X208.067 Y214.002 E129.94841
G1 X208.184 Y215.325 E130.03124
G1 X208.195 Y215.448 E130.03894
G1 X208.099 Y216.866 E130.12758
G1 X208.089 Y216.996 E130.13571
G1 X207.980 Y217.581 E130.17282
G1 X207.594 Y218.979 E130.26326
G1 X207.549 Y219.138 E130.27357
G1 X207.484 Y219.657 E130.30619
G1 X207.513 Y220.221 E130.34141
G1 X207.519 Y220.295 E130.34604
G1 X207.622 Y220.836 E130.38038
G1 X207.890 Y221.651 E130.43388
G1 X207.924 Y221.754 E130.44065
G1 X208.320 Y222.528 E130.49487
G1 X208.687 Y223.038 E130.53405
G1 X209.139 Y223.519 E130.57521
G1 X209.644 Y223.914 E130.61520
G1 X209.709 Y223.963 E130.62027
G1 X210.267 Y224.259 E130.65966
G1 X210.801 Y224.464 E130.69534
G1 X211.490 Y224.611 E130.73927
G1 X211.581 Y224.633 E130.74511
G1 X212.265 Y224.668 E130.78782
G1 X212.351 Y224.673 E130.79319
G1 X212.860 Y224.632 E130.82504
G1 X213.424 Y224.513 E130.86099
G1 X214.003 Y224.306 E130.89933
G1 X214.473 Y224.051 E130.93268
G1 X214.536 Y224.016 E130.93717
G1 X214.970 Y223.672 E130.97171
G1 X215.314 Y223.266 E131.00489
G1 X215.563 Y222.819 E131.03680
G1 X215.865 Y221.975 E131.09271
G1 X216.150 Y220.289 E131.19934
G1 X216.183 Y220.100 E131.21131
G1 X216.257 Y218.269 E131.32559
G1 X216.054 Y215.784 E131.48107
G1 X215.649 Y213.934 E131.59918
G1 X215.466 Y213.290 E131.64093
G1 X214.722 Y211.473 E131.76337
G1 X214.639 Y211.272 E131.77693
G1 X213.440 Y209.268 E131.92257
G1 X211.981 Y206.478 E132.11892
G1 X210.840 Y203.409 E132.32311
G1 X209.997 Y199.819 E132.55308
G1 X209.485 Y198.491 E132.64184
G1 X208.542 Y196.948 E132.75461
G1 X207.735 Y195.944 E132.83494
G1 X206.445 Y194.649 E132.94893
G1 X204.350 Y192.182 E133.15077
G1 X202.932 Y190.254 E133.30003
G1 X201.298 Y188.368 E133.45565
G1 X199.984 Y187.217 E133.56458
G1 X198.573 Y186.005 E133.68058
G1 X198.228 Y185.683 E133.71001
G1 X196.484 Y183.751 E133.87232
G1 X195.814 Y182.697 E133.95021
G1 X195.752 Y182.602 E133.95729
G1 X195.355 Y181.693 E134.01914
G1 X195.100 Y180.715 E134.08217
G1 X194.989 Y179.624 E134.15056
G1 X195.012 Y178.950 E134.19262
G1 X195.014 Y178.897 E134.19593
G1 X195.100 Y178.437 E134.22511
G1 X195.195 Y178.168 E134.24290
G1 X195.290 Y177.995 E134.25521
G1 X195.454 Y177.812 E134.27054
G1 X195.549 Y177.746 E134.27775
G1 X195.629 Y177.708 E134.28327
G1 X195.724 Y177.679 E134.28947
G1 X195.836 Y177.664 E134.29651
G1 X195.981 Y177.667 E134.30556
G1 X196.407 Y177.768 E134.33286
G1 X197.967 Y178.512 E134.44064
G1 X201.062 Y180.096 E134.65747
G1 X203.201 Y181.049 E134.80350
G1 X203.407 Y181.139 E134.81752
G1 X204.185 Y181.347 E134.86774
G1 X204.277 Y181.372 E134.87369
G1 X205.850 Y181.605 E134.97286
G1 X206.031 Y181.633 E134.98428
G1 X207.406 Y181.626 E135.07003
G1 X208.312 Y181.474 E135.12732
G1 X208.423 Y181.455 E135.13434
G1 X209.101 Y181.232 E135.17885
G1 X209.607 Y180.980 E135.21410
G1 X209.675 Y180.946 E135.21884
G1 X210.127 Y180.629 E135.25327
G1 X210.561 Y180.217 E135.29059
G1 X210.615 Y180.163 E135.29535
G1 X210.939 Y179.733 E135.32893
G1 X211.215 Y179.222 E135.36515
G1 X211.457 Y178.566 E135.40875
G1 X211.611 Y177.802 E135.45736
G1 X211.629 Y177.709 E135.46327
G1 X211.654 Y176.877 E135.51517
G1 X211.658 Y176.771 E135.52179
G1 X211.508 Y175.633 E135.59337
G1 X211.172 Y174.519 E135.66594
G1 X210.719 Y173.576 E135.73118
G1 X210.274 Y172.916 E135.78082
G1 X210.217 Y172.834 E135.78705
G1 X209.648 Y172.219 E135.83930
G1 X209.315 Y171.949 E135.86603
G1 X208.807 Y171.665 E135.90233
G1 X208.739 Y171.626 E135.90722
G1 X206.724 Y170.909 E136.04059
G1 X206.039 Y170.696 E136.08533
G1 X202.233 Y169.816 E136.32895
G1 X198.603 Y169.184 E136.55873
G1 X195.016 Y168.448 E136.78708
G1 X194.695 Y168.381 E136.80753
G1 X191.706 Y167.416 E137.00341
G1 X189.641 Y166.544 E137.14320
G1 X187.667 Y165.476 E137.28317
G1 X186.598 Y164.665 E137.36685
G1 X185.735 Y163.785 E137.44371
G1 X185.445 Y163.421 E137.47273
G1 X184.734 Y162.304 E137.55531
G1 X184.158 Y160.981 E137.64529
G1 X183.731 Y159.363 E137.74965
G1 X183.531 Y157.545 E137.86371
G1 X183.511 Y157.373 E137.87451
G1 X183.568 Y155.152 E138.01306
G1 X183.575 Y154.931 E138.02685
G1 X183.893 Y152.508 E138.17925
G1 X184.382 Y150.397 E138.31439
G1 X184.429 Y150.197 E138.32720
G1 X185.138 Y148.473 E138.44345
G1 X186.119 Y146.640 E138.57310
G1 X186.721 Y145.176 E138.67182
G1 X186.792 Y145.004 E138.68342
G1 X187.314 Y142.621 E138.83556
G1 X187.470 Y140.703 E138.95556
G1 X187.360 Y138.975 E139.06354
G1 X187.347 Y138.781 E139.07567
G1 X186.887 Y136.334 E139.23094
G1 X186.703 Y134.393 E139.35253
G1 X186.934 Y131.606 E139.52693
G1 X187.131 Y130.562 E139.59319
G1 X188.094 Y126.957 E139.82589
G1 X188.741 Y123.415 E140.05043
G1 X188.924 Y121.430 E140.17475
G1 X189.025 Y117.504 E140.41967
G1 X188.711 Y114.539 E140.60561
G1 X187.945 Y111.458 E140.80359
G1 X186.778 Y108.408 E141.00725
G1 X184.835 Y104.342 E141.28828
G1 X183.194 Y100.836 E141.52969
G1 X181.456 Y96.482 E141.82205
G1 X180.477 Y93.196 E142.03587
G1 X179.716 Y90.882 E142.18779
G1 X179.640 Y90.656 E142.20265
G1 X178.163 Y87.946 E142.39513
G1 X177.416 Y86.839 E142.47841
G1 X174.766 Y83.492 E142.74464
G1 X171.856 Y80.538 E143.00324
G1 X168.798 Y78.035 E143.24968
G1 X165.424 Y75.884 E143.49921
G1 X162.298 Y74.422 E143.71443
G1 X159.199 Y73.463 E143.91673
G1 X156.150 Y72.994 E144.10911
G1 X153.047 Y73.012 E144.30262
G1 X150.015 Y73.529 E144.49444
G1 X147.114 Y74.499 E144.68520
G1 X144.224 Y75.938 E144.88653
G1 X141.448 Y77.748 E145.09320
G1 X138.930 Y79.701 E145.29193
G1 X138.185 Y80.311 E145.35197
G1 X136.226 Y82.478 E145.53415
G1 X127.805 Y92.857 E146.36766
G1 X123.332 Y98.425 E146.81306
G1 F2100 E146.41306
G0 F12000 X122.016 Y99.823
G1 F2100 E146.81306
G1 F2220 X125.186 Y95.689 E147.13794
G1 X136.035 Y82.325 E148.21141
G1 X137.965 Y80.179 E148.39140
G1 X138.519 Y79.710 E148.43667
G1 X142.206 Y76.918 E148.72509
G1 X145.283 Y75.081 E148.94857
G1 X148.180 Y73.830 E149.14536
G1 X151.152 Y73.028 E149.33733
G1 X153.024 Y72.769 E149.45519
G1 X156.166 Y72.750 E149.65114
G1 X159.223 Y73.217 E149.84399
G1 X162.299 Y74.161 E150.04465
G1 X165.406 Y75.597 E150.25810
G1 X168.326 Y77.399 E150.47209
G1 X171.411 Y79.814 E150.71642
G1 X174.350 Y82.669 E150.97194
G1 X177.012 Y85.861 E151.23114
G1 X178.362 Y87.803 E151.37864
G1 X179.871 Y90.576 E151.57552
G1 X180.617 Y92.810 E151.72240
G1 X181.686 Y96.400 E151.95599
G1 X183.444 Y100.798 E152.25137
G1 X184.851 Y103.811 E152.45874
G1 X186.990 Y108.285 E152.76800
G1 X188.165 Y111.343 E152.97230
G1 X188.935 Y114.407 E153.16932
G1 X189.270 Y117.499 E153.36327
G1 X189.190 Y121.197 E153.59395
G1 X189.016 Y123.163 E153.71703
G1 X188.533 Y125.916 E153.89134
G1 X188.327 Y127.038 E153.96248
G1 X187.391 Y130.503 E154.18631
G1 X187.173 Y131.653 E154.25930
G1 X186.946 Y134.385 E154.43027
G1 X187.117 Y136.233 E154.54601
G1 X187.645 Y139.195 E154.73364
G1 X187.690 Y141.322 E154.86631
G1 X187.556 Y142.651 E154.94961
G1 X187.022 Y145.086 E155.10507
G1 X186.329 Y146.766 E155.21841
G1 X185.072 Y149.183 E155.38830
G1 X184.532 Y150.701 E155.48878
G1 X184.136 Y152.537 E155.60591
G1 X183.764 Y155.749 E155.80756
G1 X183.834 Y158.392 E155.97244
G1 X184.156 Y160.142 E156.08341
G1 X184.718 Y161.721 E156.18793
G1 X185.358 Y162.875 E156.27022
G1 X185.925 Y163.632 E156.32921
G1 X186.797 Y164.517 E156.40669
G1 X187.852 Y165.307 E156.48888
G1 X189.823 Y166.358 E156.62818
G1 X191.817 Y167.198 E156.76312
G1 X194.745 Y168.141 E156.95495
G1 X195.811 Y168.379 E157.02307
G1 X197.649 Y168.754 E157.14005
G1 X198.271 Y168.877 E157.17959
G1 X202.265 Y169.572 E157.43241
G1 X204.187 Y169.964 E157.55474
G1 X206.588 Y170.600 E157.70964
G1 X208.844 Y171.406 E157.85904
G1 X209.457 Y171.753 E157.90297
G1 X209.812 Y172.038 E157.93136
G1 X210.407 Y172.680 E157.98594
G1 X210.927 Y173.448 E158.04378
G1 X211.398 Y174.426 E158.11148
G1 X211.746 Y175.577 E158.18647
G1 X211.901 Y176.765 E158.26118
G1 X211.881 Y177.440 E158.30330
G1 X211.871 Y177.736 E158.32177
G1 X211.714 Y178.573 E158.37487
G1 X211.468 Y179.267 E158.42079
G1 X211.139 Y179.872 E158.46374
G1 X210.802 Y180.320 E158.49870
G1 X210.324 Y180.786 E158.54033
G1 X209.789 Y181.162 E158.58111
G1 X209.196 Y181.457 E158.62241
G1 X208.479 Y181.692 E158.66947
G1 X207.424 Y181.868 E158.73617
G1 X206.010 Y181.876 E158.82435
G1 X204.218 Y181.609 E158.93734
G1 X203.330 Y181.371 E158.99467
G1 X201.276 Y180.481 E159.13427
G1 X197.850 Y178.728 E159.37427
G1 X196.560 Y178.088 E159.46408
G1 X196.173 Y177.953 E159.48964
G1 X195.901 Y177.905 E159.50686
G1 X195.727 Y177.919 E159.51775
G1 X195.571 Y178.028 E159.52962
G1 X195.426 Y178.254 E159.54636
G1 X195.341 Y178.479 E159.56136
G1 X195.265 Y178.856 E159.58535
G1 X195.231 Y179.562 E159.62943
G1 X195.296 Y180.270 E159.67376
G1 X195.339 Y180.674 E159.69910
G1 X195.587 Y181.619 E159.76003
G1 X195.975 Y182.500 E159.82006
G1 X196.695 Y183.625 E159.90336
G1 X198.434 Y185.543 E160.06482
G1 X199.549 Y186.521 E160.15731
G1 X199.974 Y186.885 E160.19221
G1 X200.391 Y187.215 E160.22537
G1 X201.195 Y187.937 E160.29276
G1 X201.465 Y188.190 E160.31583
G1 X203.142 Y190.124 E160.47547
G1 X204.558 Y192.050 E160.62455
G1 X206.639 Y194.495 E160.82478
G1 X208.418 Y196.375 E160.98619
G1 X208.737 Y196.800 E161.01933
G1 X209.707 Y198.388 E161.13538
G1 X210.226 Y199.732 E161.22522
G1 X211.022 Y203.153 E161.44427
G1 X211.570 Y204.835 E161.55459
G1 X212.209 Y206.390 E161.65943
G1 X213.672 Y209.177 E161.85573
G1 X214.940 Y211.328 E162.01144
G1 X215.838 Y213.663 E162.16745
G1 X216.306 Y215.820 E162.30510
G1 X216.485 Y217.682 E162.42176
G1 X216.491 Y219.147 E162.51312
G1 X216.429 Y220.103 E162.57286
G1 X216.137 Y221.899 E162.68634
G1 X215.828 Y222.823 E162.74710
G1 X215.535 Y223.373 E162.78596
G1 X215.294 Y223.688 E162.81069
G1 X215.140 Y223.847 E162.82450
G1 X214.670 Y224.220 E162.86192
G1 X214.154 Y224.509 E162.89880
G1 X213.571 Y224.728 E162.93764
G1 X212.881 Y224.875 E162.98163
G1 X212.374 Y224.916 E163.01335
G1 X211.553 Y224.875 E163.06462
G1 X210.735 Y224.700 E163.11679
G1 X210.236 Y224.518 E163.14991
G1 X209.569 Y224.162 E163.19706
G1 X209.020 Y223.745 E163.24005
G1 X208.531 Y223.239 E163.28394
G1 X208.113 Y222.656 E163.32867
G1 X207.697 Y221.844 E163.38557
G1 X207.383 Y220.881 E163.44874
G1 X207.278 Y220.330 E163.48372
G1 X207.242 Y219.635 E163.52712
G1 X207.302 Y219.132 E163.55871
G1 X207.678 Y217.800 E163.64502
G1 X207.848 Y216.958 E163.69859
G1 X207.952 Y215.644 E163.78079
G1 X207.855 Y214.224 E163.86955
G1 X207.389 Y212.187 E163.99987
G1 X207.066 Y211.185 E164.06552
G1 X206.425 Y209.399 E164.18386
G1 X206.194 Y208.777 E164.22524
G1 X205.755 Y207.930 E164.28473
G1 X205.364 Y207.391 E164.32626
G1 X204.960 Y206.986 E164.36193
G1 X204.474 Y206.633 E164.39939
G1 X203.643 Y206.172 E164.45865
G1 X203.291 Y206.062 E164.48165
G1 X203.037 Y206.056 E164.49750
G1 X202.920 Y206.204 E164.50926
G1 X202.813 Y206.493 E164.52848
G1 X202.750 Y206.926 E164.55577
G1 X202.762 Y208.190 E164.63460
G1 X203.506 Y214.466 E165.02873
G1 X204.083 Y220.038 E165.37807
G1 X204.251 Y223.763 E165.61061
G1 X204.090 Y225.502 E165.71952
G1 X203.741 Y226.825 E165.80485
G1 X203.267 Y227.900 E165.87812
G1 X202.423 Y229.286 E165.97932
G1 X201.585 Y230.281 E166.06044
G1 X201.021 Y230.797 E166.10812
G1 X200.165 Y231.399 E166.17338
G1 X199.624 Y231.683 E166.21148
G1 X198.736 Y232.014 E166.27058
G1 X198.180 Y232.143 E166.30618
G1 X197.127 Y232.249 E166.37218
G1 X196.042 Y232.186 E166.43995
G1 X194.913 Y231.939 E166.51203
G1 X193.905 Y231.544 E166.57954
G1 X193.084 Y231.064 E166.63885
G1 X192.430 Y230.529 E166.69154
G1 X191.914 Y229.952 E166.73982
G1 X191.571 Y229.429 E166.77882
G1 X191.410 Y229.089 E166.80228
G1 X191.302 Y228.714 E166.82662
G1 X191.238 Y228.221 E166.85762
G1 X191.267 Y227.068 E166.92955
G1 X191.965 Y222.840 E167.19679
G1 X192.090 Y222.248 E167.23452
G1 X193.248 Y217.446 E167.54257
G1 X193.501 Y216.271 E167.61753
G1 X193.599 Y214.938 E167.70088
G1 X193.494 Y213.275 E167.80480
G1 X193.080 Y210.892 E167.95563
G1 X193.028 Y209.239 E168.05877
G1 X193.253 Y206.517 E168.22910
G1 X193.377 Y205.189 E168.31228
G1 X193.302 Y204.237 E168.37183
G1 X192.883 Y202.488 E168.48399
G1 X192.534 Y201.644 E168.54095
G1 X192.181 Y201.059 E168.58356
G1 X191.803 Y200.604 E168.62044
G1 X191.395 Y200.246 E168.65430
G1 X191.005 Y199.994 E168.68325
G1 X190.428 Y199.716 E168.72319
G1 X189.827 Y199.521 E168.76260
G1 X189.408 Y199.449 E168.78911
G1 X189.084 Y199.441 E168.80932
G1 X188.825 Y199.473 E168.82560
G1 X188.619 Y199.533 E168.83898
G1 X188.446 Y199.612 E168.85084
G1 X188.293 Y199.715 E168.86234
G1 X188.173 Y199.830 E168.87271
G1 X188.073 Y199.963 E168.88308
G1 X187.983 Y200.129 E168.89486
G1 X187.887 Y200.408 E168.91326
G1 X187.826 Y200.697 E168.93168
G1 X187.734 Y202.027 E169.01482
G1 X187.713 Y202.742 E169.05943
G1 X187.615 Y203.974 E169.13650
G1 X187.358 Y205.230 E169.21645
G1 X186.993 Y206.212 E169.28179
G1 X186.530 Y207.047 E169.34133
G1 X185.828 Y207.956 E169.41295
G1 X184.939 Y208.799 E169.48936
G1 X183.813 Y209.567 E169.57435
G1 X182.686 Y210.083 E169.65165
G1 X181.739 Y210.342 E169.71288
G1 X180.893 Y210.437 E169.76597
G1 X180.107 Y210.403 E169.81503
G1 X179.533 Y210.295 E169.85146
G1 X178.937 Y210.098 E169.89060
G1 X178.255 Y209.770 E169.93780
G1 X177.625 Y209.346 E169.98516
G1 X177.103 Y208.867 E170.02934
G1 X176.682 Y208.340 E170.07140
G1 X176.584 Y208.187 E170.08273
G1 X176.252 Y207.523 E170.12903
G1 X176.020 Y206.806 E170.17603
G1 X175.847 Y205.725 E170.24430
G1 X175.852 Y204.288 E170.33391
G1 X176.168 Y202.379 E170.45459
G1 X176.776 Y200.498 E170.57787
G1 X177.468 Y199.057 E170.67755
G1 X177.957 Y198.180 E170.74017
G1 X178.124 Y197.804 E170.76583
G1 X178.207 Y197.545 E170.78279
G1 X178.281 Y197.129 E170.80914
G1 X177.913 Y197.090 E170.83222
G1 X177.755 Y197.143 E170.84261
G1 X177.653 Y197.241 E170.85143
G1 X177.550 Y197.370 E170.86173
G1 X177.411 Y197.612 E170.87913
G1 X177.270 Y197.939 E170.90134
G1 X176.869 Y198.729 E170.95659
G1 X175.727 Y200.294 E171.07741
G1 X175.195 Y201.014 E171.13324
G1 X173.672 Y203.226 E171.30072
G1 X173.094 Y204.074 E171.36472
G1 X172.542 Y204.725 E171.41795
G1 X172.046 Y205.178 E171.45984
G1 X171.634 Y205.452 E171.49070
G1 X170.984 Y205.729 E171.53476
G1 X170.747 Y205.825 E171.55071
G1 X169.840 Y206.034 E171.60875
G1 X169.301 Y206.073 E171.64245
G1 X169.062 Y206.092 E171.65740
G1 X168.482 Y206.050 E171.69367
G1 X168.226 Y206.030 E171.70968
G1 X167.464 Y205.852 E171.75848
G1 X166.754 Y205.563 E171.80629
G1 X166.285 Y205.294 E171.84001
G1 X165.659 Y204.809 E171.88939
G1 X165.160 Y204.273 E171.93506
G1 X164.747 Y203.668 E171.98074
G1 X164.379 Y202.894 E172.03419
G1 X164.105 Y201.963 E172.09471
G1 X163.976 Y200.986 E172.15617
G1 X163.969 Y200.700 E172.17401
G1 X164.053 Y199.829 E172.22858
G1 X164.249 Y199.069 E172.27753
G1 X164.624 Y198.191 E172.33707
G1 X165.153 Y197.346 E172.39924
G1 X165.580 Y196.844 E172.44034
G1 X165.745 Y196.654 E172.45603
G1 X166.301 Y196.203 E172.50068
G1 X166.782 Y195.869 E172.53720
G1 X167.281 Y195.466 E172.57720
G1 X167.894 Y194.818 E172.63282
G1 X168.224 Y194.302 E172.67102
G1 X169.186 Y192.083 E172.82185
G1 X169.914 Y190.593 E172.92527
G1 X171.062 Y188.729 E173.06179
G1 X171.406 Y188.222 E173.10000
G1 X172.128 Y187.037 E173.18653
G1 X172.388 Y186.596 E173.21846
G1 X173.453 Y184.587 E173.36026
G1 X174.441 Y182.215 E173.52051
G1 X175.201 Y179.893 E173.67287
G1 X175.341 Y179.252 E173.71379
G1 X175.376 Y178.846 E173.73920
G1 X175.363 Y178.604 E173.75431
G1 X175.261 Y178.094 E173.78675
G1 X175.073 Y177.610 E173.81913
G1 X174.804 Y177.157 E173.85199
G1 X174.273 Y176.514 E173.90399
G1 X174.064 Y176.306 E173.92238
G1 X172.751 Y175.255 E174.02726
G1 X171.299 Y174.324 E174.13483
G1 X166.134 Y171.511 E174.50161
G1 X163.511 Y170.188 E174.68481
G1 X162.536 Y169.805 E174.75014
G1 X161.926 Y169.663 E174.78920
G1 X160.802 Y169.593 E174.85943
G1 X159.840 Y169.700 E174.91979
G1 X158.741 Y170.008 E174.99097
G1 X156.455 Y170.906 E175.14414
G1 X154.099 Y171.588 E175.29709
G1 X153.152 Y171.750 E175.35701
G1 X151.143 Y171.876 E175.48254
G1 X149.734 Y171.719 E175.57096
G1 X147.623 Y171.311 E175.70504
G1 X146.225 Y171.288 E175.79223
G1 X145.624 Y171.345 E175.82988
G1 X145.345 Y171.373 E175.84737
G1 X142.942 Y171.812 E175.99971
G1 X140.731 Y172.576 E176.14559
G1 X139.041 Y173.508 E176.26595
G1 X137.810 Y174.480 E176.36376
G1 X137.106 Y175.199 E176.42652
G1 X136.279 Y176.282 E176.51150
G1 X135.542 Y177.618 E176.60665
G1 X134.997 Y179.097 E176.70495
G1 X134.641 Y180.772 E176.81174
G1 X134.505 Y183.105 E176.95748
G1 X134.768 Y185.747 E177.12305
G1 X135.119 Y187.257 E177.21973
G1 X135.468 Y188.102 E177.27675
G1 X137.224 Y191.070 E177.49181
G1 X138.861 Y193.594 E177.67942
G1 X142.533 Y199.063 E178.09023
G1 X143.238 Y200.378 E178.18327
G1 X143.520 Y201.178 E178.23617
G1 X143.665 Y201.946 E178.28491
G1 X143.680 Y202.550 E178.32259
G1 X143.687 Y202.813 E178.33900
G1 X143.540 Y203.933 E178.40945
G1 X143.198 Y205.075 E178.48379
G1 X142.682 Y206.132 E178.55714
G1 X142.138 Y206.901 E178.61588
G1 X141.563 Y207.494 E178.66740
G1 X140.956 Y207.950 E178.71474
G1 X140.574 Y208.167 E178.74214
G1 X139.893 Y208.440 E178.78789
G1 X139.164 Y208.607 E178.83453
G1 X138.374 Y208.663 E178.88392
G1 X137.496 Y208.596 E178.93884
G1 X136.468 Y208.369 E179.00449
G1 X135.110 Y207.843 E179.09531
G1 X133.799 Y207.088 E179.18966
G1 X132.463 Y206.027 E179.29605
G1 X131.466 Y204.947 E179.38771
G1 X131.204 Y204.595 E179.41508
G1 X130.704 Y203.745 E179.47658
G1 X129.902 Y201.686 E179.61438
G1 X128.894 Y199.607 E179.75847
G1 X127.844 Y197.714 E179.89347
G1 X127.047 Y196.513 E179.98335
G1 X126.642 Y196.034 E180.02247
G1 X126.329 Y196.127 E180.04284
G1 X126.237 Y196.866 E180.08928
G1 X126.228 Y196.980 E180.09641
G1 X126.237 Y197.699 E180.14125
G1 X126.353 Y198.333 E180.18145
G1 X126.529 Y198.837 E180.21474
G1 X126.613 Y199.071 E180.23024
G1 X127.431 Y200.766 E180.34761
G1 X127.712 Y201.502 E180.39674
G1 X127.970 Y202.602 E180.46720
G1 X128.072 Y203.833 E180.54424
G1 X127.975 Y205.231 E180.63163
G1 X127.684 Y206.454 E180.71003
G1 X127.353 Y207.242 E180.76333
G1 X127.009 Y207.807 E180.80458
G1 X126.680 Y208.198 E180.83645
G1 X126.332 Y208.500 E180.86518
G1 X125.940 Y208.740 E180.89385
G1 X125.556 Y208.891 E180.91958
G1 X125.164 Y208.976 E180.94459
G1 X124.747 Y209.004 E180.97066
G1 X124.158 Y208.952 E181.00753
G1 X123.421 Y208.764 E181.05496
G1 X122.413 Y208.329 E181.12343
G1 X121.134 Y207.530 E181.21748
G1 X120.662 Y207.165 E181.25469
G1 X119.779 Y206.300 E181.33177
G1 X119.007 Y205.283 E181.41140
G1 X118.256 Y203.884 E181.51042
G1 X117.467 Y201.666 E181.65723
G1 X117.106 Y200.585 E181.72831
G1 X116.815 Y200.034 E181.76716
G1 X116.532 Y200.093 E181.78519
G1 X116.308 Y200.227 E181.80147
G1 X116.007 Y200.491 E181.82644
G1 X115.509 Y201.087 E181.87487
G1 X114.719 Y202.400 E181.97044
G1 X113.738 Y204.817 E182.13311
G1 X113.288 Y206.506 E182.24211
G1 X112.931 Y209.228 E182.41332
G1 X113.001 Y211.760 E182.57128
G1 X113.572 Y214.903 E182.77050
G1 X115.118 Y220.312 E183.12132
G1 X115.438 Y222.213 E183.24154
G1 X115.453 Y223.491 E183.32125
G1 X115.300 Y224.533 E183.38693
G1 X114.990 Y225.523 E183.45162
G1 X114.563 Y226.398 E183.51234
G1 X113.894 Y227.375 E183.58618
G1 X113.019 Y228.307 E183.66591
G1 X111.936 Y229.144 E183.75127
G1 X111.062 Y229.635 E183.81378
G1 X110.059 Y230.022 E183.88083
G1 X109.150 Y230.220 E183.93884
G1 X108.329 Y230.268 E183.99013
G1 X108.022 Y230.252 E184.00930
G1 X107.474 Y230.160 E184.04396
G1 X107.242 Y230.121 E184.05863
G1 X106.724 Y229.945 E184.09275
G1 X106.502 Y229.869 E184.10738
G1 X105.755 Y229.482 E184.15984
G1 X104.979 Y228.925 E184.21941
G1 X103.998 Y227.963 E184.30510
G1 X102.930 Y226.510 E184.41756
G1 X101.868 Y224.446 E184.56231
G1 X101.315 Y222.868 E184.66659
G1 X101.194 Y222.206 E184.70856
G1 X101.074 Y219.740 E184.86252
G1 X101.344 Y215.850 E185.10570
G1 X102.045 Y211.329 E185.39101
G1 X101.882 Y210.616 E185.43662
G1 X101.512 Y210.591 E185.45975
G1 X100.780 Y212.526 E185.58877
G1 X99.976 Y214.736 E185.73543
G1 X98.153 Y219.301 E186.04197
G1 X97.106 Y221.289 E186.18209
G1 X96.513 Y222.100 E186.24475
G1 X95.989 Y222.634 E186.29140
G1 X95.519 Y222.983 E186.32791
G1 X95.067 Y223.220 E186.35974
G1 X94.581 Y223.384 E186.39173
G1 X94.500 Y223.403 E186.39692
G1 X93.960 Y223.473 E186.43087
G1 X93.427 Y223.458 E186.46413
G1 X92.872 Y223.358 E186.49929
G1 X92.264 Y223.157 E186.53923
G1 X91.471 Y222.755 E186.59467
G1 X90.599 Y222.121 E186.66191
G1 X89.822 Y221.336 E186.73079
G1 X89.306 Y220.598 E186.78695
G1 X88.932 Y219.818 E186.84089
G1 X88.675 Y218.966 E186.89639
G1 X88.510 Y217.762 E186.97218
G1 X88.552 Y216.009 E187.08153
G1 X88.956 Y213.346 E187.24950
G1 X89.620 Y210.413 E187.43704
G1 X90.540 Y207.727 E187.61410
G1 X92.078 Y204.603 E187.83125
G1 X94.061 Y201.755 E188.04767
G1 X96.243 Y199.444 E188.24588
G1 X96.526 Y199.189 E188.26964
G1 X98.562 Y197.643 E188.42907
G1 X100.433 Y196.642 E188.56140
G1 X101.480 Y195.986 E188.63845
G1 X102.954 Y194.659 E188.76213
G1 X104.450 Y192.845 E188.90877
G1 X106.075 Y190.089 E189.10829
G1 X107.988 Y187.159 E189.32651
G1 X109.187 Y185.582 E189.45005
G1 X112.038 Y182.092 E189.73109
G1 X112.988 Y181.120 E189.81585
G1 X113.669 Y180.576 E189.87021
G1 X114.104 Y180.315 E189.90184
G1 X115.835 Y179.335 E190.02589
G1 X116.766 Y178.617 E190.09921
G1 X117.528 Y177.839 E190.16713
G1 X117.907 Y177.343 E190.20605
G1 X118.227 Y176.813 E190.24466
G1 X118.086 Y176.560 E190.26273
G1 X117.537 Y176.554 E190.29697
G1 X116.804 Y176.647 E190.34304
G1 X115.998 Y176.858 E190.39500
G1 X115.705 Y176.941 E190.41399
G1 X114.995 Y177.275 E190.46293
G1 X113.522 Y178.173 E190.57051
G1 X113.041 Y178.439 E190.60479
G1 X111.152 Y179.249 E190.73296
G1 X109.058 Y179.770 E190.86753
G1 X107.926 Y179.920 E190.93875
G1 X105.616 Y180.056 E191.08305
G1 X104.882 Y179.970 E191.12914
G1 X104.218 Y179.789 E191.17206
G1 X103.546 Y179.482 E191.21813
G1 X102.962 Y179.087 E191.26210
G1 X102.419 Y178.612 E191.30709
G1 X101.840 Y177.945 E191.36217
G1 X101.415 Y177.270 E191.41192
G1 X101.180 Y176.744 E191.44785
G1 X100.979 Y176.053 E191.49273
G1 X100.920 Y175.697 E191.51523
G1 X100.900 Y175.166 E191.54837
G1 X100.890 Y174.933 E191.56291
G1 X100.978 Y174.198 E191.60908
G1 X101.186 Y173.459 E191.65695
G1 X101.525 Y172.704 E191.70856
G1 X101.874 Y172.138 E191.75003
G1 X102.485 Y171.391 E191.81022
G1 X103.219 Y170.735 E191.87161
G1 X103.610 Y170.468 E191.90113
G1 X104.284 Y170.122 E191.94838
G1 X104.896 Y169.927 E191.98844
G1 X106.909 Y169.630 E192.11533
G1 X107.436 Y169.547 E192.14860
G1 X108.390 Y169.238 E192.21114
G1 X108.819 Y169.096 E192.23932
G1 X109.855 Y168.583 E192.31142
G1 X110.663 Y168.064 E192.37130
G1 X111.296 Y167.676 E192.41761
G1 X112.581 Y167.080 E192.50594
G1 X113.096 Y166.847 E192.54119
G1 X114.584 Y166.454 E192.63717
G1 X115.677 Y166.306 E192.70596
G1 X117.777 Y166.142 E192.83732
G1 X119.067 Y165.904 E192.91912
G1 X120.198 Y165.494 E192.99415
G1 X121.336 Y164.846 E193.07581
G1 X122.651 Y163.837 E193.17918
G1 X123.573 Y162.879 E193.26210
G1 X124.296 Y161.834 E193.34134
G1 X124.706 Y160.970 E193.40098
G1 X124.866 Y160.485 E193.43283
G1 X124.999 Y159.818 E193.47525
G1 X125.026 Y159.090 E193.52068
G1 X124.890 Y157.993 E193.58961
G1 X124.295 Y155.946 E193.72255
G1 X122.285 Y151.165 E194.04599
G1 X121.849 Y150.191 E194.11254
G1 X120.167 Y146.686 E194.35499
G1 X119.654 Y145.536 E194.43351
G1 X119.168 Y144.048 E194.53113
G1 X118.622 Y141.195 E194.71228
G1 X118.424 Y137.422 E194.94790
G1 X118.400 Y136.806 E194.98635
G1 X117.975 Y131.148 E195.34019
G1 X117.550 Y127.730 E195.55499
G1 X117.439 Y125.118 E195.71803
G1 X117.601 Y119.742 E196.05344
G1 X118.152 Y114.452 E196.38512
G1 X119.146 Y107.175 E196.84315
G1 X119.908 Y104.104 E197.04048
G1 X120.125 Y103.488 E197.08120
G1 X121.325 Y100.915 E197.25826
G1 X122.016 Y99.823 E197.33885
;LAYER:2
M106 S30
G0 F12000 X122.016 Y99.823 Z0.800
;TYPE:WALL-OUTER
G1 F2700 X125.186 Y95.689 E197.66372
G1 X136.035 Y82.325 E198.73719
G1 X137.965 Y80.179 E198.91718
G1 X138.519 Y79.710 E198.96245
G1 X142.206 Y76.918 E199.25087
G1 X145.283 Y75.081 E199.47436
G1 X148.180 Y73.830 E199.67115
G1 X151.152 Y73.028 E199.86312
G1 X153.024 Y72.769 E199.98097
G1 X156.166 Y72.750 E200.17692
G1 X159.223 Y73.217 E200.36977
G1 X162.299 Y74.161 E200.57043
G1 X165.406 Y75.597 E200.78389
G1 X168.326 Y77.399 E200.99787
G1 X171.411 Y79.814 E201.24220
G1 X174.350 Y82.669 E201.49772
G1 X177.012 Y85.861 E201.75692
G1 X178.362 Y87.803 E201.90442
G1 X179.871 Y90.576 E202.10130
G1 X180.617 Y92.810 E202.24818
G1 X181.686 Y96.400 E202.48178
G1 X183.444 Y100.798 E202.77715
G1 X184.851 Y103.811 E202.98453
G1 X186.990 Y108.285 E203.29378
G1 X188.165 Y111.343 E203.49808
G1 X188.935 Y114.407 E203.69510
G1 X189.270 Y117.499 E203.88906
G1 X189.190 Y121.197 E204.11973
G1 X189.015 Y123.166 E204.24301
G1 X188.709 Y124.951 E204.35595
G1 X188.327 Y127.038 E204.48826
G1 X187.391 Y130.503 E204.71209
G1 X187.173 Y131.653 E204.78509
G1 X186.946 Y134.385 E204.95605
G1 X187.117 Y136.233 E205.07179
G1 X187.645 Y139.195 E205.25942
G1 X187.690 Y141.322 E205.39209
G1 X187.556 Y142.652 E205.47546
G1 X187.023 Y145.085 E205.63078
G1 X186.329 Y146.766 E205.74420
G1 X185.072 Y149.183 E205.91409
G1 X184.532 Y150.700 E206.01451
G1 X184.136 Y152.537 E206.13170
G1 X183.764 Y155.749 E206.33335
G1 X183.834 Y158.392 E206.49824
G1 X184.156 Y160.142 E206.60920
G1 X184.718 Y161.721 E206.71372
G1 X185.358 Y162.875 E206.79602
G1 X185.925 Y163.632 E206.85500
G1 X186.797 Y164.517 E206.93248
G1 X187.853 Y165.307 E207.01472
G1 X189.823 Y166.358 E207.15397
G1 X191.817 Y167.198 E207.28890
G1 X194.745 Y168.141 E207.48074
G1 X196.293 Y168.488 E207.57967
G1 X198.272 Y168.877 E207.70545
G1 X202.265 Y169.572 E207.95821
G1 X204.187 Y169.964 E208.08054
G1 X206.588 Y170.600 E208.23543
G1 X208.844 Y171.406 E208.38483
G1 X209.457 Y171.753 E208.42876
G1 X209.812 Y172.038 E208.45715
G1 X210.407 Y172.680 E208.51174
G1 X210.927 Y173.448 E208.56958
G1 X211.398 Y174.426 E208.63728
G1 X211.746 Y175.578 E208.71232
G1 X211.901 Y176.765 E208.78698
G1 X211.871 Y177.736 E208.84756
G1 X211.714 Y178.573 E208.90067
G1 X211.468 Y179.267 E208.94659
G1 X211.139 Y179.872 E208.98953
G1 X210.802 Y180.320 E209.02449
G1 X210.324 Y180.786 E209.06613
G1 X209.789 Y181.162 E209.10690
G1 X209.190 Y181.460 E209.14863
G1 X208.486 Y181.691 E209.19483
G1 X207.424 Y181.868 E209.26198
G1 X206.010 Y181.876 E209.35016
G1 X204.210 Y181.608 E209.46365
G1 X203.343 Y181.375 E209.51964
G1 X201.270 Y180.478 E209.66050
G1 X197.850 Y178.728 E209.90008
G1 X196.560 Y178.088 E209.98988
G1 X196.173 Y177.953 E210.01544
G1 X195.901 Y177.905 E210.03267
G1 X195.721 Y177.920 E210.04393
G1 X195.545 Y178.053 E210.05769
G1 X195.427 Y178.252 E210.07212
G1 X195.341 Y178.479 E210.08726
G1 X195.265 Y178.856 E210.11124
G1 X195.231 Y179.563 E210.15538
G1 X195.328 Y180.603 E210.22052
G1 X195.587 Y181.618 E210.28585
G1 X195.975 Y182.500 E210.34594
G1 X196.695 Y183.625 E210.42923
G1 X198.434 Y185.542 E210.59064
G1 X199.189 Y186.211 E210.65355
G1 X199.974 Y186.885 E210.71808
G1 X200.575 Y187.360 E210.76585
G1 X201.470 Y188.196 E210.84223
G1 X203.142 Y190.124 E211.00138
G1 X204.558 Y192.050 E211.15046
G1 X206.639 Y194.495 E211.35068
G1 X208.418 Y196.375 E211.51210
G1 X208.737 Y196.800 E211.54524
G1 X209.707 Y198.388 E211.66128
G1 X210.226 Y199.732 E211.75113
G1 X211.022 Y203.153 E211.97017
G1 X211.570 Y204.835 E212.08049
G1 X212.209 Y206.390 E212.18533
