;-- START GCODE --
;Sliced for Type A Machines Series 1
;Sliced at: Sun 10-11-2019 15:18:01
;Basic settings:
; Layer height: 0.3
; Walls: 1
; Fill: 8
; Print Speed: 60
; Support: 0
; Retraction Speed: 35
; Retraction Distance: 0.4
;Print time: 1 hour 47 minutes
;Filament used: 10.803m 32.0g
;Settings based on: Type A Machines Everyday PLA
G21        ;metric values
G90        ;absolute positioning
G28     ;move to endstops
G29		;allows for auto-levelling
G1 Z15.0 F12000 ;move the platform down 15mm
G1 X150 Y5 F12000 ;center
M140 S50 ;Prep Heat Bed
M109 S220 ;Heat To temp
M190 S50 ;Heat Bed to temp
G1 X150 Y5 Z0.3 ;move the platform to purge extrusion
G92 E0 ;zero the extruded length
G1 F200 X250 E30 ;extrude 30mm of feed stock
G92 E0 ;zero the extruded length again
G1 X150 Y150  Z25 F12000 ;recenter and begin
G1 F12000

;Layer count: 599
;LAYER:0
M107
G0 F12000 X134.250 Y109.250 Z0.200
;TYPE:SKIRT
G1 F1800 X170.750 Y109.250 E1.51749
G1 X170.750 Y195.750 E5.11375
G1 X134.250 Y195.750 E6.63124
G1 X134.250 Y109.250 E10.22749
G1 F2100 E9.82749
G0 F12000 X138.250 Y113.250
;TYPE:WALL-INNER
G1 F2100 E10.22749
G1 F1800 X166.750 Y113.250 E11.41238
G1 X166.750 Y191.750 E14.67603
G1 X138.250 Y191.750 E15.86093
G1 X138.250 Y113.250 E19.12458
G0 F12000 X137.750 Y112.750
;TYPE:WALL-OUTER
G1 F1800 X167.250 Y112.750 E20.35105
G1 X167.250 Y192.250 E23.65627
G1 X137.750 Y192.250 E24.88274
G1 X137.750 Y112.750 E28.18796
G0 F12000 X138.500 Y113.425
;TYPE:SKIN
G1 F1800 X138.500 Y191.575 E31.43706
G0 F12000 X139.000 Y191.575
G1 F1800 X139.000 Y113.425 E34.68616
G0 F12000 X139.500 Y113.425
G1 F1800 X139.500 Y191.575 E37.93526
G0 F12000 X140.000 Y191.575
G1 F1800 X140.000 Y113.425 E41.18436
G0 F12000 X140.500 Y113.425
G1 F1800 X140.500 Y191.575 E44.43346
G0 F12000 X141.000 Y191.575
G1 F1800 X141.000 Y113.425 E47.68256
G0 F12000 X141.500 Y113.425
G1 F1800 X141.500 Y191.575 E50.93166
G0 F12000 X142.000 Y191.575
G1 F1800 X142.000 Y113.425 E54.18076
G0 F12000 X142.500 Y113.425
G1 F1800 X142.500 Y191.575 E57.42986
G0 F12000 X143.000 Y191.575
G1 F1800 X143.000 Y113.425 E60.67896
G0 F12000 X143.500 Y113.425
G1 F1800 X143.500 Y191.575 E63.92806
G0 F12000 X144.000 Y191.575
G1 F1800 X144.000 Y113.425 E67.17716
G0 F12000 X144.500 Y113.425
G1 F1800 X144.500 Y191.575 E70.42626
G0 F12000 X145.000 Y191.575
G1 F1800 X145.000 Y113.425 E73.67536
G0 F12000 X145.500 Y113.425
G1 F1800 X145.500 Y191.575 E76.92446
G0 F12000 X146.000 Y191.575
G1 F1800 X146.000 Y113.425 E80.17356
G0 F12000 X146.500 Y113.425
G1 F1800 X146.500 Y191.575 E83.42265
G0 F12000 X147.000 Y191.575
G1 F1800 X147.000 Y113.425 E86.67175
G0 F12000 X147.500 Y113.425
G1 F1800 X147.500 Y191.575 E89.92085
G0 F12000 X148.000 Y191.575
G1 F1800 X148.000 Y113.425 E93.16995
G0 F12000 X148.500 Y113.425
G1 F1800 X148.500 Y191.575 E96.41905
G0 F12000 X149.000 Y191.575
G1 F1800 X149.000 Y113.425 E99.66815
G0 F12000 X149.500 Y113.425
G1 F1800 X149.500 Y191.575 E102.91725
G0 F12000 X150.000 Y191.575
G1 F1800 X150.000 Y113.425 E106.16635
G0 F12000 X150.500 Y113.425
G1 F1800 X150.500 Y191.575 E109.41545
G0 F12000 X151.000 Y191.575
G1 F1800 X151.000 Y113.425 E112.66455
G0 F12000 X151.500 Y113.425
G1 F1800 X151.500 Y191.575 E115.91365
G0 F12000 X152.000 Y191.575
G1 F1800 X152.000 Y113.425 E119.16275
G0 F12000 X152.500 Y113.425
G1 F1800 X152.500 Y191.575 E122.41185
G0 F12000 X153.000 Y191.575
G1 F1800 X153.000 Y113.425 E125.66095
G0 F12000 X153.500 Y113.425
G1 F1800 X153.500 Y191.575 E128.91005
G0 F12000 X154.000 Y191.575
G1 F1800 X154.000 Y113.425 E132.15915
G0 F12000 X154.500 Y113.425
G1 F1800 X154.500 Y191.575 E135.40825
G0 F12000 X155.000 Y191.575
G1 F1800 X155.000 Y113.425 E138.65735
G0 F12000 X155.500 Y113.425
G1 F1800 X155.500 Y191.575 E141.90644
G0 F12000 X156.000 Y191.575
G1 F1800 X156.000 Y113.425 E145.15554
G0 F12000 X156.500 Y113.425
G1 F1800 X156.500 Y191.575 E148.40464
G0 F12000 X157.000 Y191.575
G1 F1800 X157.000 Y113.425 E151.65374
G0 F12000 X157.500 Y113.425
G1 F1800 X157.500 Y191.575 E154.90284
G0 F12000 X158.000 Y191.575
G1 F1800 X158.000 Y113.425 E158.15194
G0 F12000 X158.500 Y113.425
G1 F1800 X158.500 Y191.575 E161.40104
G0 F12000 X159.000 Y191.575
G1 F1800 X159.000 Y113.425 E164.65014
G0 F12000 X159.500 Y113.425
G1 F1800 X159.500 Y191.575 E167.89924
G0 F12000 X160.000 Y191.575
G1 F1800 X160.000 Y113.425 E171.14834
G0 F12000 X160.500 Y113.425
G1 F1800 X160.500 Y191.575 E174.39744
G0 F12000 X161.000 Y191.575
G1 F1800 X161.000 Y113.425 E177.64654
G0 F12000 X161.500 Y113.425
G1 F1800 X161.500 Y191.575 E180.89564
G0 F12000 X162.000 Y191.575
G1 F1800 X162.000 Y113.425 E184.14474
G0 F12000 X162.500 Y113.425
G1 F1800 X162.500 Y191.575 E187.39384
G0 F12000 X163.000 Y191.575
G1 F1800 X163.000 Y113.425 E190.64294
G0 F12000 X163.500 Y113.425
G1 F1800 X163.500 Y191.575 E193.89204
G0 F12000 X164.000 Y191.575
G1 F1800 X164.000 Y113.425 E197.14114
G0 F12000 X164.500 Y113.425
G1 F1800 X164.500 Y191.575 E200.39023
G0 F12000 X165.000 Y191.575
G1 F1800 X165.000 Y113.425 E203.63933
G0 F12000 X165.500 Y113.425
G1 F1800 X165.500 Y191.575 E206.88843
G0 F12000 X166.000 Y191.575
G1 F1800 X166.000 Y113.425 E210.13753
G0 F12000 X166.500 Y113.425
G1 F1800 X166.500 Y191.575 E213.38663
;LAYER:1
M106 S15
G0 F12000 X166.750 Y191.750 Z0.500
;TYPE:WALL-INNER
G1 F2220 X138.250 Y191.750 E215.16397
G1 X138.250 Y113.250 E220.05945
G1 X166.750 Y113.250 E221.83679
G1 X166.750 Y191.750 E226.73226
G0 F12000 X167.250 Y192.250
;TYPE:WALL-OUTER
G1 F2220 X137.750 Y192.250 E228.57196
G1 X137.750 Y112.750 E233.52980
G1 X167.250 Y112.750 E235.36950
G1 X167.250 Y192.250 E240.32734
G0 F12000 X166.574 Y191.500
;TYPE:SKIN
G1 F2220 X138.424 Y191.500 E242.08285
G0 F12000 X138.424 Y191.000
G1 F2220 X166.574 Y191.000 E243.83837
G0 F12000 X166.574 Y190.500
G1 F2220 X138.424 Y190.500 E245.59388
G0 F12000 X138.424 Y190.000
G1 F2220 X166.574 Y190.000 E247.34939
G0 F12000 X166.574 Y189.500
G1 F2220 X138.424 Y189.500 E249.10490
G0 F12000 X138.424 Y189.000
G1 F2220 X166.574 Y189.000 E250.86041
G0 F12000 X166.574 Y188.500
G1 F2220 X138.424 Y188.500 E252.61592
G0 F12000 X138.424 Y188.000
G1 F2220 X166.574 Y188.000 E254.37143
G0 F12000 X166.574 Y187.500
G1 F2220 X138.424 Y187.500 E256.12695
G0 F12000 X138.424 Y187.000
G1 F2220 X166.574 Y187.000 E257.88246
G0 F12000 X166.574 Y186.500
G1 F2220 X138.424 Y186.500 E259.63797
G0 F12000 X138.424 Y186.000
G1 F2220 X166.574 Y186.000 E261.39348
G0 F12000 X166.574 Y185.500
G1 F2220 X138.424 Y185.500 E263.14899
G0 F12000 X138.424 Y185.000
G1 F2220 X166.574 Y185.000 E264.90450
G0 F12000 X166.574 Y184.500
G1 F2220 X138.424 Y184.500 E266.66001
G0 F12000 X138.424 Y184.000
G1 F2220 X166.574 Y184.000 E268.41553
G0 F12000 X166.574 Y183.500
G1 F2220 X138.424 Y183.500 E270.17104
G0 F12000 X138.424 Y183.000
G1 F2220 X166.574 Y183.000 E271.92655
G0 F12000 X166.574 Y182.500
G1 F2220 X138.424 Y182.500 E273.68206
G0 F12000 X138.424 Y182.000
G1 F2220 X166.574 Y182.000 E275.43757
G0 F12000 X166.574 Y181.500
G1 F2220 X138.424 Y181.500 E277.19308
G0 F12000 X138.424 Y181.000
G1 F2220 X166.574 Y181.000 E278.94860
G0 F12000 X166.574 Y180.500
G1 F2220 X138.424 Y180.500 E280.70411
G0 F12000 X138.424 Y180.000
G1 F2220 X166.574 Y180.000 E282.45962
G0 F12000 X166.574 Y179.500
G1 F2220 X138.424 Y179.500 E284.21513
G0 F12000 X138.424 Y179.000
G1 F2220 X166.574 Y179.000 E285.97064
G0 F12000 X166.574 Y178.500
G1 F2220 X138.424 Y178.500 E287.72615
G0 F12000 X138.424 Y178.000
G1 F2220 X166.574 Y178.000 E289.48166
G0 F12000 X166.574 Y177.500
G1 F2220 X138.424 Y177.500 E291.23718
G0 F12000 X138.424 Y177.000
G1 F2220 X166.574 Y177.000 E292.99269
G0 F12000 X166.574 Y176.500
G1 F2220 X138.424 Y176.500 E294.74820
G0 F12000 X138.424 Y176.000
G1 F2220 X166.574 Y176.000 E296.50371
G0 F12000 X166.574 Y175.500
G1 F2220 X138.424 Y175.500 E298.25922
G0 F12000 X138.424 Y175.000
G1 F2220 X166.574 Y175.000 E300.01473
G0 F12000 X166.574 Y174.500
G1 F2220 X138.424 Y174.500 E301.77024
G0 F12000 X138.424 Y174.000
G1 F2220 X166.574 Y174.000 E303.52576
G0 F12000 X166.574 Y173.500
G1 F2220 X138.424 Y173.500 E305.28127
G0 F12000 X138.424 Y173.000
G1 F2220 X166.574 Y173.000 E307.03678
G0 F12000 X166.574 Y172.500
G1 F2220 X138.424 Y172.500 E308.79229
G0 F12000 X138.424 Y172.000
G1 F2220 X166.574 Y172.000 E310.54780
G0 F12000 X166.574 Y171.500
G1 F2220 X138.424 Y171.500 E312.30331
G0 F12000 X138.424 Y171.000
G1 F2220 X166.574 Y171.000 E314.05883
G0 F12000 X166.574 Y170.500
G1 F2220 X138.424 Y170.500 E315.81434
G0 F12000 X138.424 Y170.000
G1 F2220 X166.574 Y170.000 E317.56985
G0 F12000 X166.574 Y169.500
G1 F2220 X138.424 Y169.500 E319.32536
G0 F12000 X138.424 Y169.000
G1 F2220 X166.574 Y169.000 E321.08087
G0 F12000 X166.574 Y168.500
G1 F2220 X138.424 Y168.500 E322.83638
G0 F12000 X138.424 Y168.000
G1 F2220 X166.574 Y168.000 E324.59189
G0 F12000 X166.574 Y167.500
G1 F2220 X138.424 Y167.500 E326.34741
G0 F12000 X138.424 Y167.000
G1 F2220 X166.574 Y167.000 E328.10292
G0 F12000 X166.574 Y166.500
G1 F2220 X138.424 Y166.500 E329.85843
G0 F12000 X138.424 Y166.000
G1 F2220 X166.574 Y166.000 E331.61394
G0 F12000 X166.574 Y165.500
G1 F2220 X138.424 Y165.500 E333.36945
G0 F12000 X138.424 Y165.000
G1 F2220 X166.574 Y165.000 E335.12496
G0 F12000 X166.574 Y164.500
G1 F2220 X138.424 Y164.500 E336.88047
G0 F12000 X138.424 Y164.000
G1 F2220 X166.574 Y164.000 E338.63599
G0 F12000 X166.574 Y163.500
G1 F2220 X138.424 Y163.500 E340.39150
G0 F12000 X138.424 Y163.000
G1 F2220 X166.574 Y163.000 E342.14701
G0 F12000 X166.574 Y162.500
G1 F2220 X138.424 Y162.500 E343.90252
G0 F12000 X138.424 Y162.000
G1 F2220 X166.574 Y162.000 E345.65803
G0 F12000 X166.574 Y161.500
G1 F2220 X138.424 Y161.500 E347.41354
G0 F12000 X138.424 Y161.000
G1 F2220 X166.574 Y161.000 E349.16906
G0 F12000 X166.574 Y160.500
G1 F2220 X138.424 Y160.500 E350.92457
G0 F12000 X138.424 Y160.000
G1 F2220 X166.574 Y160.000 E352.68008
G0 F12000 X166.574 Y159.500
G1 F2220 X138.424 Y159.500 E354.43559
G0 F12000 X138.424 Y159.000
G1 F2220 X166.574 Y159.000 E356.19110
G0 F12000 X166.574 Y158.500
G1 F2220 X138.424 Y158.500 E357.94661
G0 F12000 X138.424 Y158.000
G1 F2220 X166.574 Y158.000 E359.70212
G0 F12000 X166.574 Y157.500
G1 F2220 X138.424 Y157.500 E361.45764
G0 F12000 X138.424 Y157.000
G1 F2220 X166.574 Y157.000 E363.21315
G0 F12000 X166.574 Y156.500
G1 F2220 X138.424 Y156.500 E364.96866
G0 F12000 X138.424 Y156.000
G1 F2220 X166.574 Y156.000 E366.72417
G0 F12000 X166.574 Y155.500
G1 F2220 X138.424 Y155.500 E368.47968
G0 F12000 X138.424 Y155.000
G1 F2220 X166.574 Y155.000 E370.23519
G0 F12000 X166.574 Y154.500
G1 F2220 X138.424 Y154.500 E371.99070
G0 F12000 X138.424 Y154.000
G1 F2220 X166.574 Y154.000 E373.74622
G0 F12000 X166.574 Y153.500
G1 F2220 X138.424 Y153.500 E375.50173
G0 F12000 X138.424 Y153.000
G1 F2220 X166.574 Y153.000 E377.25724
G0 F12000 X166.574 Y152.500
G1 F2220 X138.424 Y152.500 E379.01275
G0 F12000 X138.424 Y152.000
G1 F2220 X166.574 Y152.000 E380.76826
G0 F12000 X166.574 Y151.500
G1 F2220 X138.424 Y151.500 E382.52377
G0 F12000 X138.424 Y151.000
G1 F2220 X166.574 Y151.000 E384.27929
G0 F12000 X166.574 Y150.500
G1 F2220 X138.424 Y150.500 E386.03480
G0 F12000 X138.424 Y150.000
G1 F2220 X166.574 Y150.000 E387.79031
G0 F12000 X166.574 Y149.500
G1 F2220 X138.424 Y149.500 E389.54582
G0 F12000 X138.424 Y149.000
G1 F2220 X166.574 Y149.000 E391.30133
G0 F12000 X166.574 Y148.500
G1 F2220 X138.424 Y148.500 E393.05684
G0 F12000 X138.424 Y148.000
G1 F2220 X166.574 Y148.000 E394.81235
G0 F12000 X166.574 Y147.500
G1 F2220 X138.424 Y147.500 E396.56787
G0 F12000 X138.424 Y147.000
G1 F2220 X166.574 Y147.000 E398.32338
G0 F12000 X166.574 Y146.500
G1 F2220 X138.424 Y146.500 E400.07889
G0 F12000 X138.424 Y146.000
G1 F2220 X166.574 Y146.000 E401.83440
G0 F12000 X166.574 Y145.500
G1 F2220 X138.424 Y145.500 E403.58991
G0 F12000 X138.424 Y145.000
G1 F2220 X166.574 Y145.000 E405.34542
G0 F12000 X166.574 Y144.500
G1 F2220 X138.424 Y144.500 E407.10093
G0 F12000 X138.424 Y144.000
G1 F2220 X166.574 Y144.000 E408.85645
G0 F12000 X166.574 Y143.500
G1 F2220 X138.424 Y143.500 E410.61196
G0 F12000 X138.424 Y143.000
G1 F2220 X166.574 Y143.000 E412.36747
G0 F12000 X166.574 Y142.500
G1 F2220 X138.424 Y142.500 E414.12298
G0 F12000 X138.424 Y142.000
G1 F2220 X166.574 Y142.000 E415.87849
G0 F12000 X166.574 Y141.500
G1 F2220 X138.424 Y141.500 E417.63400
G0 F12000 X138.424 Y141.000
G1 F2220 X166.574 Y141.000 E419.38952
G0 F12000 X166.574 Y140.500
G1 F2220 X138.424 Y140.500 E421.14503
G0 F12000 X138.424 Y140.000
G1 F2220 X166.574 Y140.000 E422.90054
G0 F12000 X166.574 Y139.500
G1 F2220 X138.424 Y139.500 E424.65605
G0 F12000 X138.424 Y139.000
G1 F2220 X166.574 Y139.000 E426.41156
G0 F12000 X166.574 Y138.500
G1 F2220 X138.424 Y138.500 E428.16707
G0 F12000 X138.424 Y138.000
G1 F2220 X166.574 Y138.000 E429.92258
G0 F12000 X166.574 Y137.500
G1 F2220 X138.424 Y137.500 E431.67810
G0 F12000 X138.424 Y137.000
G1 F2220 X166.574 Y137.000 E433.43361
G0 F12000 X166.574 Y136.500
G1 F2220 X138.424 Y136.500 E435.18912
G0 F12000 X138.424 Y136.000
G1 F2220 X166.574 Y136.000 E436.94463
G0 F12000 X166.574 Y135.500
G1 F2220 X138.424 Y135.500 E438.70014
G0 F12000 X138.424 Y135.000
G1 F2220 X166.574 Y135.000 E440.45565
G0 F12000 X166.574 Y134.500
G1 F2220 X138.424 Y134.500 E442.21116
G0 F12000 X138.424 Y134.000
G1 F2220 X166.574 Y134.000 E443.96668
G0 F12000 X166.574 Y133.500
G1 F2220 X138.424 Y133.500 E445.72219
G0 F12000 X138.424 Y133.000
G1 F2220 X166.574 Y133.000 E447.47770
G0 F12000 X166.574 Y132.500
G1 F2220 X138.424 Y132.500 E449.23321
G0 F12000 X138.424 Y132.000
G1 F2220 X166.574 Y132.000 E450.98872
G0 F12000 X166.574 Y131.500
G1 F2220 X138.424 Y131.500 E452.74423
G0 F12000 X138.424 Y131.000
G1 F2220 X166.574 Y131.000 E454.49975
G0 F12000 X166.574 Y130.500
G1 F2220 X138.424 Y130.500 E456.25526
G0 F12000 X138.424 Y130.000
G1 F2220 X166.574 Y130.000 E458.01077
G0 F12000 X166.574 Y129.500
G1 F2220 X138.424 Y129.500 E459.76628
G0 F12000 X138.424 Y129.000
G1 F2220 X166.574 Y129.000 E461.52179
G0 F12000 X166.574 Y128.500
G1 F2220 X138.424 Y128.500 E463.27730
G0 F12000 X138.424 Y128.000
G1 F2220 X166.574 Y128.000 E465.03281
G0 F12000 X166.574 Y127.500
G1 F2220 X138.424 Y127.500 E466.78833
G0 F12000 X138.424 Y127.000
G1 F2220 X166.574 Y127.000 E468.54384
G0 F12000 X166.574 Y126.500
G1 F2220 X138.424 Y126.500 E470.29935
G0 F12000 X138.424 Y126.000
G1 F2220 X166.574 Y126.000 E472.05486
G0 F12000 X166.574 Y125.500
G1 F2220 X138.424 Y125.500 E473.81037
G0 F12000 X138.424 Y125.000
G1 F2220 X166.574 Y125.000 E475.56588
G0 F12000 X166.574 Y124.500
G1 F2220 X138.424 Y124.500 E477.32139
G0 F12000 X138.424 Y124.000
G1 F2220 X166.574 Y124.000 E479.07691
G0 F12000 X166.574 Y123.500
G1 F2220 X138.424 Y123.500 E480.83242
G0 F12000 X138.424 Y123.000
G1 F2220 X166.574 Y123.000 E482.58793
G0 F12000 X166.574 Y122.500
G1 F2220 X138.424 Y122.500 E484.34344
G0 F12000 X138.424 Y122.000
G1 F2220 X166.574 Y122.000 E486.09895
G0 F12000 X166.574 Y121.500
G1 F2220 X138.424 Y121.500 E487.85446
G0 F12000 X138.424 Y121.000
G1 F2220 X166.574 Y121.000 E489.60998
G0 F12000 X166.574 Y120.500
G1 F2220 X138.424 Y120.500 E491.36549
G0 F12000 X138.424 Y120.000
G1 F2220 X166.574 Y120.000 E493.12100
G0 F12000 X166.574 Y119.500
G1 F2220 X138.424 Y119.500 E494.87651
G0 F12000 X138.424 Y119.000
G1 F2220 X166.574 Y119.000 E496.63202
G0 F12000 X166.574 Y118.500
G1 F2220 X138.424 Y118.500 E498.38753
G0 F12000 X138.424 Y118.000
G1 F2220 X166.574 Y118.000 E500.14304
G0 F12000 X166.574 Y117.500
G1 F2220 X138.424 Y117.500 E501.89856
G0 F12000 X138.424 Y117.000
G1 F2220 X166.574 Y117.000 E503.65407
G0 F12000 X166.574 Y116.500
G1 F2220 X138.424 Y116.500 E505.40958
G0 F12000 X138.424 Y116.000
G1 F2220 X166.574 Y116.000 E507.16509
G0 F12000 X166.574 Y115.500
G1 F2220 X138.424 Y115.500 E508.92060
G0 F12000 X138.424 Y115.000
G1 F2220 X166.574 Y115.000 E510.67611
G0 F12000 X166.574 Y114.500
G1 F2220 X138.424 Y114.500 E512.43163
G0 F12000 X138.424 Y114.000
G1 F2220 X166.574 Y114.000 E514.18714
G0 F12000 X166.574 Y113.500
G1 F2220 X138.424 Y113.500 E515.94265
;LAYER:2
M106 S30
G0 F12000 X138.250 Y113.250 Z0.800
;TYPE:WALL-INNER
G1 F2700 X166.750 Y113.250 E517.71999
G1 X166.750 Y191.750 E522.61546
G1 X138.250 Y191.750 E524.39280
G1 X138.250 Y113.250 E529.28828
G0 F12000 X137.750 Y112.750
;TYPE:WALL-OUTER
G1 F2700 X167.250 Y112.750 E531.12798
G1 X167.250 Y192.250 E536.08582
G1 X137.750 Y192.250 E537.92552
G1 X137.750 Y112.750 E542.88336
G0 F12000 X138.500 Y113.425
;TYPE:SKIN
G1 F2700 X138.500 Y191.575 E547.75701
G0 F12000 X139.000 Y191.575
G1 F2700 X139.000 Y113.425 E552.63066
G0 F12000 X139.500 Y113.425
G1 F2700 X139.500 Y191.575 E557.50430
G0 F12000 X140.000 Y191.575
G1 F2700 X140.000 Y113.425 E562.37795
G0 F12000 X140.500 Y113.425
G1 F2700 X140.500 Y191.575 E567.25160
G0 F12000 X141.000 Y191.575
G1 F2700 X141.000 Y113.425 E572.12525
G0 F12000 X141.500 Y113.425
G1 F2700 X141.500 Y191.575 E576.99890
G0 F12000 X142.000 Y191.575
G1 F2700 X142.000 Y113.425 E581.87255
G0 F12000 X142.500 Y113.425
G1 F2700 X142.500 Y191.575 E586.74620
G0 F12000 X143.000 Y191.575
G1 F2700 X143.000 Y113.425 E591.61985
G0 F12000 X143.500 Y113.425
G1 F2700 X143.500 Y191.575 E596.49350
G0 F12000 X144.000 Y191.575
G1 F2700 X144.000 Y113.425 E601.36715
G0 F12000 X144.500 Y113.425
G1 F2700 X144.500 Y191.575 E606.24080
G0 F12000 X145.000 Y191.575
G1 F2700 X145.000 Y113.425 E611.11445
G0 F12000 X145.500 Y113.425
G1 F2700 X145.500 Y191.575 E615.98809
G0 F12000 X146.000 Y191.575
G1 F2700 X146.000 Y113.425 E620.86174
G0 F12000 X146.500 Y113.425
G1 F2700 X146.500 Y191.575 E625.73539
G0 F12000 X147.000 Y191.575
G1 F2700 X147.000 Y113.425 E630.60904
G0 F12000 X147.500 Y113.425
G1 F2700 X147.500 Y191.575 E635.48269
G0 F12000 X148.000 Y191.575
G1 F2700 X148.000 Y113.425 E640.35634
G0 F12000 X148.500 Y113.425
G1 F2700 X148.500 Y191.575 E645.22999
G0 F12000 X149.000 Y191.575
G1 F2700 X149.000 Y113.425 E650.10364
G0 F12000 X149.500 Y113.425
G1 F2700 X149.500 Y191.575 E654.97729
G0 F12000 X150.000 Y191.575
G1 F2700 X150.000 Y113.425 E659.85094
G0 F12000 X150.500 Y113.425
G1 F2700 X150.500 Y191.575 E664.72459
G0 F12000 X151.000 Y191.575
G1 F2700 X151.000 Y113.425 E669.59824
G0 F12000 X151.500 Y113.425
G1 F2700 X151.500 Y191.575 E674.47188
G0 F12000 X152.000 Y191.575
G1 F2700 X152.000 Y113.425 E679.34553
G0 F12000 X152.500 Y113.425
G1 F2700 X152.500 Y191.575 E684.21918
G0 F12000 X153.000 Y191.575
G1 F2700 X153.000 Y113.425 E689.09283
G0 F12000 X153.500 Y113.425
G1 F2700 X153.500 Y191.575 E693.96648
G0 F12000 X154.000 Y191.575
G1 F2700 X154.000 Y113.425 E698.84013
G0 F12000 X154.500 Y113.425
G1 F2700 X154.500 Y191.575 E703.71378
G0 F12000 X155.000 Y191.575
G1 F2700 X155.000 Y113.425 E708.58743
G0 F12000 X155.500 Y113.425
G1 F2700 X155.500 Y191.575 E713.46108
G0 F12000 X156.000 Y191.575
G1 F2700 X156.000 Y113.425 E718.33473
G0 F12000 X156.500 Y113.425
G1 F2700 X156.500 Y191.575 E723.20838
G0 F12000 X157.000 Y191.575
G1 F2700 X157.000 Y113.425 E728.08203
G0 F12000 X157.500 Y113.425
G1 F2700 X157.500 Y191.575 E732.95567
G0 F12000 X158.000 Y191.575
G1 F2700 X158.000 Y113.425 E737.82932
G0 F12000 X158.500 Y113.425
G1 F2700 X158.500 Y191.575 E742.70297
G0 F12000 X159.000 Y191.575
G1 F2700 X159.000 Y113.425 E747.57662
G0 F12000 X159.500 Y113.425
G1 F2700 X159.500 Y191.575 E752.45027
G0 F12000 X160.000 Y191.575
G1 F2700 X160.000 Y113.425 E757.32392
G0 F12000 X160.500 Y113.425
G1 F2700 X160.500 Y191.575 E762.19757
G0 F12000 X161.000 Y191.575
G1 F2700 X161.000 Y113.425 E767.07122
G0 F12000 X161.500 Y113.425
G1 F2700 X161.500 Y191.575 E771.94487
G0 F12000 X162.000 Y191.575
G1 F2700 X162.000 Y113.425 E776.81852
G0 F12000 X162.500 Y113.425
G1 F2700 X162.500 Y191.575 E781.69217
G0 F12000 X163.000 Y191.575
G1 F2700 X163.000 Y113.425 E786.56582
G0 F12000 X163.500 Y113.425
G1 F2700 X163.500 Y191.575 E791.43946
G0 F12000 X164.000 Y191.575
G1 F2700 X164.000 Y113.425 E796.31311
G0 F12000 X164.500 Y113.425
G1 F2700 X164.500 Y191.575 E801.18676
G0 F12000 X165.000 Y191.575
G1 F2700 X165.000 Y113.425 E806.06041
G0 F12000 X165.500 Y113.425
G1 F2700 X165.500 Y191.575 E810.93406
G0 F12000 X166.000 Y191.575
G1 F2700 X166.000 Y113.425 E815.80771
G0 F12000 X166.500 Y113.425
G1 F2700 X166.500 Y191.575 E820.68136
;LAYER:3
M106 S45
G0 F12000 X166.750 Y191.750 Z1.100
;TYPE:WALL-INNER
G1 F3120 X138.250 Y191.750 E822.45870
G1 X138.250 Y113.250 E827.35417
G1 X166.750 Y113.250 E829.13151
G1 X166.750 Y191.750 E834.02699
G0 F12000 X167.250 Y192.250
;TYPE:WALL-OUTER
G1 F3120 X137.750 Y192.250 E835.86669
G1 X137.750 Y112.750 E840.82453
G1 X167.250 Y112.750 E842.66423
G1 X167.250 Y192.250 E847.62207
G0 F12000 X166.574 Y191.500
;TYPE:SKIN
G1 F3120 X138.424 Y191.500 E849.37758
G0 F12000 X138.424 Y191.000
G1 F3120 X166.574 Y191.000 E851.13309
G0 F12000 X166.574 Y190.500
G1 F3120 X138.424 Y190.500 E852.88860
G0 F12000 X138.424 Y190.000
G1 F3120 X166.574 Y190.000 E854.64412
G0 F12000 X166.574 Y189.500
G1 F3120 X138.424 Y189.500 E856.39963
G0 F12000 X138.424 Y189.000
G1 F3120 X166.574 Y189.000 E858.15514
G0 F12000 X166.574 Y188.500
G1 F3120 X138.424 Y188.500 E859.91065
G0 F12000 X138.424 Y188.000
G1 F3120 X166.574 Y188.000 E861.66616
G0 F12000 X166.574 Y187.500
G1 F3120 X138.424 Y187.500 E863.42167
G0 F12000 X138.424 Y187.000
G1 F3120 X166.574 Y187.000 E865.17718
G0 F12000 X166.574 Y186.500
G1 F3120 X138.424 Y186.500 E866.93270
G0 F12000 X138.424 Y186.000
G1 F3120 X166.574 Y186.000 E868.68821
G0 F12000 X166.574 Y185.500
G1 F3120 X138.424 Y185.500 E870.44372
G0 F12000 X138.424 Y185.000
G1 F3120 X166.574 Y185.000 E872.19923
G0 F12000 X166.574 Y184.500
G1 F3120 X138.424 Y184.500 E873.95474
G0 F12000 X138.424 Y184.000
G1 F3120 X166.574 Y184.000 E875.71025
G0 F12000 X166.574 Y183.500
G1 F3120 X138.424 Y183.500 E877.46576
G0 F12000 X138.424 Y183.000
G1 F3120 X166.574 Y183.000 E879.22128
G0 F12000 X166.574 Y182.500
G1 F3120 X138.424 Y182.500 E880.97679
G0 F12000 X138.424 Y182.000
G1 F3120 X166.574 Y182.000 E882.73230
G0 F12000 X166.574 Y181.500
G1 F3120 X138.424 Y181.500 E884.48781
G0 F12000 X138.424 Y181.000
G1 F3120 X166.574 Y181.000 E886.24332
G0 F12000 X166.574 Y180.500
G1 F3120 X138.424 Y180.500 E887.99883
G0 F12000 X138.424 Y180.000
G1 F3120 X166.574 Y180.000 E889.75435
G0 F12000 X166.574 Y179.500
G1 F3120 X138.424 Y179.500 E891.50986
G0 F12000 X138.424 Y179.000
G1 F3120 X166.574 Y179.000 E893.26537
G0 F12000 X166.574 Y178.500
G1 F3120 X138.424 Y178.500 E895.02088
G0 F12000 X138.424 Y178.000
G1 F3120 X166.574 Y178.000 E896.77639
G0 F12000 X166.574 Y177.500
G1 F3120 X138.424 Y177.500 E898.53190
G0 F12000 X138.424 Y177.000
G1 F3120 X166.574 Y177.000 E900.28741
G0 F12000 X166.574 Y176.500
G1 F3120 X138.424 Y176.500 E902.04293
G0 F12000 X138.424 Y176.000
G1 F3120 X166.574 Y176.000 E903.79844
G0 F12000 X166.574 Y175.500
G1 F3120 X138.424 Y175.500 E905.55395
G0 F12000 X138.424 Y175.000
G1 F3120 X166.574 Y175.000 E907.30946
G0 F12000 X166.574 Y174.500
G1 F3120 X138.424 Y174.500 E909.06497
G0 F12000 X138.424 Y174.000
G1 F3120 X166.574 Y174.000 E910.82048
G0 F12000 X166.574 Y173.500
G1 F3120 X138.424 Y173.500 E912.57599
G0 F12000 X138.424 Y173.000
G1 F3120 X166.574 Y173.000 E914.33151
G0 F12000 X166.574 Y172.500
G1 F3120 X138.424 Y172.500 E916.08702
G0 F12000 X138.424 Y172.000
G1 F3120 X166.574 Y172.000 E917.84253
G0 F12000 X166.574 Y171.500
G1 F3120 X138.424 Y171.500 E919.59804
G0 F12000 X138.424 Y171.000
G1 F3120 X166.574 Y171.000 E921.35355
G0 F12000 X166.574 Y170.500
G1 F3120 X138.424 Y170.500 E923.10906
G0 F12000 X138.424 Y170.000
G1 F3120 X166.574 Y170.000 E924.86458
G0 F12000 X166.574 Y169.500
G1 F3120 X138.424 Y169.500 E926.62009
G0 F12000 X138.424 Y169.000
G1 F3120 X166.574 Y169.000 E928.37560
G0 F12000 X166.574 Y168.500
G1 F3120 X138.424 Y168.500 E930.13111
G0 F12000 X138.424 Y168.000
G1 F3120 X166.574 Y168.000 E931.88662
G0 F12000 X166.574 Y167.500
G1 F3120 X138.424 Y167.500 E933.64213
G0 F12000 X138.424 Y167.000
G1 F3120 X166.574 Y167.000 E935.39764
G0 F12000 X166.574 Y166.500
G1 F3120 X138.424 Y166.500 E937.15316
G0 F12000 X138.424 Y166.000
G1 F3120 X166.574 Y166.000 E938.90867
G0 F12000 X166.574 Y165.500
G1 F3120 X138.424 Y165.500 E940.66418
G0 F12000 X138.424 Y165.000
G1 F3120 X166.574 Y165.000 E942.41969
G0 F12000 X166.574 Y164.500
G1 F3120 X138.424 Y164.500 E944.17520
G0 F12000 X138.424 Y164.000
G1 F3120 X166.574 Y164.000 E945.93071
G0 F12000 X166.574 Y163.500
G1 F3120 X138.424 Y163.500 E947.68622
G0 F12000 X138.424 Y163.000
G1 F3120 X166.574 Y163.000 E949.44174
G0 F12000 X166.574 Y162.500
G1 F3120 X138.424 Y162.500 E951.19725
G0 F12000 X138.424 Y162.000
G1 F3120 X166.574 Y162.000 E952.95276
G0 F12000 X166.574 Y161.500
G1 F3120 X138.424 Y161.500 E954.70827
G0 F12000 X138.424 Y161.000
G1 F3120 X166.574 Y161.000 E956.46378
G0 F12000 X166.574 Y160.500
G1 F3120 X138.424 Y160.500 E958.21929
G0 F12000 X138.424 Y160.000
G1 F3120 X166.574 Y160.000 E959.97481
G0 F12000 X166.574 Y159.500
G1 F3120 X138.424 Y159.500 E961.73032
G0 F12000 X138.424 Y159.000
G1 F3120 X166.574 Y159.000 E963.48583
G0 F12000 X166.574 Y158.500
G1 F3120 X138.424 Y158.500 E965.24134
G0 F12000 X138.424 Y158.000
G1 F3120 X166.574 Y158.000 E966.99685
G0 F12000 X166.574 Y157.500
G1 F3120 X138.424 Y157.500 E968.75236
G0 F12000 X138.424 Y157.000
G1 F3120 X166.574 Y157.000 E970.50787
G0 F12000 X166.574 Y156.500
G1 F3120 X138.424 Y156.500 E972.26339
G0 F12000 X138.424 Y156.000
G1 F3120 X166.574 Y156.000 E974.01890
G0 F12000 X166.574 Y155.500
G1 F3120 X138.424 Y155.500 E975.77441
G0 F12000 X138.424 Y155.000
G1 F3120 X166.574 Y155.000 E977.52992
G0 F12000 X166.574 Y154.500
G1 F3120 X138.424 Y154.500 E979.28543
G0 F12000 X138.424 Y154.000
G1 F3120 X166.574 Y154.000 E981.04094
G0 F12000 X166.574 Y153.500
G1 F3120 X138.424 Y153.500 E982.79645
G0 F12000 X138.424 Y153.000
G1 F3120 X166.574 Y153.000 E984.55197
G0 F12000 X166.574 Y152.500
G1 F3120 X138.424 Y152.500 E986.30748
G0 F12000 X138.424 Y152.000
G1 F3120 X166.574 Y152.000 E988.06299
G0 F12000 X166.574 Y151.500
G1 F3120 X138.424 Y151.500 E989.81850
G0 F12000 X138.424 Y151.000
G1 F3120 X166.574 Y151.000 E991.57401
G0 F12000 X166.574 Y150.500
G1 F3120 X138.424 Y150.500 E993.32952
G0 F12000 X138.424 Y150.000
G1 F3120 X166.574 Y150.000 E995.08504
G0 F12000 X166.574 Y149.500
G1 F3120 X138.424 Y149.500 E996.84055
G0 F12000 X138.424 Y149.000
G1 F3120 X166.574 Y149.000 E998.59606
G0 F12000 X166.574 Y148.500
G1 F3120 X138.424 Y148.500 E1000.35157
G0 F12000 X138.424 Y148.000
G1 F3120 X166.574 Y148.000 E1002.10708
G0 F12000 X166.574 Y147.500
G1 F3120 X138.424 Y147.500 E1003.86259
G0 F12000 X138.424 Y147.000
G1 F3120 X166.574 Y147.000 E1005.61810
G0 F12000 X166.574 Y146.500
G1 F3120 X138.424 Y146.500 E1007.37362
G0 F12000 X138.424 Y146.000
G1 F3120 X166.574 Y146.000 E1009.12913
G0 F12000 X166.574 Y145.500
G1 F3120 X138.424 Y145.500 E1010.88464
G0 F12000 X138.424 Y145.000
G1 F3120 X166.574 Y145.000 E1012.64015
G0 F12000 X166.574 Y144.500
G1 F3120 X138.424 Y144.500 E1014.39566
G0 F12000 X138.424 Y144.000
G1 F3120 X166.574 Y144.000 E1016.15117
G0 F12000 X166.574 Y143.500
G1 F3120 X138.424 Y143.500 E1017.90668
G0 F12000 X138.424 Y143.000
G1 F3120 X166.574 Y143.000 E1019.66220
G0 F12000 X166.574 Y142.500
G1 F3120 X138.424 Y142.500 E1021.41771
G0 F12000 X138.424 Y142.000
G1 F3120 X166.574 Y142.000 E1023.17322
G0 F12000 X166.574 Y141.500
G1 F3120 X138.424 Y141.500 E1024.92873
G0 F12000 X138.424 Y141.000
G1 F3120 X166.574 Y141.000 E1026.68424
G0 F12000 X166.574 Y140.500
G1 F3120 X138.424 Y140.500 E1028.43975
G0 F12000 X138.424 Y140.000
G1 F3120 X166.574 Y140.000 E1030.19527
G0 F12000 X166.574 Y139.500
G1 F3120 X138.424 Y139.500 E1031.95078
G0 F12000 X138.424 Y139.000
G1 F3120 X166.574 Y139.000 E1033.70629
G0 F12000 X166.574 Y138.500
G1 F3120 X138.424 Y138.500 E1035.46180
G0 F12000 X138.424 Y138.000
G1 F3120 X166.574 Y138.000 E1037.21731
G0 F12000 X166.574 Y137.500
G1 F3120 X138.424 Y137.500 E1038.97282
G0 F12000 X138.424 Y137.000
G1 F3120 X166.574 Y137.000 E1040.72833
G0 F12000 X166.574 Y136.500
G1 F3120 X138.424 Y136.500 E1042.48385
G0 F12000 X138.424 Y136.000
G1 F3120 X166.574 Y136.000 E1044.23936
G0 F12000 X166.574 Y135.500
G1 F3120 X138.424 Y135.500 E1045.99487
G0 F12000 X138.424 Y135.000
G1 F3120 X166.574 Y135.000 E1047.75038
G0 F12000 X166.574 Y134.500
G1 F3120 X138.424 Y134.500 E1049.50589
G0 F12000 X138.424 Y134.000
G1 F3120 X166.574 Y134.000 E1051.26140
G0 F12000 X166.574 Y133.500
G1 F3120 X138.424 Y133.500 E1053.01691
G0 F12000 X138.424 Y133.000
G1 F3120 X166.574 Y133.000 E1054.77243
G0 F12000 X166.574 Y132.500
G1 F3120 X138.424 Y132.500 E1056.52794
G0 F12000 X138.424 Y132.000
G1 F3120 X166.574 Y132.000 E1058.28345
G0 F12000 X166.574 Y131.500
G1 F3120 X138.424 Y131.500 E1060.03896
G0 F12000 X138.424 Y131.000
G1 F3120 X166.574 Y131.000 E1061.79447
G0 F12000 X166.574 Y130.500
G1 F3120 X138.424 Y130.500 E1063.54998
G0 F12000 X138.424 Y130.000
G1 F3120 X166.574 Y130.000 E1065.30550
G0 F12000 X166.574 Y129.500
G1 F3120 X138.424 Y129.500 E1067.06101
G0 F12000 X138.424 Y129.000
G1 F3120 X166.574 Y129.000 E1068.81652
G0 F12000 X166.574 Y128.500
G1 F3120 X138.424 Y128.500 E1070.57203
G0 F12000 X138.424 Y128.000
G1 F3120 X166.574 Y128.000 E1072.32754
G0 F12000 X166.574 Y127.500
G1 F3120 X138.424 Y127.500 E1074.08305
G0 F12000 X138.424 Y127.000
G1 F3120 X166.574 Y127.000 E1075.83856
G0 F12000 X166.574 Y126.500
G1 F3120 X138.424 Y126.500 E1077.59408
G0 F12000 X138.424 Y126.000
G1 F3120 X166.574 Y126.000 E1079.34959
G0 F12000 X166.574 Y125.500
G1 F3120 X138.424 Y125.500 E1081.10510
G0 F12000 X138.424 Y125.000
G1 F3120 X166.574 Y125.000 E1082.86061
G0 F12000 X166.574 Y124.500
G1 F3120 X138.424 Y124.500 E1084.61612
G0 F12000 X138.424 Y124.000
G1 F3120 X166.574 Y124.000 E1086.37163
G0 F12000 X166.574 Y123.500
G1 F3120 X138.424 Y123.500 E1088.12714
G0 F12000 X138.424 Y123.000
G1 F3120 X166.574 Y123.000 E1089.88266
G0 F12000 X166.574 Y122.500
G1 F3120 X138.424 Y122.500 E1091.63817
G0 F12000 X138.424 Y122.000
G1 F3120 X166.574 Y122.000 E1093.39368
G0 F12000 X166.574 Y121.500
G1 F3120 X138.424 Y121.500 E1095.14919
G0 F12000 X138.424 Y121.000
G1 F3120 X166.574 Y121.000 E1096.90470
G0 F12000 X166.574 Y120.500
G1 F3120 X138.424 Y120.500 E1098.66021
G0 F12000 X138.424 Y120.000
G1 F3120 X166.574 Y120.000 E1100.41573
G0 F12000 X166.574 Y119.500
G1 F3120 X138.424 Y119.500 E1102.17124
G0 F12000 X138.424 Y119.000
G1 F3120 X166.574 Y119.000 E1103.92675
G0 F12000 X166.574 Y118.500
G1 F3120 X138.424 Y118.500 E1105.68226
G0 F12000 X138.424 Y118.000
G1 F3120 X166.574 Y118.000 E1107.43777
G0 F12000 X166.574 Y117.500
G1 F3120 X138.424 Y117.500 E1109.19328
G0 F12000 X138.424 Y117.000
G1 F3120 X166.574 Y117.000 E1110.94879
G0 F12000 X166.574 Y116.500
G1 F3120 X138.424 Y116.500 E1112.70431
G0 F12000 X138.424 Y116.000
G1 F3120 X166.574 Y116.000 E1114.45982
G0 F12000 X166.574 Y115.500
G1 F3120 X138.424 Y115.500 E1116.21533
G0 F12000 X138.424 Y115.000
G1 F3120 X166.574 Y115.000 E1117.97084
G0 F12000 X166.574 Y114.500
G1 F3120 X138.424 Y114.500 E1119.72635
G0 F12000 X138.424 Y114.000
G1 F3120 X166.574 Y114.000 E1121.48186
G0 F12000 X166.574 Y113.500
G1 F3120 X138.424 Y113.500 E1123.23738
;LAYER:4
M106 S63
G0 F12000 X138.250 Y113.250 Z1.400
;TYPE:WALL-OUTER
G1 F2040 X138.250 Y191.750 E1128.13285
G1 X167.250 Y191.750 E1129.94137
G1 X167.250 Y192.250 E1129.97255
G1 X137.750 Y192.250 E1131.81225
G1 X137.750 Y112.750 E1136.77009
G1 X167.250 Y112.750 E1138.60979
G1 X167.250 Y113.250 E1138.64098
G1 X138.250 Y113.250 E1140.44949
;LAYER:5
M106 S79
G0 F12000 X138.250 Y113.250 Z1.700
;TYPE:WALL-OUTER
G1 F2040 X138.250 Y191.750 E1145.34497
G1 X167.250 Y191.750 E1147.15349
G1 X167.250 Y192.250 E1147.18467
G1 X137.750 Y192.250 E1149.02437
G1 X137.750 Y112.750 E1153.98221
G1 X167.250 Y112.750 E1155.82191
G1 X167.250 Y113.250 E1155.85309
G1 X138.250 Y113.250 E1157.66161
;LAYER:6
M106 S94
G0 F12000 X138.250 Y113.250 Z2.000
;TYPE:WALL-OUTER
G1 F2040 X138.250 Y191.750 E1162.55709
G1 X167.250 Y191.750 E1164.36561
G1 X167.250 Y192.250 E1164.39679
G1 X137.750 Y192.250 E1166.23649
G1 X137.750 Y112.750 E1171.19433
G1 X167.250 Y112.750 E1173.03403
G1 X167.250 Y113.250 E1173.06521
G1 X138.250 Y113.250 E1174.87373
;LAYER:7
M106 S109
G0 F12000 X138.250 Y113.250 Z2.300
;TYPE:WALL-OUTER
G1 F2040 X138.250 Y191.750 E1179.76921
G1 X167.250 Y191.750 E1181.57773
G1 X167.250 Y192.250 E1181.60891
G1 X137.750 Y192.250 E1183.44861
G1 X137.750 Y112.750 E1188.40645
G1 X167.250 Y112.750 E1190.24615
G1 X167.250 Y113.250 E1190.27733
G1 X138.250 Y113.250 E1192.08585
;LAYER:8
M106 S127
G0 F12000 X138.250 Y113.250 Z2.600
;TYPE:WALL-OUTER
G1 F2040 X138.250 Y191.750 E1196.98133
G1 X167.250 Y191.750 E1198.78985
G1 X167.250 Y192.250 E1198.82103
G1 X137.750 Y192.250 E1200.66073
G1 X137.750 Y112.750 E1205.61857
G1 X167.250 Y112.750 E1207.45827
G1 X167.250 Y113.250 E1207.48945
G1 X138.250 Y113.250 E1209.29797
;LAYER:9
M106 S142
G0 F12000 X138.250 Y113.250 Z2.900
;TYPE:WALL-OUTER
G1 F2040 X138.250 Y191.750 E1214.19345
G1 X167.250 Y191.750 E1216.00197
G1 X167.250 Y192.250 E1216.03315
G1 X137.750 Y192.250 E1217.87285
G1 X137.750 Y112.750 E1222.83069
G1 X167.250 Y112.750 E1224.67039
G1 X167.250 Y113.250 E1224.70157
G1 X138.250 Y113.250 E1226.51009
;LAYER:10
M106 S158
G0 F12000 X138.250 Y113.250 Z3.200
;TYPE:WALL-OUTER
G1 F2040 X138.250 Y191.750 E1231.40557
G1 X167.250 Y191.750 E1233.21409
G1 X167.250 Y192.250 E1233.24527
G1 X137.750 Y192.250 E1235.08497
G1 X137.750 Y112.750 E1240.04281
G1 X167.250 Y112.750 E1241.88251
G1 X167.250 Y113.250 E1241.91369
G1 X138.250 Y113.250 E1243.72221
;LAYER:11
M106 S173
G0 F12000 X138.250 Y113.250 Z3.500
;TYPE:WALL-OUTER
G1 F2040 X138.250 Y191.750 E1248.61769
G1 X167.250 Y191.750 E1250.42621
G1 X167.250 Y192.250 E1250.45739
G1 X137.750 Y192.250 E1252.29709
G1 X137.750 Y112.750 E1257.25493
G1 X167.250 Y112.750 E1259.09463
G1 X167.250 Y113.250 E1259.12581
G1 X138.250 Y113.250 E1260.93433
;LAYER:12
M106 S191
G0 F12000 X138.250 Y113.250 Z3.800
;TYPE:WALL-OUTER
G1 F2040 X138.250 Y191.750 E1265.82981
G1 X167.250 Y191.750 E1267.63833
G1 X167.250 Y192.250 E1267.66951
G1 X137.750 Y192.250 E1269.50921
G1 X137.750 Y112.750 E1274.46705
G1 X167.250 Y112.750 E1276.30675
G1 X167.250 Y113.250 E1276.33793
G1 X138.250 Y113.250 E1278.14645
;LAYER:13
M106 S206
G0 F12000 X138.250 Y113.250 Z4.100
;TYPE:WALL-OUTER
G1 F2040 X138.250 Y191.750 E1283.04193
G1 X167.250 Y191.750 E1284.85045
G1 X167.250 Y192.250 E1284.88163
G1 X137.750 Y192.250 E1286.72133
G1 X137.750 Y112.750 E1291.67917
G1 X167.250 Y112.750 E1293.51887
G1 X167.250 Y113.250 E1293.55005
G1 X138.250 Y113.250 E1295.35857
;LAYER:14
M106 S221
G0 F12000 X138.250 Y113.250 Z4.400
;TYPE:WALL-OUTER
G1 F2040 X138.250 Y191.750 E1300.25405
G1 X167.250 Y191.750 E1302.06257
G1 X167.250 Y192.250 E1302.09375
G1 X137.750 Y192.250 E1303.93345
G1 X137.750 Y112.750 E1308.89129
G1 X167.250 Y112.750 E1310.73099
G1 X167.250 Y113.250 E1310.76217
G1 X138.250 Y113.250 E1312.57069
;LAYER:15
M106 S237
G0 F12000 X138.250 Y113.250 Z4.700
;TYPE:WALL-OUTER
G1 F2040 X138.250 Y191.750 E1317.46617
G1 X167.250 Y191.750 E1319.27469
G1 X167.250 Y192.250 E1319.30587
G1 X137.750 Y192.250 E1321.14557
G1 X137.750 Y112.750 E1326.10341
G1 X167.250 Y112.750 E1327.94311
G1 X167.250 Y113.250 E1327.97429
G1 X138.250 Y113.250 E1329.78281
;LAYER:16
M106 S255
G0 F12000 X138.250 Y113.250 Z5.000
;TYPE:WALL-OUTER
G1 F2040 X138.250 Y191.750 E1334.67829
G1 X167.250 Y191.750 E1336.48681
G1 X167.250 Y192.250 E1336.51799
G1 X137.750 Y192.250 E1338.35769
G1 X137.750 Y112.750 E1343.31553
G1 X167.250 Y112.750 E1345.15523
G1 X167.250 Y113.250 E1345.18641
G1 X138.250 Y113.250 E1346.99493
;LAYER:17
G0 F12000 X138.250 Y113.250 Z5.300
;TYPE:WALL-OUTER
G1 F2040 X138.250 Y191.750 E1351.89041
G1 X167.250 Y191.750 E1353.69893
G1 X167.250 Y192.250 E1353.73011
G1 X137.750 Y192.250 E1355.56981
G1 X137.750 Y112.750 E1360.52765
G1 X167.250 Y112.750 E1362.36735
G1 X167.250 Y113.250 E1362.39853
G1 X138.250 Y113.250 E1364.20705
;LAYER:18
G0 F12000 X138.250 Y113.250 Z5.600
;TYPE:WALL-OUTER
G1 F2040 X138.250 Y191.750 E1369.10253
G1 X167.250 Y191.750 E1370.91105
G1 X167.250 Y192.250 E1370.94223
G1 X137.750 Y192.250 E1372.78193
G1 X137.750 Y112.750 E1377.73977
G1 X167.250 Y112.750 E1379.57947
G1 X167.250 Y113.250 E1379.61065
G1 X138.250 Y113.250 E1381.41917
;LAYER:19
G0 F12000 X138.250 Y113.250 Z5.900
;TYPE:WALL-OUTER
G1 F2040 X138.250 Y191.750 E1386.31465
G1 X167.250 Y191.750 E1388.12317
G1 X167.250 Y192.250 E1388.15435
G1 X137.750 Y192.250 E1389.99405
G1 X137.750 Y112.750 E1394.95189
G1 X167.250 Y112.750 E1396.79159
G1 X167.250 Y113.250 E1396.82277
G1 X138.250 Y113.250 E1398.63129
;LAYER:20
G0 F12000 X138.250 Y113.250 Z6.200
;TYPE:WALL-OUTER
G1 F2040 X138.250 Y191.750 E1403.52677
G1 X167.250 Y191.750 E1405.33529
G1 X167.250 Y192.250 E1405.36647
G1 X137.750 Y192.250 E1407.20617
G1 X137.750 Y112.750 E1412.16401
G1 X167.250 Y112.750 E1414.00371
G1 X167.250 Y113.250 E1414.03489
G1 X138.250 Y113.250 E1415.84341
;LAYER:21
G0 F12000 X138.250 Y113.250 Z6.500
;TYPE:WALL-OUTER
G1 F2040 X138.250 Y191.750 E1420.73889
G1 X167.250 Y191.750 E1422.54741
G1 X167.250 Y192.250 E1422.57859
G1 X137.750 Y192.250 E1424.41829
G1 X137.750 Y112.750 E1429.37613
G1 X167.250 Y112.750 E1431.21583
G1 X167.250 Y113.250 E1431.24701
G1 X138.250 Y113.250 E1433.05553
;LAYER:22
G0 F12000 X138.250 Y113.250 Z6.800
;TYPE:WALL-OUTER
G1 F2040 X138.250 Y191.750 E1437.95101
G1 X167.250 Y191.750 E1439.75953
G1 X167.250 Y192.250 E1439.79071
G1 X137.750 Y192.250 E1441.63041
G1 X137.750 Y112.750 E1446.58825
G1 X167.250 Y112.750 E1448.42795
G1 X167.250 Y113.250 E1448.45913
G1 X138.250 Y113.250 E1450.26765
;LAYER:23
G0 F12000 X138.250 Y113.250 Z7.100
;TYPE:WALL-OUTER
G1 F2040 X138.250 Y191.750 E1455.16313
G1 X167.250 Y191.750 E1456.97165
G1 X167.250 Y192.250 E1457.00283
G1 X137.750 Y192.250 E1458.84253
G1 X137.750 Y112.750 E1463.80037
G1 X167.250 Y112.750 E1465.64007
G1 X167.250 Y113.250 E1465.67125
G1 X138.250 Y113.250 E1467.47977
;LAYER:24
G0 F12000 X138.250 Y113.250 Z7.400
;TYPE:WALL-OUTER
G1 F2040 X138.250 Y191.750 E1472.37525
G1 X167.250 Y191.750 E1474.18377
G1 X167.250 Y192.250 E1474.21495
G1 X137.750 Y192.250 E1476.05465
G1 X137.750 Y112.750 E1481.01249
G1 X167.250 Y112.750 E1482.85219
G1 X167.250 Y113.250 E1482.88337
G1 X138.250 Y113.250 E1484.69189
;LAYER:25
G0 F12000 X138.250 Y113.250 Z7.700
;TYPE:WALL-OUTER
G1 F2040 X138.250 Y191.750 E1489.58737
G1 X167.250 Y191.750 E1491.39589
G1 X167.250 Y192.250 E1491.42707
G1 X137.750 Y192.250 E1493.26677
G1 X137.750 Y112.750 E1498.22461
G1 X167.250 Y112.750 E1500.06431
G1 X167.250 Y113.250 E1500.09549
G1 X138.250 Y113.250 E1501.90401
;LAYER:26
G0 F12000 X138.250 Y113.250 Z8.000
;TYPE:WALL-OUTER
G1 F2040 X138.250 Y191.750 E1506.79949
G1 X167.250 Y191.750 E1508.60801
G1 X167.250 Y192.250 E1508.63919
G1 X137.750 Y192.250 E1510.47889
G1 X137.750 Y112.750 E1515.43673
G1 X167.250 Y112.750 E1517.27643
G1 X167.250 Y113.250 E1517.30761
G1 X138.250 Y113.250 E1519.11613
;LAYER:27
G0 F12000 X138.250 Y113.250 Z8.300
;TYPE:WALL-OUTER
G1 F2040 X138.250 Y191.750 E1524.01161
G1 X167.250 Y191.750 E1525.82013
G1 X167.250 Y192.250 E1525.85131
G1 X137.750 Y192.250 E1527.69101
G1 X137.750 Y112.750 E1532.64885
G1 X167.250 Y112.750 E1534.48855
G1 X167.250 Y113.250 E1534.51973
G1 X138.250 Y113.250 E1536.32825
;LAYER:28
G0 F12000 X138.250 Y113.250 Z8.600
;TYPE:WALL-OUTER
G1 F2040 X138.250 Y191.750 E1541.22373
G1 X167.250 Y191.750 E1543.03225
G1 X167.250 Y192.250 E1543.06343
G1 X137.750 Y192.250 E1544.90313
G1 X137.750 Y112.750 E1549.86097
G1 X167.250 Y112.750 E1551.70067
G1 X167.250 Y113.250 E1551.73185
G1 X138.250 Y113.250 E1553.54037
;LAYER:29
G0 F12000 X138.250 Y113.250 Z8.900
;TYPE:WALL-OUTER
G1 F2040 X138.250 Y191.750 E1558.43585
G1 X167.250 Y191.750 E1560.24437
G1 X167.250 Y192.250 E1560.27555
G1 X137.750 Y192.250 E1562.11525
G1 X137.750 Y112.750 E1567.07309
G1 X167.250 Y112.750 E1568.91279
G1 X167.250 Y113.250 E1568.94397
G1 X138.250 Y113.250 E1570.75249
;LAYER:30
G0 F12000 X138.250 Y113.250 Z9.200
;TYPE:WALL-OUTER
G1 F2040 X138.250 Y191.750 E1575.64797
G1 X167.250 Y191.750 E1577.45649
G1 X167.250 Y192.250 E1577.48767
G1 X137.750 Y192.250 E1579.32737
G1 X137.750 Y112.750 E1584.28521
G1 X167.250 Y112.750 E1586.12491
G1 X167.250 Y113.250 E1586.15609
G1 X138.250 Y113.250 E1587.96461
;LAYER:31
G0 F12000 X138.250 Y113.250 Z9.500
;TYPE:WALL-OUTER
G1 F2040 X138.250 Y191.750 E1592.86009
G1 X167.250 Y191.750 E1594.66861
G1 X167.250 Y192.250 E1594.69979
G1 X137.750 Y192.250 E1596.53949
G1 X137.750 Y112.750 E1601.49733
G1 X167.250 Y112.750 E1603.33703
G1 X167.250 Y113.250 E1603.36821
G1 X138.250 Y113.250 E1605.17673
;LAYER:32
G0 F12000 X138.250 Y113.250 Z9.800
;TYPE:WALL-OUTER
G1 F2040 X138.250 Y191.750 E1610.07221
G1 X167.250 Y191.750 E1611.88073
G1 X167.250 Y192.250 E1611.91191
G1 X137.750 Y192.250 E1613.75161
G1 X137.750 Y112.750 E1618.70945
G1 X167.250 Y112.750 E1620.54915
G1 X167.250 Y113.250 E1620.58033
G1 X138.250 Y113.250 E1622.38885
;LAYER:33
G0 F12000 X138.250 Y113.250 Z10.100
;TYPE:WALL-OUTER
G1 F2040 X138.250 Y191.750 E1627.28433
G1 X167.250 Y191.750 E1629.09285
G1 X167.250 Y192.250 E1629.12403
G1 X137.750 Y192.250 E1630.96373
G1 X137.750 Y112.750 E1635.92157
G1 X167.250 Y112.750 E1637.76127
G1 X167.250 Y113.250 E1637.79245
G1 X138.250 Y113.250 E1639.60097
;LAYER:34
G0 F12000 X138.250 Y113.250 Z10.400
;TYPE:WALL-OUTER
G1 F2040 X138.250 Y191.750 E1644.49645
G1 X167.250 Y191.750 E1646.30497
G1 X167.250 Y192.250 E1646.33615
G1 X137.750 Y192.250 E1648.17585
G1 X137.750 Y112.750 E1653.13369
G1 X167.250 Y112.750 E1654.97339
G1 X167.250 Y113.250 E1655.00457
G1 X138.250 Y113.250 E1656.81309
;LAYER:35
G0 F12000 X138.250 Y113.250 Z10.700
;TYPE:WALL-OUTER
G1 F2040 X138.250 Y191.750 E1661.70857
G1 X167.250 Y191.750 E1663.51709
G1 X167.250 Y192.250 E1663.54827
G1 X137.750 Y192.250 E1665.38797
G1 X137.750 Y112.750 E1670.34581
G1 X167.250 Y112.750 E1672.18551
G1 X167.250 Y113.250 E1672.21669
G1 X138.250 Y113.250 E1674.02521
;LAYER:36
G0 F12000 X138.250 Y113.250 Z11.000
;TYPE:WALL-OUTER
G1 F2040 X138.250 Y191.750 E1678.92069
G1 X167.250 Y191.750 E1680.72921
G1 X167.250 Y192.250 E1680.76039
G1 X137.750 Y192.250 E1682.60009
G1 X137.750 Y112.750 E1687.55793
G1 X167.250 Y112.750 E1689.39763
G1 X167.250 Y113.250 E1689.42881
G1 X138.250 Y113.250 E1691.23733
;LAYER:37
G0 F12000 X138.250 Y113.250 Z11.300
;TYPE:WALL-OUTER
G1 F2040 X138.250 Y191.750 E1696.13281
G1 X167.250 Y191.750 E1697.94133
G1 X167.250 Y192.250 E1697.97251
G1 X137.750 Y192.250 E1699.81221
G1 X137.750 Y112.750 E1704.77005
G1 X167.250 Y112.750 E1706.60975
G1 X167.250 Y113.250 E1706.64093
G1 X138.250 Y113.250 E1708.44945
;LAYER:38
G0 F12000 X138.250 Y113.250 Z11.600
;TYPE:WALL-OUTER
G1 F2040 X138.250 Y191.750 E1713.34493
G1 X167.250 Y191.750 E1715.15345
G1 X167.250 Y192.250 E1715.18463
G1 X137.750 Y192.250 E1717.02433
G1 X137.750 Y112.750 E1721.98217
G1 X167.250 Y112.750 E1723.82187
G1 X167.250 Y113.250 E1723.85305
G1 X138.250 Y113.250 E1725.66157
;LAYER:39
G0 F12000 X138.250 Y113.250 Z11.900
;TYPE:WALL-OUTER
G1 F2040 X138.250 Y191.750 E1730.55705
G1 X167.250 Y191.750 E1732.36557
G1 X167.250 Y192.250 E1732.39675
G1 X137.750 Y192.250 E1734.23645
G1 X137.750 Y112.750 E1739.19429
G1 X167.250 Y112.750 E1741.03399
G1 X167.250 Y113.250 E1741.06517
G1 X138.250 Y113.250 E1742.87369
;LAYER:40
G0 F12000 X138.250 Y113.250 Z12.200
;TYPE:WALL-OUTER
G1 F2040 X138.250 Y191.750 E1747.76917
G1 X167.250 Y191.750 E1749.57769
G1 X167.250 Y192.250 E1749.60887
G1 X137.750 Y192.250 E1751.44857
G1 X137.750 Y112.750 E1756.40641
G1 X167.250 Y112.750 E1758.24611
G1 X167.250 Y113.250 E1758.27729
G1 X138.250 Y113.250 E1760.08581
;LAYER:41
G0 F12000 X138.250 Y113.250 Z12.500
;TYPE:WALL-OUTER
G1 F2040 X138.250 Y191.750 E1764.98129
G1 X167.250 Y191.750 E1766.78981
G1 X167.250 Y192.250 E1766.82099
G1 X137.750 Y192.250 E1768.66069
G1 X137.750 Y112.750 E1773.61853
G1 X167.250 Y112.750 E1775.45823
G1 X167.250 Y113.250 E1775.48941
G1 X138.250 Y113.250 E1777.29793
;LAYER:42
G0 F12000 X138.250 Y113.250 Z12.800
;TYPE:WALL-OUTER
G1 F2040 X138.250 Y191.750 E1782.19341
G1 X167.250 Y191.750 E1784.00193
G1 X167.250 Y192.250 E1784.03311
G1 X137.750 Y192.250 E1785.87281
G1 X137.750 Y112.750 E1790.83065
G1 X167.250 Y112.750 E1792.67035
G1 X167.250 Y113.250 E1792.70153
G1 X138.250 Y113.250 E1794.51005
;LAYER:43
G0 F12000 X138.250 Y113.250 Z13.100
;TYPE:WALL-OUTER
G1 F2040 X138.250 Y191.750 E1799.40553
G1 X167.250 Y191.750 E1801.21405
G1 X167.250 Y192.250 E1801.24523
G1 X137.750 Y192.250 E1803.08493
G1 X137.750 Y112.750 E1808.04277
G1 X167.250 Y112.750 E1809.88247
G1 X167.250 Y113.250 E1809.91365
G1 X138.250 Y113.250 E1811.72217
;LAYER:44
G0 F12000 X138.250 Y113.250 Z13.400
;TYPE:WALL-OUTER
G1 F2040 X138.250 Y191.750 E1816.61765
G1 X167.250 Y191.750 E1818.42617
G1 X167.250 Y192.250 E1818.45735
G1 X137.750 Y192.250 E1820.29705
G1 X137.750 Y112.750 E1825.25489
G1 X167.250 Y112.750 E1827.09459
G1 X167.250 Y113.250 E1827.12577
G1 X138.250 Y113.250 E1828.93429
;LAYER:45
G0 F12000 X138.250 Y113.250 Z13.700
;TYPE:WALL-OUTER
G1 F2040 X138.250 Y191.750 E1833.82977
G1 X167.250 Y191.750 E1835.63829
G1 X167.250 Y192.250 E1835.66947
G1 X137.750 Y192.250 E1837.50917
G1 X137.750 Y112.750 E1842.46701
G1 X167.250 Y112.750 E1844.30671
G1 X167.250 Y113.250 E1844.33789
G1 X138.250 Y113.250 E1846.14641
;LAYER:46
G0 F12000 X138.250 Y113.250 Z14.000
;TYPE:WALL-OUTER
G1 F2040 X138.250 Y191.750 E1851.04189
G1 X167.250 Y191.750 E1852.85041
G1 X167.250 Y192.250 E1852.88159
G1 X137.750 Y192.250 E1854.72129
G1 X137.750 Y112.750 E1859.67913
G1 X167.250 Y112.750 E1861.51883
G1 X167.250 Y113.250 E1861.55001
G1 X138.250 Y113.250 E1863.35853
;LAYER:47
G0 F12000 X138.250 Y113.250 Z14.300
;TYPE:WALL-OUTER
G1 F2040 X138.250 Y191.750 E1868.25401
G1 X167.250 Y191.750 E1870.06253
G1 X167.250 Y192.250 E1870.09371
G1 X137.750 Y192.250 E1871.93341
G1 X137.750 Y112.750 E1876.89125
G1 X167.250 Y112.750 E1878.73095
G1 X167.250 Y113.250 E1878.76213
G1 X138.250 Y113.250 E1880.57065
;LAYER:48
G0 F12000 X138.250 Y113.250 Z14.600
;TYPE:WALL-OUTER
G1 F2040 X138.250 Y191.750 E1885.46613
G1 X167.250 Y191.750 E1887.27465
G1 X167.250 Y192.250 E1887.30583
G1 X137.750 Y192.250 E1889.14553
G1 X137.750 Y112.750 E1894.10337
G1 X167.250 Y112.750 E1895.94307
G1 X167.250 Y113.250 E1895.97425
G1 X138.250 Y113.250 E1897.78277
;LAYER:49
G0 F12000 X138.250 Y113.250 Z14.900
;TYPE:WALL-OUTER
G1 F2040 X138.250 Y191.750 E1902.67825
G1 X167.250 Y191.750 E1904.48677
G1 X167.250 Y192.250 E1904.51795
G1 X137.750 Y192.250 E1906.35765
G1 X137.750 Y112.750 E1911.31549
G1 X167.250 Y112.750 E1913.15519
G1 X167.250 Y113.250 E1913.18637
G1 X138.250 Y113.250 E1914.99489
;LAYER:50
G0 F12000 X138.250 Y113.250 Z15.200
;TYPE:WALL-OUTER
G1 F2040 X138.250 Y191.750 E1919.89037
G1 X167.250 Y191.750 E1921.69889
G1 X167.250 Y192.250 E1921.73007
G1 X137.750 Y192.250 E1923.56977
G1 X137.750 Y112.750 E1928.52761
G1 X167.250 Y112.750 E1930.36731
G1 X167.250 Y113.250 E1930.39849
G1 X138.250 Y113.250 E1932.20701
;LAYER:51
G0 F12000 X138.250 Y113.250 Z15.500
;TYPE:WALL-OUTER
G1 F2040 X138.250 Y191.750 E1937.10249
G1 X167.250 Y191.750 E1938.91101
G1 X167.250 Y192.250 E1938.94219
G1 X137.750 Y192.250 E1940.78189
G1 X137.750 Y112.750 E1945.73973
G1 X167.250 Y112.750 E1947.57943
G1 X167.250 Y113.250 E1947.61061
G1 X138.250 Y113.250 E1949.41913
;LAYER:52
G0 F12000 X138.250 Y113.250 Z15.800
;TYPE:WALL-OUTER
G1 F2040 X138.250 Y191.750 E1954.31461
G1 X167.250 Y191.750 E1956.12313
G1 X167.250 Y192.250 E1956.15431
G1 X137.750 Y192.250 E1957.99401
G1 X137.750 Y112.750 E1962.95185
G1 X167.250 Y112.750 E1964.79155
G1 X167.250 Y113.250 E1964.82273
G1 X138.250 Y113.250 E1966.63125
;LAYER:53
G0 F12000 X138.250 Y113.250 Z16.100
;TYPE:WALL-OUTER
G1 F2040 X138.250 Y191.750 E1971.52673
G1 X167.250 Y191.750 E1973.33525
G1 X167.250 Y192.250 E1973.36643
G1 X137.750 Y192.250 E1975.20613
G1 X137.750 Y112.750 E1980.16397
G1 X167.250 Y112.750 E1982.00367
G1 X167.250 Y113.250 E1982.03485
G1 X138.250 Y113.250 E1983.84337
;LAYER:54
G0 F12000 X138.250 Y113.250 Z16.400
;TYPE:WALL-OUTER
G1 F2040 X138.250 Y191.750 E1988.73885
G1 X167.250 Y191.750 E1990.54737
G1 X167.250 Y192.250 E1990.57855
G1 X137.750 Y192.250 E1992.41825
G1 X137.750 Y112.750 E1997.37609
G1 X167.250 Y112.750 E1999.21579
G1 X167.250 Y113.250 E1999.24697
G1 X138.250 Y113.250 E2001.05549
;LAYER:55
G0 F12000 X138.250 Y113.250 Z16.700
;TYPE:WALL-OUTER
G1 F2040 X138.250 Y191.750 E2005.95097
G1 X167.250 Y191.750 E2007.75949
G1 X167.250 Y192.250 E2007.79067
G1 X137.750 Y192.250 E2009.63037
G1 X137.750 Y112.750 E2014.58821
G1 X167.250 Y112.750 E2016.42791
G1 X167.250 Y113.250 E2016.45909
G1 X138.250 Y113.250 E2018.26761
;LAYER:56
G0 F12000 X138.250 Y113.250 Z17.000
;TYPE:WALL-OUTER
G1 F2040 X138.250 Y191.750 E2023.16309
G1 X167.250 Y191.750 E2024.97161
G1 X167.250 Y192.250 E2025.00279
G1 X137.750 Y192.250 E2026.84249
G1 X137.750 Y112.750 E2031.80033
G1 X167.250 Y112.750 E2033.64003
G1 X167.250 Y113.250 E2033.67121
G1 X138.250 Y113.250 E2035.47973
;LAYER:57
G0 F12000 X138.250 Y113.250 Z17.300
;TYPE:WALL-OUTER
G1 F2040 X138.250 Y191.750 E2040.37521
G1 X167.250 Y191.750 E2042.18373
G1 X167.250 Y192.250 E2042.21491
G1 X137.750 Y192.250 E2044.05461
G1 X137.750 Y112.750 E2049.01245
G1 X167.250 Y112.750 E2050.85215
G1 X167.250 Y113.250 E2050.88333
G1 X138.250 Y113.250 E2052.69185
;LAYER:58
G0 F12000 X138.250 Y113.250 Z17.600
;TYPE:WALL-OUTER
G1 F2040 X138.250 Y191.750 E2057.58733
G1 X167.250 Y191.750 E2059.39584
G1 X167.250 Y192.250 E2059.42703
G1 X137.750 Y192.250 E2061.26673
G1 X137.750 Y112.750 E2066.22457
G1 X167.250 Y112.750 E2068.06427
G1 X167.250 Y113.250 E2068.09545
G1 X138.250 Y113.250 E2069.90397
;LAYER:59
G0 F12000 X138.250 Y113.250 Z17.900
;TYPE:WALL-OUTER
G1 F2040 X138.250 Y191.750 E2074.79944
G1 X167.250 Y191.750 E2076.60796
G1 X167.250 Y192.250 E2076.63915
G1 X137.750 Y192.250 E2078.47885
G1 X137.750 Y112.750 E2083.43669
G1 X167.250 Y112.750 E2085.27639
G1 X167.250 Y113.250 E2085.30757
G1 X138.250 Y113.250 E2087.11609
;LAYER:60
G0 F12000 X138.250 Y113.250 Z18.200
;TYPE:WALL-OUTER
G1 F2040 X138.250 Y191.750 E2092.01156
G1 X167.250 Y191.750 E2093.82008
G1 X167.250 Y192.250 E2093.85127
G1 X137.750 Y192.250 E2095.69097
G1 X137.750 Y112.750 E2100.64881
G1 X167.250 Y112.750 E2102.48851
G1 X167.250 Y113.250 E2102.51969
G1 X138.250 Y113.250 E2104.32821
;LAYER:61
G0 F12000 X138.250 Y113.250 Z18.500
;TYPE:WALL-OUTER
G1 F2040 X138.250 Y191.750 E2109.22368
G1 X167.250 Y191.750 E2111.03220
G1 X167.250 Y192.250 E2111.06339
G1 X137.750 Y192.250 E2112.90309
G1 X137.750 Y112.750 E2117.86093
G1 X167.250 Y112.750 E2119.70063
G1 X167.250 Y113.250 E2119.73181
G1 X138.250 Y113.250 E2121.54033
;LAYER:62
G0 F12000 X138.250 Y113.250 Z18.800
;TYPE:WALL-OUTER
G1 F2040 X138.250 Y191.750 E2126.43580
G1 X167.250 Y191.750 E2128.24432
G1 X167.250 Y192.250 E2128.27551
G1 X137.750 Y192.250 E2130.11521
G1 X137.750 Y112.750 E2135.07305
G1 X167.250 Y112.750 E2136.91275
G1 X167.250 Y113.250 E2136.94393
G1 X138.250 Y113.250 E2138.75245
;LAYER:63
G0 F12000 X138.250 Y113.250 Z19.100
;TYPE:WALL-OUTER
G1 F2040 X138.250 Y191.750 E2143.64792
G1 X167.250 Y191.750 E2145.45644
G1 X167.250 Y192.250 E2145.48763
G1 X137.750 Y192.250 E2147.32733
G1 X137.750 Y112.750 E2152.28517
G1 X167.250 Y112.750 E2154.12487
G1 X167.250 Y113.250 E2154.15605
G1 X138.250 Y113.250 E2155.96457
;LAYER:64
G0 F12000 X138.250 Y113.250 Z19.400
;TYPE:WALL-OUTER
G1 F2040 X138.250 Y191.750 E2160.86004
G1 X167.250 Y191.750 E2162.66856
G1 X167.250 Y192.250 E2162.69975
G1 X137.750 Y192.250 E2164.53945
G1 X137.750 Y112.750 E2169.49729
G1 X167.250 Y112.750 E2171.33699
G1 X167.250 Y113.250 E2171.36817
G1 X138.250 Y113.250 E2173.17669
;LAYER:65
G0 F12000 X138.250 Y113.250 Z19.700
;TYPE:WALL-OUTER
G1 F2040 X138.250 Y191.750 E2178.07216
G1 X167.250 Y191.750 E2179.88068
G1 X167.250 Y192.250 E2179.91187
G1 X137.750 Y192.250 E2181.75157
G1 X137.750 Y112.750 E2186.70941
G1 X167.250 Y112.750 E2188.54911
G1 X167.250 Y113.250 E2188.58029
G1 X138.250 Y113.250 E2190.38881
;LAYER:66
G0 F12000 X138.250 Y113.250 Z20.000
;TYPE:WALL-OUTER
G1 F2040 X138.250 Y191.750 E2195.28428
G1 X167.250 Y191.750 E2197.09280
G1 X167.250 Y192.250 E2197.12399
G1 X137.750 Y192.250 E2198.96369
G1 X137.750 Y112.750 E2203.92153
G1 X167.250 Y112.750 E2205.76123
G1 X167.250 Y113.250 E2205.79241
G1 X138.250 Y113.250 E2207.60093
;LAYER:67
G0 F12000 X138.250 Y113.250 Z20.300
;TYPE:WALL-OUTER
G1 F2040 X138.250 Y191.750 E2212.49640
G1 X167.250 Y191.750 E2214.30492
G1 X167.250 Y192.250 E2214.33611
G1 X137.750 Y192.250 E2216.17581
G1 X137.750 Y112.750 E2221.13365
G1 X167.250 Y112.750 E2222.97335
G1 X167.250 Y113.250 E2223.00453
G1 X138.250 Y113.250 E2224.81305
;LAYER:68
G0 F12000 X138.250 Y113.250 Z20.600
;TYPE:WALL-OUTER
G1 F2040 X138.250 Y191.750 E2229.70852
G1 X167.250 Y191.750 E2231.51704
G1 X167.250 Y192.250 E2231.54823
G1 X137.750 Y192.250 E2233.38793
G1 X137.750 Y112.750 E2238.34577
G1 X167.250 Y112.750 E2240.18547
G1 X167.250 Y113.250 E2240.21665
G1 X138.250 Y113.250 E2242.02517
;LAYER:69
G0 F12000 X138.250 Y113.250 Z20.900
;TYPE:WALL-OUTER
G1 F2040 X138.250 Y191.750 E2246.92064
G1 X167.250 Y191.750 E2248.72916
G1 X167.250 Y192.250 E2248.76035
G1 X137.750 Y192.250 E2250.60005
G1 X137.750 Y112.750 E2255.55789
G1 X167.250 Y112.750 E2257.39759
G1 X167.250 Y113.250 E2257.42877
G1 X138.250 Y113.250 E2259.23729
;LAYER:70
G0 F12000 X138.250 Y113.250 Z21.200
;TYPE:WALL-OUTER
G1 F2040 X138.250 Y191.750 E2264.13276
G1 X167.250 Y191.750 E2265.94128
G1 X167.250 Y192.250 E2265.97246
G1 X137.750 Y192.250 E2267.81217
G1 X137.750 Y112.750 E2272.77001
G1 X167.250 Y112.750 E2274.60971
G1 X167.250 Y113.250 E2274.64089
G1 X138.250 Y113.250 E2276.44941
;LAYER:71
G0 F12000 X138.250 Y113.250 Z21.500
;TYPE:WALL-OUTER
G1 F2040 X138.250 Y191.750 E2281.34488
G1 X167.250 Y191.750 E2283.15340
G1 X167.250 Y192.250 E2283.18458
G1 X137.750 Y192.250 E2285.02429
G1 X137.750 Y112.750 E2289.98212
G1 X167.250 Y112.750 E2291.82183
G1 X167.250 Y113.250 E2291.85301
G1 X138.250 Y113.250 E2293.66153
;LAYER:72
G0 F12000 X138.250 Y113.250 Z21.800
;TYPE:WALL-OUTER
G1 F2040 X138.250 Y191.750 E2298.55700
G1 X167.250 Y191.750 E2300.36552
G1 X167.250 Y192.250 E2300.39670
G1 X137.750 Y192.250 E2302.23641
G1 X137.750 Y112.750 E2307.19424
G1 X167.250 Y112.750 E2309.03395
G1 X167.250 Y113.250 E2309.06513
G1 X138.250 Y113.250 E2310.87365
;LAYER:73
G0 F12000 X138.250 Y113.250 Z22.100
;TYPE:WALL-OUTER
G1 F2040 X138.250 Y191.750 E2315.76912
G1 X167.250 Y191.750 E2317.57764
G1 X167.250 Y192.250 E2317.60882
G1 X137.750 Y192.250 E2319.44853
G1 X137.750 Y112.750 E2324.40636
G1 X167.250 Y112.750 E2326.24607
G1 X167.250 Y113.250 E2326.27725
G1 X138.250 Y113.250 E2328.08577
;LAYER:74
G0 F12000 X138.250 Y113.250 Z22.400
;TYPE:WALL-OUTER
G1 F2040 X138.250 Y191.750 E2332.98124
G1 X167.250 Y191.750 E2334.78976
G1 X167.250 Y192.250 E2334.82094
G1 X137.750 Y192.250 E2336.66065
G1 X137.750 Y112.750 E2341.61848
G1 X167.250 Y112.750 E2343.45819
G1 X167.250 Y113.250 E2343.48937
G1 X138.250 Y113.250 E2345.29789
;LAYER:75
G0 F12000 X138.250 Y113.250 Z22.700
;TYPE:WALL-OUTER
G1 F2040 X138.250 Y191.750 E2350.19336
G1 X167.250 Y191.750 E2352.00188
G1 X167.250 Y192.250 E2352.03306
G1 X137.750 Y192.250 E2353.87277
G1 X137.750 Y112.750 E2358.83060
G1 X167.250 Y112.750 E2360.67031
G1 X167.250 Y113.250 E2360.70149
G1 X138.250 Y113.250 E2362.51001
;LAYER:76
G0 F12000 X138.250 Y113.250 Z23.000
;TYPE:WALL-OUTER
G1 F2040 X138.250 Y191.750 E2367.40548
G1 X167.250 Y191.750 E2369.21400
G1 X167.250 Y192.250 E2369.24518
G1 X137.750 Y192.250 E2371.08489
G1 X137.750 Y112.750 E2376.04272
G1 X167.250 Y112.750 E2377.88243
G1 X167.250 Y113.250 E2377.91361
G1 X138.250 Y113.250 E2379.72213
;LAYER:77
G0 F12000 X138.250 Y113.250 Z23.300
;TYPE:WALL-OUTER
G1 F2040 X138.250 Y191.750 E2384.61760
G1 X167.250 Y191.750 E2386.42612
G1 X167.250 Y192.250 E2386.45730
G1 X137.750 Y192.250 E2388.29701
G1 X137.750 Y112.750 E2393.25484
G1 X167.250 Y112.750 E2395.09455
G1 X167.250 Y113.250 E2395.12573
G1 X138.250 Y113.250 E2396.93425
;LAYER:78
G0 F12000 X138.250 Y113.250 Z23.600
;TYPE:WALL-OUTER
G1 F2040 X138.250 Y191.750 E2401.82972
G1 X167.250 Y191.750 E2403.63824
G1 X167.250 Y192.250 E2403.66942
G1 X137.750 Y192.250 E2405.50913
G1 X137.750 Y112.750 E2410.46696
G1 X167.250 Y112.750 E2412.30667
G1 X167.250 Y113.250 E2412.33785
G1 X138.250 Y113.250 E2414.14637
;LAYER:79
G0 F12000 X138.250 Y113.250 Z23.900
;TYPE:WALL-OUTER
G1 F2040 X138.250 Y191.750 E2419.04184
G1 X167.250 Y191.750 E2420.85036
G1 X167.250 Y192.250 E2420.88154
G1 X137.750 Y192.250 E2422.72125
G1 X137.750 Y112.750 E2427.67908
G1 X167.250 Y112.750 E2429.51879
G1 X167.250 Y113.250 E2429.54997
G1 X138.250 Y113.250 E2431.35849
;LAYER:80
G0 F12000 X138.250 Y113.250 Z24.200
;TYPE:WALL-OUTER
G1 F2040 X138.250 Y191.750 E2436.25396
G1 X167.250 Y191.750 E2438.06248
G1 X167.250 Y192.250 E2438.09366
G1 X137.750 Y192.250 E2439.93336
G1 X137.750 Y112.750 E2444.89120
G1 X167.250 Y112.750 E2446.73091
G1 X167.250 Y113.250 E2446.76209
G1 X138.250 Y113.250 E2448.57061
;LAYER:81
G0 F12000 X138.250 Y113.250 Z24.500
;TYPE:WALL-OUTER
G1 F2040 X138.250 Y191.750 E2453.46608
G1 X167.250 Y191.750 E2455.27460
G1 X167.250 Y192.250 E2455.30578
G1 X137.750 Y192.250 E2457.14548
G1 X137.750 Y112.750 E2462.10332
G1 X167.250 Y112.750 E2463.94302
G1 X167.250 Y113.250 E2463.97421
G1 X138.250 Y113.250 E2465.78273
;LAYER:82
G0 F12000 X138.250 Y113.250 Z24.800
;TYPE:WALL-OUTER
G1 F2040 X138.250 Y191.750 E2470.67820
G1 X167.250 Y191.750 E2472.48672
G1 X167.250 Y192.250 E2472.51790
G1 X137.750 Y192.250 E2474.35760
G1 X137.750 Y112.750 E2479.31544
G1 X167.250 Y112.750 E2481.15514
G1 X167.250 Y113.250 E2481.18633
G1 X138.250 Y113.250 E2482.99485
;LAYER:83
G0 F12000 X138.250 Y113.250 Z25.100
;TYPE:WALL-OUTER
G1 F2040 X138.250 Y191.750 E2487.89032
G1 X167.250 Y191.750 E2489.69884
G1 X167.250 Y192.250 E2489.73002
G1 X137.750 Y192.250 E2491.56972
G1 X137.750 Y112.750 E2496.52756
G1 X167.250 Y112.750 E2498.36726
G1 X167.250 Y113.250 E2498.39845
G1 X138.250 Y113.250 E2500.20697
;LAYER:84
G0 F12000 X138.250 Y113.250 Z25.400
;TYPE:WALL-OUTER
G1 F2040 X138.250 Y191.750 E2505.10244
G1 X167.250 Y191.750 E2506.91096
G1 X167.250 Y192.250 E2506.94214
G1 X137.750 Y192.250 E2508.78184
G1 X137.750 Y112.750 E2513.73968
G1 X167.250 Y112.750 E2515.57938
G1 X167.250 Y113.250 E2515.61057
G1 X138.250 Y113.250 E2517.41909
;LAYER:85
G0 F12000 X138.250 Y113.250 Z25.700
;TYPE:WALL-OUTER
G1 F2040 X138.250 Y191.750 E2522.31456
G1 X167.250 Y191.750 E2524.12308
G1 X167.250 Y192.250 E2524.15426
G1 X137.750 Y192.250 E2525.99396
G1 X137.750 Y112.750 E2530.95180
G1 X167.250 Y112.750 E2532.79150
G1 X167.250 Y113.250 E2532.82269
G1 X138.250 Y113.250 E2534.63121
;LAYER:86
G0 F12000 X138.250 Y113.250 Z26.000
;TYPE:WALL-OUTER
G1 F2040 X138.250 Y191.750 E2539.52668
G1 X167.250 Y191.750 E2541.33520
G1 X167.250 Y192.250 E2541.36638
G1 X137.750 Y192.250 E2543.20608
G1 X137.750 Y112.750 E2548.16392
G1 X167.250 Y112.750 E2550.00362
G1 X167.250 Y113.250 E2550.03481
G1 X138.250 Y113.250 E2551.84333
;LAYER:87
G0 F12000 X138.250 Y113.250 Z26.300
;TYPE:WALL-OUTER
G1 F2040 X138.250 Y191.750 E2556.73880
G1 X167.250 Y191.750 E2558.54732
G1 X167.250 Y192.250 E2558.57850
G1 X137.750 Y192.250 E2560.41820
G1 X137.750 Y112.750 E2565.37604
G1 X167.250 Y112.750 E2567.21574
G1 X167.250 Y113.250 E2567.24693
G1 X138.250 Y113.250 E2569.05545
;LAYER:88
G0 F12000 X138.250 Y113.250 Z26.600
;TYPE:WALL-OUTER
G1 F2040 X138.250 Y191.750 E2573.95092
G1 X167.250 Y191.750 E2575.75944
G1 X167.250 Y192.250 E2575.79062
G1 X137.750 Y192.250 E2577.63032
G1 X137.750 Y112.750 E2582.58816
G1 X167.250 Y112.750 E2584.42786
G1 X167.250 Y113.250 E2584.45905
G1 X138.250 Y113.250 E2586.26757
;LAYER:89
G0 F12000 X138.250 Y113.250 Z26.900
;TYPE:WALL-OUTER
G1 F2040 X138.250 Y191.750 E2591.16304
G1 X167.250 Y191.750 E2592.97156
G1 X167.250 Y192.250 E2593.00274
G1 X137.750 Y192.250 E2594.84244
G1 X137.750 Y112.750 E2599.80028
G1 X167.250 Y112.750 E2601.63998
G1 X167.250 Y113.250 E2601.67117
G1 X138.250 Y113.250 E2603.47969
;LAYER:90
G0 F12000 X138.250 Y113.250 Z27.200
;TYPE:WALL-OUTER
G1 F2040 X138.250 Y191.750 E2608.37516
G1 X167.250 Y191.750 E2610.18368
G1 X167.250 Y192.250 E2610.21486
G1 X137.750 Y192.250 E2612.05456
G1 X137.750 Y112.750 E2617.01240
G1 X167.250 Y112.750 E2618.85210
G1 X167.250 Y113.250 E2618.88329
G1 X138.250 Y113.250 E2620.69181
;LAYER:91
G0 F12000 X138.250 Y113.250 Z27.500
;TYPE:WALL-OUTER
G1 F2040 X138.250 Y191.750 E2625.58728
G1 X167.250 Y191.750 E2627.39580
G1 X167.250 Y192.250 E2627.42698
G1 X137.750 Y192.250 E2629.26668
G1 X137.750 Y112.750 E2634.22452
G1 X167.250 Y112.750 E2636.06422
G1 X167.250 Y113.250 E2636.09541
G1 X138.250 Y113.250 E2637.90393
;LAYER:92
G0 F12000 X138.250 Y113.250 Z27.800
;TYPE:WALL-OUTER
G1 F2040 X138.250 Y191.750 E2642.79940
G1 X167.250 Y191.750 E2644.60792
G1 X167.250 Y192.250 E2644.63910
G1 X137.750 Y192.250 E2646.47880
G1 X137.750 Y112.750 E2651.43664
G1 X167.250 Y112.750 E2653.27634
G1 X167.250 Y113.250 E2653.30753
G1 X138.250 Y113.250 E2655.11604
;LAYER:93
G0 F12000 X138.250 Y113.250 Z28.100
;TYPE:WALL-OUTER
G1 F2040 X138.250 Y191.750 E2660.01152
G1 X167.250 Y191.750 E2661.82004
G1 X167.250 Y192.250 E2661.85122
G1 X137.750 Y192.250 E2663.69092
G1 X137.750 Y112.750 E2668.64876
G1 X167.250 Y112.750 E2670.48846
G1 X167.250 Y113.250 E2670.51964
G1 X138.250 Y113.250 E2672.32816
;LAYER:94
G0 F12000 X138.250 Y113.250 Z28.400
;TYPE:WALL-OUTER
G1 F2040 X138.250 Y191.750 E2677.22364
G1 X167.250 Y191.750 E2679.03216
G1 X167.250 Y192.250 E2679.06334
G1 X137.750 Y192.250 E2680.90304
G1 X137.750 Y112.750 E2685.86088
G1 X167.250 Y112.750 E2687.70058
G1 X167.250 Y113.250 E2687.73176
G1 X138.250 Y113.250 E2689.54028
;LAYER:95
G0 F12000 X138.250 Y113.250 Z28.700
;TYPE:WALL-OUTER
G1 F2040 X138.250 Y191.750 E2694.43576
G1 X167.250 Y191.750 E2696.24428
G1 X167.250 Y192.250 E2696.27546
G1 X137.750 Y192.250 E2698.11516
G1 X137.750 Y112.750 E2703.07300
G1 X167.250 Y112.750 E2704.91270
G1 X167.250 Y113.250 E2704.94388
G1 X138.250 Y113.250 E2706.75240
;LAYER:96
G0 F12000 X138.250 Y113.250 Z29.000
;TYPE:WALL-OUTER
G1 F2040 X138.250 Y191.750 E2711.64788
G1 X167.250 Y191.750 E2713.45640
G1 X167.250 Y192.250 E2713.48758
G1 X137.750 Y192.250 E2715.32728
G1 X137.750 Y112.750 E2720.28512
G1 X167.250 Y112.750 E2722.12482
G1 X167.250 Y113.250 E2722.15600
G1 X138.250 Y113.250 E2723.96452
;LAYER:97
G0 F12000 X138.250 Y113.250 Z29.300
;TYPE:WALL-OUTER
G1 F2040 X138.250 Y191.750 E2728.86000
G1 X167.250 Y191.750 E2730.66852
G1 X167.250 Y192.250 E2730.69970
G1 X137.750 Y192.250 E2732.53940
G1 X137.750 Y112.750 E2737.49724
G1 X167.250 Y112.750 E2739.33694
G1 X167.250 Y113.250 E2739.36812
G1 X138.250 Y113.250 E2741.17664
;LAYER:98
G0 F12000 X138.250 Y113.250 Z29.600
;TYPE:WALL-OUTER
G1 F2040 X138.250 Y191.750 E2746.07212
G1 X167.250 Y191.750 E2747.88064
G1 X167.250 Y192.250 E2747.91182
G1 X137.750 Y192.250 E2749.75152
G1 X137.750 Y112.750 E2754.70936
G1 X167.250 Y112.750 E2756.54906
G1 X167.250 Y113.250 E2756.58024
G1 X138.250 Y113.250 E2758.38876
;LAYER:99
G0 F12000 X138.250 Y113.250 Z29.900
;TYPE:WALL-OUTER
G1 F2040 X138.250 Y191.750 E2763.28424
G1 X167.250 Y191.750 E2765.09276
G1 X167.250 Y192.250 E2765.12394
G1 X137.750 Y192.250 E2766.96364
G1 X137.750 Y112.750 E2771.92148
G1 X167.250 Y112.750 E2773.76118
G1 X167.250 Y113.250 E2773.79236
G1 X138.250 Y113.250 E2775.60088
;LAYER:100
G0 F12000 X138.250 Y113.250 Z30.200
;TYPE:WALL-OUTER
G1 F2040 X138.250 Y191.750 E2780.49636
G1 X167.250 Y191.750 E2782.30488
G1 X167.250 Y192.250 E2782.33606
G1 X137.750 Y192.250 E2784.17576
G1 X137.750 Y112.750 E2789.13360
G1 X167.250 Y112.750 E2790.97330
G1 X167.250 Y113.250 E2791.00448
G1 X138.250 Y113.250 E2792.81300
;LAYER:101
G0 F12000 X138.250 Y113.250 Z30.500
;TYPE:WALL-OUTER
G1 F2040 X138.250 Y191.750 E2797.70848
G1 X167.250 Y191.750 E2799.51700
G1 X167.250 Y192.250 E2799.54818
G1 X137.750 Y192.250 E2801.38788
G1 X137.750 Y112.750 E2806.34572
G1 X167.250 Y112.750 E2808.18542
G1 X167.250 Y113.250 E2808.21660
G1 X138.250 Y113.250 E2810.02512
;LAYER:102
G0 F12000 X138.250 Y113.250 Z30.800
;TYPE:WALL-OUTER
G1 F2040 X138.250 Y191.750 E2814.92060
G1 X167.250 Y191.750 E2816.72912
G1 X167.250 Y192.250 E2816.76030
G1 X137.750 Y192.250 E2818.60000
G1 X137.750 Y112.750 E2823.55784
G1 X167.250 Y112.750 E2825.39754
G1 X167.250 Y113.250 E2825.42872
G1 X138.250 Y113.250 E2827.23724
;LAYER:103
G0 F12000 X138.250 Y113.250 Z31.100
;TYPE:WALL-OUTER
G1 F2040 X138.250 Y191.750 E2832.13272
G1 X167.250 Y191.750 E2833.94124
G1 X167.250 Y192.250 E2833.97242
G1 X137.750 Y192.250 E2835.81212
G1 X137.750 Y112.750 E2840.76996
G1 X167.250 Y112.750 E2842.60966
G1 X167.250 Y113.250 E2842.64084
G1 X138.250 Y113.250 E2844.44936
;LAYER:104
G0 F12000 X138.250 Y113.250 Z31.400
;TYPE:WALL-OUTER
G1 F2040 X138.250 Y191.750 E2849.34484
G1 X167.250 Y191.750 E2851.15336
G1 X167.250 Y192.250 E2851.18454
G1 X137.750 Y192.250 E2853.02424
G1 X137.750 Y112.750 E2857.98208
G1 X167.250 Y112.750 E2859.82178
G1 X167.250 Y113.250 E2859.85296
G1 X138.250 Y113.250 E2861.66148
;LAYER:105
G0 F12000 X138.250 Y113.250 Z31.700
;TYPE:WALL-OUTER
G1 F2040 X138.250 Y191.750 E2866.55696
G1 X167.250 Y191.750 E2868.36548
G1 X167.250 Y192.250 E2868.39666
G1 X137.750 Y192.250 E2870.23636
G1 X137.750 Y112.750 E2875.19420
G1 X167.250 Y112.750 E2877.03390
G1 X167.250 Y113.250 E2877.06508
G1 X138.250 Y113.250 E2878.87360
;LAYER:106
G0 F12000 X138.250 Y113.250 Z32.000
;TYPE:WALL-OUTER
G1 F2040 X138.250 Y191.750 E2883.76908
G1 X167.250 Y191.750 E2885.57760
G1 X167.250 Y192.250 E2885.60878
G1 X137.750 Y192.250 E2887.44848
G1 X137.750 Y112.750 E2892.40632
G1 X167.250 Y112.750 E2894.24602
G1 X167.250 Y113.250 E2894.27720
G1 X138.250 Y113.250 E2896.08572
;LAYER:107
G0 F12000 X138.250 Y113.250 Z32.300
;TYPE:WALL-OUTER
G1 F2040 X138.250 Y191.750 E2900.98120
G1 X167.250 Y191.750 E2902.78972
G1 X167.250 Y192.250 E2902.82090
G1 X137.750 Y192.250 E2904.66060
G1 X137.750 Y112.750 E2909.61844
G1 X167.250 Y112.750 E2911.45814
G1 X167.250 Y113.250 E2911.48932
G1 X138.250 Y113.250 E2913.29784
;LAYER:108
G0 F12000 X138.250 Y113.250 Z32.600
;TYPE:WALL-OUTER
G1 F2040 X138.250 Y191.750 E2918.19332
G1 X167.250 Y191.750 E2920.00184
G1 X167.250 Y192.250 E2920.03302
G1 X137.750 Y192.250 E2921.87272
G1 X137.750 Y112.750 E2926.83056
G1 X167.250 Y112.750 E2928.67026
G1 X167.250 Y113.250 E2928.70144
G1 X138.250 Y113.250 E2930.50996
;LAYER:109
G0 F12000 X138.250 Y113.250 Z32.900
;TYPE:WALL-OUTER
G1 F2040 X138.250 Y191.750 E2935.40544
G1 X167.250 Y191.750 E2937.21396
G1 X167.250 Y192.250 E2937.24514
G1 X137.750 Y192.250 E2939.08484
G1 X137.750 Y112.750 E2944.04268
G1 X167.250 Y112.750 E2945.88238
G1 X167.250 Y113.250 E2945.91356
G1 X138.250 Y113.250 E2947.72208
;LAYER:110
G0 F12000 X138.250 Y113.250 Z33.200
;TYPE:WALL-OUTER
G1 F2040 X138.250 Y191.750 E2952.61756
G1 X167.250 Y191.750 E2954.42608
G1 X167.250 Y192.250 E2954.45726
G1 X137.750 Y192.250 E2956.29696
G1 X137.750 Y112.750 E2961.25480
G1 X167.250 Y112.750 E2963.09450
G1 X167.250 Y113.250 E2963.12568
G1 X138.250 Y113.250 E2964.93420
;LAYER:111
G0 F12000 X138.250 Y113.250 Z33.500
;TYPE:WALL-OUTER
G1 F2040 X138.250 Y191.750 E2969.82968
G1 X167.250 Y191.750 E2971.63820
G1 X167.250 Y192.250 E2971.66938
G1 X137.750 Y192.250 E2973.50908
G1 X137.750 Y112.750 E2978.46692
G1 X167.250 Y112.750 E2980.30662
G1 X167.250 Y113.250 E2980.33780
G1 X138.250 Y113.250 E2982.14632
;LAYER:112
G0 F12000 X138.250 Y113.250 Z33.800
;TYPE:WALL-OUTER
G1 F2040 X138.250 Y191.750 E2987.04180
G1 X167.250 Y191.750 E2988.85032
G1 X167.250 Y192.250 E2988.88150
G1 X137.750 Y192.250 E2990.72120
G1 X137.750 Y112.750 E2995.67904
G1 X167.250 Y112.750 E2997.51874
G1 X167.250 Y113.250 E2997.54992
G1 X138.250 Y113.250 E2999.35844
;LAYER:113
G0 F12000 X138.250 Y113.250 Z34.100
;TYPE:WALL-OUTER
G1 F2040 X138.250 Y191.750 E3004.25392
G1 X167.250 Y191.750 E3006.06244
G1 X167.250 Y192.250 E3006.09362
G1 X137.750 Y192.250 E3007.93332
G1 X137.750 Y112.750 E3012.89116
G1 X167.250 Y112.750 E3014.73086
G1 X167.250 Y113.250 E3014.76204
G1 X138.250 Y113.250 E3016.57056
;LAYER:114
G0 F12000 X138.250 Y113.250 Z34.400
;TYPE:WALL-OUTER
G1 F2040 X138.250 Y191.750 E3021.46604
G1 X167.250 Y191.750 E3023.27456
G1 X167.250 Y192.250 E3023.30574
G1 X137.750 Y192.250 E3025.14544
G1 X137.750 Y112.750 E3030.10328
G1 X167.250 Y112.750 E3031.94298
G1 X167.250 Y113.250 E3031.97416
G1 X138.250 Y113.250 E3033.78268
;LAYER:115
G0 F12000 X138.250 Y113.250 Z34.700
;TYPE:WALL-OUTER
G1 F2040 X138.250 Y191.750 E3038.67816
G1 X167.250 Y191.750 E3040.48668
G1 X167.250 Y192.250 E3040.51786
G1 X137.750 Y192.250 E3042.35756
G1 X137.750 Y112.750 E3047.31540
G1 X167.250 Y112.750 E3049.15510
G1 X167.250 Y113.250 E3049.18628
G1 X138.250 Y113.250 E3050.99480
;LAYER:116
G0 F12000 X138.250 Y113.250 Z35.000
;TYPE:WALL-OUTER
G1 F2040 X138.250 Y191.750 E3055.89028
G1 X167.250 Y191.750 E3057.69880
G1 X167.250 Y192.250 E3057.72998
G1 X137.750 Y192.250 E3059.56968
G1 X137.750 Y112.750 E3064.52752
G1 X167.250 Y112.750 E3066.36722
G1 X167.250 Y113.250 E3066.39840
G1 X138.250 Y113.250 E3068.20692
;LAYER:117
G0 F12000 X138.250 Y113.250 Z35.300
;TYPE:WALL-OUTER
G1 F2040 X138.250 Y191.750 E3073.10240
G1 X167.250 Y191.750 E3074.91092
G1 X167.250 Y192.250 E3074.94210
G1 X137.750 Y192.250 E3076.78180
G1 X137.750 Y112.750 E3081.73964
G1 X167.250 Y112.750 E3083.57934
G1 X167.250 Y113.250 E3083.61052
G1 X138.250 Y113.250 E3085.41904
;LAYER:118
G0 F12000 X138.250 Y113.250 Z35.600
;TYPE:WALL-OUTER
G1 F2040 X138.250 Y191.750 E3090.31452
G1 X167.250 Y191.750 E3092.12304
G1 X167.250 Y192.250 E3092.15422
G1 X137.750 Y192.250 E3093.99392
G1 X137.750 Y112.750 E3098.95176
G1 X167.250 Y112.750 E3100.79146
G1 X167.250 Y113.250 E3100.82264
G1 X138.250 Y113.250 E3102.63116
;LAYER:119
G0 F12000 X138.250 Y113.250 Z35.900
;TYPE:WALL-OUTER
G1 F2040 X138.250 Y191.750 E3107.52664
G1 X167.250 Y191.750 E3109.33516
G1 X167.250 Y192.250 E3109.36634
G1 X137.750 Y192.250 E3111.20604
G1 X137.750 Y112.750 E3116.16388
G1 X167.250 Y112.750 E3118.00358
G1 X167.250 Y113.250 E3118.03476
G1 X138.250 Y113.250 E3119.84328
;LAYER:120
G0 F12000 X138.250 Y113.250 Z36.200
;TYPE:WALL-OUTER
G1 F2040 X138.250 Y191.750 E3124.73876
G1 X167.250 Y191.750 E3126.54728
G1 X167.250 Y192.250 E3126.57846
G1 X137.750 Y192.250 E3128.41816
G1 X137.750 Y112.750 E3133.37600
G1 X167.250 Y112.750 E3135.21570
G1 X167.250 Y113.250 E3135.24688
G1 X138.250 Y113.250 E3137.05540
;LAYER:121
G0 F12000 X138.250 Y113.250 Z36.500
;TYPE:WALL-OUTER
G1 F2040 X138.250 Y191.750 E3141.95088
G1 X167.250 Y191.750 E3143.75940
G1 X167.250 Y192.250 E3143.79058
G1 X137.750 Y192.250 E3145.63028
G1 X137.750 Y112.750 E3150.58812
G1 X167.250 Y112.750 E3152.42782
G1 X167.250 Y113.250 E3152.45900
G1 X138.250 Y113.250 E3154.26752
;LAYER:122
G0 F12000 X138.250 Y113.250 Z36.800
;TYPE:WALL-OUTER
G1 F2040 X138.250 Y191.750 E3159.16300
G1 X167.250 Y191.750 E3160.97152
G1 X167.250 Y192.250 E3161.00270
G1 X137.750 Y192.250 E3162.84240
G1 X137.750 Y112.750 E3167.80024
G1 X167.250 Y112.750 E3169.63994
G1 X167.250 Y113.250 E3169.67112
G1 X138.250 Y113.250 E3171.47964
;LAYER:123
G0 F12000 X138.250 Y113.250 Z37.100
;TYPE:WALL-OUTER
G1 F2040 X138.250 Y191.750 E3176.37512
G1 X167.250 Y191.750 E3178.18364
G1 X167.250 Y192.250 E3178.21482
G1 X137.750 Y192.250 E3180.05452
G1 X137.750 Y112.750 E3185.01236
G1 X167.250 Y112.750 E3186.85206
G1 X167.250 Y113.250 E3186.88324
G1 X138.250 Y113.250 E3188.69176
;LAYER:124
G0 F12000 X138.250 Y113.250 Z37.400
;TYPE:WALL-OUTER
G1 F2040 X138.250 Y191.750 E3193.58724
G1 X167.250 Y191.750 E3195.39576
G1 X167.250 Y192.250 E3195.42694
G1 X137.750 Y192.250 E3197.26664
G1 X137.750 Y112.750 E3202.22448
G1 X167.250 Y112.750 E3204.06418
G1 X167.250 Y113.250 E3204.09536
G1 X138.250 Y113.250 E3205.90388
;LAYER:125
G0 F12000 X138.250 Y113.250 Z37.700
;TYPE:WALL-OUTER
G1 F2040 X138.250 Y191.750 E3210.79936
G1 X167.250 Y191.750 E3212.60788
G1 X167.250 Y192.250 E3212.63906
G1 X137.750 Y192.250 E3214.47876
G1 X137.750 Y112.750 E3219.43660
G1 X167.250 Y112.750 E3221.27630
G1 X167.250 Y113.250 E3221.30748
G1 X138.250 Y113.250 E3223.11600
;LAYER:126
G0 F12000 X138.250 Y113.250 Z38.000
;TYPE:WALL-OUTER
G1 F2040 X138.250 Y191.750 E3228.01148
G1 X167.250 Y191.750 E3229.82000
G1 X167.250 Y192.250 E3229.85118
G1 X137.750 Y192.250 E3231.69088
G1 X137.750 Y112.750 E3236.64872
G1 X167.250 Y112.750 E3238.48842
G1 X167.250 Y113.250 E3238.51960
G1 X138.250 Y113.250 E3240.32812
;LAYER:127
G0 F12000 X138.250 Y113.250 Z38.300
;TYPE:WALL-OUTER
G1 F2040 X138.250 Y191.750 E3245.22360
G1 X167.250 Y191.750 E3247.03212
G1 X167.250 Y192.250 E3247.06330
G1 X137.750 Y192.250 E3248.90300
G1 X137.750 Y112.750 E3253.86084
G1 X167.250 Y112.750 E3255.70054
G1 X167.250 Y113.250 E3255.73172
G1 X138.250 Y113.250 E3257.54024
;LAYER:128
G0 F12000 X138.250 Y113.250 Z38.600
;TYPE:WALL-OUTER
G1 F2040 X138.250 Y191.750 E3262.43572
G1 X167.250 Y191.750 E3264.24424
G1 X167.250 Y192.250 E3264.27542
G1 X137.750 Y192.250 E3266.11512
G1 X137.750 Y112.750 E3271.07296
G1 X167.250 Y112.750 E3272.91266
G1 X167.250 Y113.250 E3272.94384
G1 X138.250 Y113.250 E3274.75236
;LAYER:129
G0 F12000 X138.250 Y113.250 Z38.900
;TYPE:WALL-OUTER
G1 F2040 X138.250 Y191.750 E3279.64784
G1 X167.250 Y191.750 E3281.45636
G1 X167.250 Y192.250 E3281.48754
G1 X137.750 Y192.250 E3283.32724
G1 X137.750 Y112.750 E3288.28508
G1 X167.250 Y112.750 E3290.12478
G1 X167.250 Y113.250 E3290.15596
G1 X138.250 Y113.250 E3291.96448
;LAYER:130
G0 F12000 X138.250 Y113.250 Z39.200
;TYPE:WALL-OUTER
G1 F2040 X138.250 Y191.750 E3296.85996
G1 X167.250 Y191.750 E3298.66848
G1 X167.250 Y192.250 E3298.69966
G1 X137.750 Y192.250 E3300.53936
G1 X137.750 Y112.750 E3305.49720
G1 X167.250 Y112.750 E3307.33690
G1 X167.250 Y113.250 E3307.36808
G1 X138.250 Y113.250 E3309.17660
;LAYER:131
G0 F12000 X138.250 Y113.250 Z39.500
;TYPE:WALL-OUTER
G1 F2040 X138.250 Y191.750 E3314.07208
G1 X167.250 Y191.750 E3315.88060
G1 X167.250 Y192.250 E3315.91178
G1 X137.750 Y192.250 E3317.75148
G1 X137.750 Y112.750 E3322.70932
G1 X167.250 Y112.750 E3324.54902
G1 X167.250 Y113.250 E3324.58020
G1 X138.250 Y113.250 E3326.38872
;LAYER:132
G0 F12000 X138.250 Y113.250 Z39.800
;TYPE:WALL-OUTER
G1 F2040 X138.250 Y191.750 E3331.28420
G1 X167.250 Y191.750 E3333.09272
G1 X167.250 Y192.250 E3333.12390
G1 X137.750 Y192.250 E3334.96360
G1 X137.750 Y112.750 E3339.92144
G1 X167.250 Y112.750 E3341.76114
G1 X167.250 Y113.250 E3341.79232
G1 X138.250 Y113.250 E3343.60084
;LAYER:133
G0 F12000 X138.250 Y113.250 Z40.100
;TYPE:WALL-OUTER
G1 F2040 X138.250 Y191.750 E3348.49632
G1 X167.250 Y191.750 E3350.30484
G1 X167.250 Y192.250 E3350.33602
G1 X137.750 Y192.250 E3352.17572
G1 X137.750 Y112.750 E3357.13356
G1 X167.250 Y112.750 E3358.97326
G1 X167.250 Y113.250 E3359.00444
G1 X138.250 Y113.250 E3360.81296
;LAYER:134
G0 F12000 X138.250 Y113.250 Z40.400
;TYPE:WALL-OUTER
G1 F2040 X138.250 Y191.750 E3365.70844
G1 X167.250 Y191.750 E3367.51696
G1 X167.250 Y192.250 E3367.54814
G1 X137.750 Y192.250 E3369.38784
G1 X137.750 Y112.750 E3374.34568
G1 X167.250 Y112.750 E3376.18538
G1 X167.250 Y113.250 E3376.21656
G1 X138.250 Y113.250 E3378.02508
;LAYER:135
G0 F12000 X138.250 Y113.250 Z40.700
;TYPE:WALL-OUTER
G1 F2040 X138.250 Y191.750 E3382.92056
G1 X167.250 Y191.750 E3384.72908
G1 X167.250 Y192.250 E3384.76026
G1 X137.750 Y192.250 E3386.59996
G1 X137.750 Y112.750 E3391.55780
G1 X167.250 Y112.750 E3393.39750
G1 X167.250 Y113.250 E3393.42868
G1 X138.250 Y113.250 E3395.23720
;LAYER:136
G0 F12000 X138.250 Y113.250 Z41.000
;TYPE:WALL-OUTER
G1 F2040 X138.250 Y191.750 E3400.13268
G1 X167.250 Y191.750 E3401.94120
G1 X167.250 Y192.250 E3401.97238
G1 X137.750 Y192.250 E3403.81208
G1 X137.750 Y112.750 E3408.76992
G1 X167.250 Y112.750 E3410.60962
G1 X167.250 Y113.250 E3410.64080
G1 X138.250 Y113.250 E3412.44932
;LAYER:137
G0 F12000 X138.250 Y113.250 Z41.300
;TYPE:WALL-OUTER
G1 F2040 X138.250 Y191.750 E3417.34480
G1 X167.250 Y191.750 E3419.15332
G1 X167.250 Y192.250 E3419.18450
G1 X137.750 Y192.250 E3421.02420
G1 X137.750 Y112.750 E3425.98204
G1 X167.250 Y112.750 E3427.82174
G1 X167.250 Y113.250 E3427.85292
G1 X138.250 Y113.250 E3429.66144
;LAYER:138
G0 F12000 X138.250 Y113.250 Z41.600
;TYPE:WALL-OUTER
G1 F2040 X138.250 Y191.750 E3434.55692
G1 X167.250 Y191.750 E3436.36544
G1 X167.250 Y192.250 E3436.39662
G1 X137.750 Y192.250 E3438.23632
G1 X137.750 Y112.750 E3443.19416
G1 X167.250 Y112.750 E3445.03386
G1 X167.250 Y113.250 E3445.06504
G1 X138.250 Y113.250 E3446.87356
;LAYER:139
G0 F12000 X138.250 Y113.250 Z41.900
;TYPE:WALL-OUTER
G1 F2040 X138.250 Y191.750 E3451.76904
G1 X167.250 Y191.750 E3453.57756
G1 X167.250 Y192.250 E3453.60874
G1 X137.750 Y192.250 E3455.44844
G1 X137.750 Y112.750 E3460.40628
G1 X167.250 Y112.750 E3462.24598
G1 X167.250 Y113.250 E3462.27716
G1 X138.250 Y113.250 E3464.08568
;LAYER:140
G0 F12000 X138.250 Y113.250 Z42.200
;TYPE:WALL-OUTER
G1 F2040 X138.250 Y191.750 E3468.98116
G1 X167.250 Y191.750 E3470.78968
G1 X167.250 Y192.250 E3470.82086
G1 X137.750 Y192.250 E3472.66056
G1 X137.750 Y112.750 E3477.61840
G1 X167.250 Y112.750 E3479.45810
G1 X167.250 Y113.250 E3479.48928
G1 X138.250 Y113.250 E3481.29780
;LAYER:141
G0 F12000 X138.250 Y113.250 Z42.500
;TYPE:WALL-OUTER
G1 F2040 X138.250 Y191.750 E3486.19328
G1 X167.250 Y191.750 E3488.00180
G1 X167.250 Y192.250 E3488.03298
G1 X137.750 Y192.250 E3489.87268
G1 X137.750 Y112.750 E3494.83052
G1 X167.250 Y112.750 E3496.67022
G1 X167.250 Y113.250 E3496.70140
G1 X138.250 Y113.250 E3498.50992
;LAYER:142
G0 F12000 X138.250 Y113.250 Z42.800
;TYPE:WALL-OUTER
G1 F2040 X138.250 Y191.750 E3503.40540
G1 X167.250 Y191.750 E3505.21392
G1 X167.250 Y192.250 E3505.24510
G1 X137.750 Y192.250 E3507.08480
G1 X137.750 Y112.750 E3512.04264
G1 X167.250 Y112.750 E3513.88234
G1 X167.250 Y113.250 E3513.91352
G1 X138.250 Y113.250 E3515.72204
;LAYER:143
G0 F12000 X138.250 Y113.250 Z43.100
;TYPE:WALL-OUTER
G1 F2040 X138.250 Y191.750 E3520.61752
G1 X167.250 Y191.750 E3522.42604
G1 X167.250 Y192.250 E3522.45722
G1 X137.750 Y192.250 E3524.29692
G1 X137.750 Y112.750 E3529.25476
G1 X167.250 Y112.750 E3531.09446
G1 X167.250 Y113.250 E3531.12564
G1 X138.250 Y113.250 E3532.93416
;LAYER:144
G0 F12000 X138.250 Y113.250 Z43.400
;TYPE:WALL-OUTER
G1 F2040 X138.250 Y191.750 E3537.82964
G1 X167.250 Y191.750 E3539.63816
G1 X167.250 Y192.250 E3539.66934
G1 X137.750 Y192.250 E3541.50904
G1 X137.750 Y112.750 E3546.46688
G1 X167.250 Y112.750 E3548.30658
G1 X167.250 Y113.250 E3548.33776
G1 X138.250 Y113.250 E3550.14628
;LAYER:145
G0 F12000 X138.250 Y113.250 Z43.700
;TYPE:WALL-OUTER
G1 F2040 X138.250 Y191.750 E3555.04176
G1 X167.250 Y191.750 E3556.85028
G1 X167.250 Y192.250 E3556.88146
G1 X137.750 Y192.250 E3558.72116
G1 X137.750 Y112.750 E3563.67900
G1 X167.250 Y112.750 E3565.51870
G1 X167.250 Y113.250 E3565.54988
G1 X138.250 Y113.250 E3567.35840
;LAYER:146
G0 F12000 X138.250 Y113.250 Z44.000
;TYPE:WALL-OUTER
G1 F2040 X138.250 Y191.750 E3572.25388
G1 X167.250 Y191.750 E3574.06239
G1 X167.250 Y192.250 E3574.09358
G1 X137.750 Y192.250 E3575.93328
G1 X137.750 Y112.750 E3580.89112
G1 X167.250 Y112.750 E3582.73082
G1 X167.250 Y113.250 E3582.76200
G1 X138.250 Y113.250 E3584.57052
;LAYER:147
G0 F12000 X138.250 Y113.250 Z44.300
;TYPE:WALL-OUTER
G1 F2040 X138.250 Y191.750 E3589.46599
G1 X167.250 Y191.750 E3591.27451
G1 X167.250 Y192.250 E3591.30570
G1 X137.750 Y192.250 E3593.14540
G1 X137.750 Y112.750 E3598.10324
G1 X167.250 Y112.750 E3599.94294
G1 X167.250 Y113.250 E3599.97412
G1 X138.250 Y113.250 E3601.78264
;LAYER:148
G0 F12000 X138.250 Y113.250 Z44.600
;TYPE:WALL-OUTER
G1 F2040 X138.250 Y191.750 E3606.67811
G1 X167.250 Y191.750 E3608.48663
G1 X167.250 Y192.250 E3608.51782
G1 X137.750 Y192.250 E3610.35752
G1 X137.750 Y112.750 E3615.31536
G1 X167.250 Y112.750 E3617.15506
G1 X167.250 Y113.250 E3617.18624
G1 X138.250 Y113.250 E3618.99476
;LAYER:149
G0 F12000 X138.250 Y113.250 Z44.900
;TYPE:WALL-OUTER
G1 F2040 X138.250 Y191.750 E3623.89023
G1 X167.250 Y191.750 E3625.69875
G1 X167.250 Y192.250 E3625.72994
G1 X137.750 Y192.250 E3627.56964
G1 X137.750 Y112.750 E3632.52748
G1 X167.250 Y112.750 E3634.36718
G1 X167.250 Y113.250 E3634.39836
G1 X138.250 Y113.250 E3636.20688
;LAYER:150
G0 F12000 X138.250 Y113.250 Z45.200
;TYPE:WALL-OUTER
G1 F2040 X138.250 Y191.750 E3641.10235
G1 X167.250 Y191.750 E3642.91087
G1 X167.250 Y192.250 E3642.94206
G1 X137.750 Y192.250 E3644.78176
G1 X137.750 Y112.750 E3649.73960
G1 X167.250 Y112.750 E3651.57930
G1 X167.250 Y113.250 E3651.61048
G1 X138.250 Y113.250 E3653.41900
;LAYER:151
G0 F12000 X138.250 Y113.250 Z45.500
;TYPE:WALL-OUTER
G1 F2040 X138.250 Y191.750 E3658.31447
G1 X167.250 Y191.750 E3660.12299
G1 X167.250 Y192.250 E3660.15418
G1 X137.750 Y192.250 E3661.99388
G1 X137.750 Y112.750 E3666.95172
G1 X167.250 Y112.750 E3668.79142
G1 X167.250 Y113.250 E3668.82260
G1 X138.250 Y113.250 E3670.63112
;LAYER:152
G0 F12000 X138.250 Y113.250 Z45.800
;TYPE:WALL-OUTER
G1 F2040 X138.250 Y191.750 E3675.52659
G1 X167.250 Y191.750 E3677.33511
G1 X167.250 Y192.250 E3677.36630
G1 X137.750 Y192.250 E3679.20600
G1 X137.750 Y112.750 E3684.16384
G1 X167.250 Y112.750 E3686.00354
G1 X167.250 Y113.250 E3686.03472
G1 X138.250 Y113.250 E3687.84324
;LAYER:153
G0 F12000 X138.250 Y113.250 Z46.100
;TYPE:WALL-OUTER
G1 F2040 X138.250 Y191.750 E3692.73871
G1 X167.250 Y191.750 E3694.54723
G1 X167.250 Y192.250 E3694.57842
G1 X137.750 Y192.250 E3696.41812
G1 X137.750 Y112.750 E3701.37596
G1 X167.250 Y112.750 E3703.21566
G1 X167.250 Y113.250 E3703.24684
G1 X138.250 Y113.250 E3705.05536
;LAYER:154
G0 F12000 X138.250 Y113.250 Z46.400
;TYPE:WALL-OUTER
G1 F2040 X138.250 Y191.750 E3709.95083
G1 X167.250 Y191.750 E3711.75935
G1 X167.250 Y192.250 E3711.79054
G1 X137.750 Y192.250 E3713.63024
G1 X137.750 Y112.750 E3718.58808
G1 X167.250 Y112.750 E3720.42778
G1 X167.250 Y113.250 E3720.45896
G1 X138.250 Y113.250 E3722.26748
;LAYER:155
G0 F12000 X138.250 Y113.250 Z46.700
;TYPE:WALL-OUTER
G1 F2040 X138.250 Y191.750 E3727.16295
G1 X167.250 Y191.750 E3728.97147
G1 X167.250 Y192.250 E3729.00266
G1 X137.750 Y192.250 E3730.84236
G1 X137.750 Y112.750 E3735.80020
G1 X167.250 Y112.750 E3737.63990
G1 X167.250 Y113.250 E3737.67108
G1 X138.250 Y113.250 E3739.47960
;LAYER:156
G0 F12000 X138.250 Y113.250 Z47.000
;TYPE:WALL-OUTER
G1 F2040 X138.250 Y191.750 E3744.37507
G1 X167.250 Y191.750 E3746.18359
G1 X167.250 Y192.250 E3746.21478
G1 X137.750 Y192.250 E3748.05448
G1 X137.750 Y112.750 E3753.01232
G1 X167.250 Y112.750 E3754.85202
G1 X167.250 Y113.250 E3754.88320
G1 X138.250 Y113.250 E3756.69172
;LAYER:157
G0 F12000 X138.250 Y113.250 Z47.300
;TYPE:WALL-OUTER
G1 F2040 X138.250 Y191.750 E3761.58719
G1 X167.250 Y191.750 E3763.39571
G1 X167.250 Y192.250 E3763.42690
G1 X137.750 Y192.250 E3765.26660
G1 X137.750 Y112.750 E3770.22444
G1 X167.250 Y112.750 E3772.06414
G1 X167.250 Y113.250 E3772.09532
G1 X138.250 Y113.250 E3773.90384
;LAYER:158
G0 F12000 X138.250 Y113.250 Z47.600
;TYPE:WALL-OUTER
G1 F2040 X138.250 Y191.750 E3778.79931
G1 X167.250 Y191.750 E3780.60783
G1 X167.250 Y192.250 E3780.63901
G1 X137.750 Y192.250 E3782.47872
G1 X137.750 Y112.750 E3787.43656
G1 X167.250 Y112.750 E3789.27626
G1 X167.250 Y113.250 E3789.30744
G1 X138.250 Y113.250 E3791.11596
;LAYER:159
G0 F12000 X138.250 Y113.250 Z47.900
;TYPE:WALL-OUTER
G1 F2040 X138.250 Y191.750 E3796.01143
G1 X167.250 Y191.750 E3797.81995
G1 X167.250 Y192.250 E3797.85113
G1 X137.750 Y192.250 E3799.69084
G1 X137.750 Y112.750 E3804.64867
G1 X167.250 Y112.750 E3806.48838
G1 X167.250 Y113.250 E3806.51956
G1 X138.250 Y113.250 E3808.32808
;LAYER:160
G0 F12000 X138.250 Y113.250 Z48.200
;TYPE:WALL-OUTER
G1 F2040 X138.250 Y191.750 E3813.22355
G1 X167.250 Y191.750 E3815.03207
G1 X167.250 Y192.250 E3815.06325
G1 X137.750 Y192.250 E3816.90296
G1 X137.750 Y112.750 E3821.86079
G1 X167.250 Y112.750 E3823.70050
G1 X167.250 Y113.250 E3823.73168
G1 X138.250 Y113.250 E3825.54020
;LAYER:161
G0 F12000 X138.250 Y113.250 Z48.500
;TYPE:WALL-OUTER
G1 F2040 X138.250 Y191.750 E3830.43567
G1 X167.250 Y191.750 E3832.24419
G1 X167.250 Y192.250 E3832.27537
G1 X137.750 Y192.250 E3834.11508
G1 X137.750 Y112.750 E3839.07291
G1 X167.250 Y112.750 E3840.91262
G1 X167.250 Y113.250 E3840.94380
G1 X138.250 Y113.250 E3842.75232
;LAYER:162
G0 F12000 X138.250 Y113.250 Z48.800
;TYPE:WALL-OUTER
G1 F2040 X138.250 Y191.750 E3847.64779
G1 X167.250 Y191.750 E3849.45631
G1 X167.250 Y192.250 E3849.48749
G1 X137.750 Y192.250 E3851.32720
G1 X137.750 Y112.750 E3856.28503
G1 X167.250 Y112.750 E3858.12474
G1 X167.250 Y113.250 E3858.15592
G1 X138.250 Y113.250 E3859.96444
;LAYER:163
G0 F12000 X138.250 Y113.250 Z49.100
;TYPE:WALL-OUTER
G1 F2040 X138.250 Y191.750 E3864.85991
G1 X167.250 Y191.750 E3866.66843
G1 X167.250 Y192.250 E3866.69961
G1 X137.750 Y192.250 E3868.53932
G1 X137.750 Y112.750 E3873.49715
G1 X167.250 Y112.750 E3875.33686
G1 X167.250 Y113.250 E3875.36804
G1 X138.250 Y113.250 E3877.17656
;LAYER:164
G0 F12000 X138.250 Y113.250 Z49.400
;TYPE:WALL-OUTER
G1 F2040 X138.250 Y191.750 E3882.07203
G1 X167.250 Y191.750 E3883.88055
G1 X167.250 Y192.250 E3883.91173
G1 X137.750 Y192.250 E3885.75144
G1 X137.750 Y112.750 E3890.70927
G1 X167.250 Y112.750 E3892.54898
G1 X167.250 Y113.250 E3892.58016
G1 X138.250 Y113.250 E3894.38868
;LAYER:165
G0 F12000 X138.250 Y113.250 Z49.700
;TYPE:WALL-OUTER
G1 F2040 X138.250 Y191.750 E3899.28415
G1 X167.250 Y191.750 E3901.09267
G1 X167.250 Y192.250 E3901.12385
G1 X137.750 Y192.250 E3902.96356
G1 X137.750 Y112.750 E3907.92139
G1 X167.250 Y112.750 E3909.76110
G1 X167.250 Y113.250 E3909.79228
G1 X138.250 Y113.250 E3911.60080
;LAYER:166
G0 F12000 X138.250 Y113.250 Z50.000
;TYPE:WALL-OUTER
G1 F2040 X138.250 Y191.750 E3916.49627
G1 X167.250 Y191.750 E3918.30479
G1 X167.250 Y192.250 E3918.33597
G1 X137.750 Y192.250 E3920.17568
G1 X137.750 Y112.750 E3925.13351
G1 X167.250 Y112.750 E3926.97322
G1 X167.250 Y113.250 E3927.00440
G1 X138.250 Y113.250 E3928.81292
;LAYER:167
G0 F12000 X138.250 Y113.250 Z50.300
;TYPE:WALL-OUTER
G1 F2040 X138.250 Y191.750 E3933.70839
G1 X167.250 Y191.750 E3935.51691
G1 X167.250 Y192.250 E3935.54809
G1 X137.750 Y192.250 E3937.38780
G1 X137.750 Y112.750 E3942.34563
G1 X167.250 Y112.750 E3944.18534
G1 X167.250 Y113.250 E3944.21652
G1 X138.250 Y113.250 E3946.02504
;LAYER:168
G0 F12000 X138.250 Y113.250 Z50.600
;TYPE:WALL-OUTER
G1 F2040 X138.250 Y191.750 E3950.92051
G1 X167.250 Y191.750 E3952.72903
G1 X167.250 Y192.250 E3952.76021
G1 X137.750 Y192.250 E3954.59991
G1 X137.750 Y112.750 E3959.55775
G1 X167.250 Y112.750 E3961.39746
G1 X167.250 Y113.250 E3961.42864
G1 X138.250 Y113.250 E3963.23716
;LAYER:169
G0 F12000 X138.250 Y113.250 Z50.900
;TYPE:WALL-OUTER
G1 F2040 X138.250 Y191.750 E3968.13263
G1 X167.250 Y191.750 E3969.94115
G1 X167.250 Y192.250 E3969.97233
G1 X137.750 Y192.250 E3971.81203
G1 X137.750 Y112.750 E3976.76987
G1 X167.250 Y112.750 E3978.60957
G1 X167.250 Y113.250 E3978.64076
G1 X138.250 Y113.250 E3980.44928
;LAYER:170
G0 F12000 X138.250 Y113.250 Z51.200
;TYPE:WALL-OUTER
G1 F2040 X138.250 Y191.750 E3985.34475
G1 X167.250 Y191.750 E3987.15327
G1 X167.250 Y192.250 E3987.18445
G1 X137.750 Y192.250 E3989.02415
G1 X137.750 Y112.750 E3993.98199
G1 X167.250 Y112.750 E3995.82169
G1 X167.250 Y113.250 E3995.85288
G1 X138.250 Y113.250 E3997.66140
;LAYER:171
G0 F12000 X138.250 Y113.250 Z51.500
;TYPE:WALL-OUTER
G1 F2040 X138.250 Y191.750 E4002.55687
G1 X167.250 Y191.750 E4004.36539
G1 X167.250 Y192.250 E4004.39657
G1 X137.750 Y192.250 E4006.23627
G1 X137.750 Y112.750 E4011.19411
G1 X167.250 Y112.750 E4013.03381
G1 X167.250 Y113.250 E4013.06500
G1 X138.250 Y113.250 E4014.87352
;LAYER:172
G0 F12000 X138.250 Y113.250 Z51.800
;TYPE:WALL-OUTER
G1 F2040 X138.250 Y191.750 E4019.76899
G1 X167.250 Y191.750 E4021.57751
G1 X167.250 Y192.250 E4021.60869
G1 X137.750 Y192.250 E4023.44839
G1 X137.750 Y112.750 E4028.40623
G1 X167.250 Y112.750 E4030.24593
G1 X167.250 Y113.250 E4030.27712
G1 X138.250 Y113.250 E4032.08564
;LAYER:173
G0 F12000 X138.250 Y113.250 Z52.100
;TYPE:WALL-OUTER
G1 F2040 X138.250 Y191.750 E4036.98111
G1 X167.250 Y191.750 E4038.78963
G1 X167.250 Y192.250 E4038.82081
G1 X137.750 Y192.250 E4040.66051
G1 X137.750 Y112.750 E4045.61835
G1 X167.250 Y112.750 E4047.45805
G1 X167.250 Y113.250 E4047.48924
G1 X138.250 Y113.250 E4049.29776
;LAYER:174
G0 F12000 X138.250 Y113.250 Z52.400
;TYPE:WALL-OUTER
G1 F2040 X138.250 Y191.750 E4054.19323
G1 X167.250 Y191.750 E4056.00175
G1 X167.250 Y192.250 E4056.03293
G1 X137.750 Y192.250 E4057.87263
G1 X137.750 Y112.750 E4062.83047
G1 X167.250 Y112.750 E4064.67017
G1 X167.250 Y113.250 E4064.70136
G1 X138.250 Y113.250 E4066.50988
;LAYER:175
G0 F12000 X138.250 Y113.250 Z52.700
;TYPE:WALL-OUTER
G1 F2040 X138.250 Y191.750 E4071.40535
G1 X167.250 Y191.750 E4073.21387
G1 X167.250 Y192.250 E4073.24505
G1 X137.750 Y192.250 E4075.08475
G1 X137.750 Y112.750 E4080.04259
G1 X167.250 Y112.750 E4081.88229
G1 X167.250 Y113.250 E4081.91348
G1 X138.250 Y113.250 E4083.72200
;LAYER:176
G0 F12000 X138.250 Y113.250 Z53.000
;TYPE:WALL-OUTER
G1 F2040 X138.250 Y191.750 E4088.61747
G1 X167.250 Y191.750 E4090.42599
G1 X167.250 Y192.250 E4090.45717
G1 X137.750 Y192.250 E4092.29687
G1 X137.750 Y112.750 E4097.25471
G1 X167.250 Y112.750 E4099.09441
G1 X167.250 Y113.250 E4099.12560
G1 X138.250 Y113.250 E4100.93412
;LAYER:177
G0 F12000 X138.250 Y113.250 Z53.300
;TYPE:WALL-OUTER
G1 F2040 X138.250 Y191.750 E4105.82959
G1 X167.250 Y191.750 E4107.63811
G1 X167.250 Y192.250 E4107.66929
G1 X137.750 Y192.250 E4109.50899
G1 X137.750 Y112.750 E4114.46683
G1 X167.250 Y112.750 E4116.30653
G1 X167.250 Y113.250 E4116.33772
G1 X138.250 Y113.250 E4118.14624
;LAYER:178
G0 F12000 X138.250 Y113.250 Z53.600
;TYPE:WALL-OUTER
G1 F2040 X138.250 Y191.750 E4123.04171
G1 X167.250 Y191.750 E4124.85023
G1 X167.250 Y192.250 E4124.88141
G1 X137.750 Y192.250 E4126.72111
G1 X137.750 Y112.750 E4131.67895
G1 X167.250 Y112.750 E4133.51865
G1 X167.250 Y113.250 E4133.54984
G1 X138.250 Y113.250 E4135.35836
;LAYER:179
G0 F12000 X138.250 Y113.250 Z53.900
;TYPE:WALL-OUTER
G1 F2040 X138.250 Y191.750 E4140.25383
G1 X167.250 Y191.750 E4142.06235
G1 X167.250 Y192.250 E4142.09353
G1 X137.750 Y192.250 E4143.93323
G1 X137.750 Y112.750 E4148.89107
G1 X167.250 Y112.750 E4150.73077
G1 X167.250 Y113.250 E4150.76196
G1 X138.250 Y113.250 E4152.57048
;LAYER:180
G0 F12000 X138.250 Y113.250 Z54.200
;TYPE:WALL-OUTER
G1 F2040 X138.250 Y191.750 E4157.46595
G1 X167.250 Y191.750 E4159.27447
G1 X167.250 Y192.250 E4159.30565
G1 X137.750 Y192.250 E4161.14535
G1 X137.750 Y112.750 E4166.10319
G1 X167.250 Y112.750 E4167.94289
G1 X167.250 Y113.250 E4167.97408
G1 X138.250 Y113.250 E4169.78259
;LAYER:181
G0 F12000 X138.250 Y113.250 Z54.500
;TYPE:WALL-OUTER
G1 F2040 X138.250 Y191.750 E4174.67807
G1 X167.250 Y191.750 E4176.48659
G1 X167.250 Y192.250 E4176.51777
G1 X137.750 Y192.250 E4178.35747
G1 X137.750 Y112.750 E4183.31531
G1 X167.250 Y112.750 E4185.15501
G1 X167.250 Y113.250 E4185.18619
G1 X138.250 Y113.250 E4186.99471
;LAYER:182
G0 F12000 X138.250 Y113.250 Z54.800
;TYPE:WALL-OUTER
G1 F2040 X138.250 Y191.750 E4191.89019
G1 X167.250 Y191.750 E4193.69871
G1 X167.250 Y192.250 E4193.72989
G1 X137.750 Y192.250 E4195.56959
G1 X137.750 Y112.750 E4200.52743
G1 X167.250 Y112.750 E4202.36713
G1 X167.250 Y113.250 E4202.39831
G1 X138.250 Y113.250 E4204.20683
;LAYER:183
G0 F12000 X138.250 Y113.250 Z55.100
;TYPE:WALL-OUTER
G1 F2040 X138.250 Y191.750 E4209.10231
G1 X167.250 Y191.750 E4210.91083
G1 X167.250 Y192.250 E4210.94201
G1 X137.750 Y192.250 E4212.78171
G1 X137.750 Y112.750 E4217.73955
G1 X167.250 Y112.750 E4219.57925
G1 X167.250 Y113.250 E4219.61043
G1 X138.250 Y113.250 E4221.41895
;LAYER:184
G0 F12000 X138.250 Y113.250 Z55.400
;TYPE:WALL-OUTER
G1 F2040 X138.250 Y191.750 E4226.31443
G1 X167.250 Y191.750 E4228.12295
G1 X167.250 Y192.250 E4228.15413
G1 X137.750 Y192.250 E4229.99383
G1 X137.750 Y112.750 E4234.95167
G1 X167.250 Y112.750 E4236.79137
G1 X167.250 Y113.250 E4236.82255
G1 X138.250 Y113.250 E4238.63107
;LAYER:185
G0 F12000 X138.250 Y113.250 Z55.700
;TYPE:WALL-OUTER
G1 F2040 X138.250 Y191.750 E4243.52655
G1 X167.250 Y191.750 E4245.33507
G1 X167.250 Y192.250 E4245.36625
G1 X137.750 Y192.250 E4247.20595
G1 X137.750 Y112.750 E4252.16379
G1 X167.250 Y112.750 E4254.00349
G1 X167.250 Y113.250 E4254.03467
G1 X138.250 Y113.250 E4255.84319
;LAYER:186
G0 F12000 X138.250 Y113.250 Z56.000
;TYPE:WALL-OUTER
G1 F2040 X138.250 Y191.750 E4260.73867
G1 X167.250 Y191.750 E4262.54719
G1 X167.250 Y192.250 E4262.57837
G1 X137.750 Y192.250 E4264.41807
G1 X137.750 Y112.750 E4269.37591
G1 X167.250 Y112.750 E4271.21561
G1 X167.250 Y113.250 E4271.24679
G1 X138.250 Y113.250 E4273.05531
;LAYER:187
G0 F12000 X138.250 Y113.250 Z56.300
;TYPE:WALL-OUTER
G1 F2040 X138.250 Y191.750 E4277.95079
G1 X167.250 Y191.750 E4279.75931
G1 X167.250 Y192.250 E4279.79049
G1 X137.750 Y192.250 E4281.63019
G1 X137.750 Y112.750 E4286.58803
G1 X167.250 Y112.750 E4288.42773
G1 X167.250 Y113.250 E4288.45891
G1 X138.250 Y113.250 E4290.26743
;LAYER:188
G0 F12000 X138.250 Y113.250 Z56.600
;TYPE:WALL-OUTER
G1 F2040 X138.250 Y191.750 E4295.16291
G1 X167.250 Y191.750 E4296.97143
G1 X167.250 Y192.250 E4297.00261
G1 X137.750 Y192.250 E4298.84231
G1 X137.750 Y112.750 E4303.80015
G1 X167.250 Y112.750 E4305.63985
G1 X167.250 Y113.250 E4305.67103
G1 X138.250 Y113.250 E4307.47955
;LAYER:189
G0 F12000 X138.250 Y113.250 Z56.900
;TYPE:WALL-OUTER
G1 F2040 X138.250 Y191.750 E4312.37503
G1 X167.250 Y191.750 E4314.18355
G1 X167.250 Y192.250 E4314.21473
G1 X137.750 Y192.250 E4316.05443
G1 X137.750 Y112.750 E4321.01227
G1 X167.250 Y112.750 E4322.85197
G1 X167.250 Y113.250 E4322.88315
G1 X138.250 Y113.250 E4324.69167
;LAYER:190
G0 F12000 X138.250 Y113.250 Z57.200
;TYPE:WALL-OUTER
G1 F2040 X138.250 Y191.750 E4329.58715
G1 X167.250 Y191.750 E4331.39567
G1 X167.250 Y192.250 E4331.42685
G1 X137.750 Y192.250 E4333.26655
G1 X137.750 Y112.750 E4338.22439
G1 X167.250 Y112.750 E4340.06409
G1 X167.250 Y113.250 E4340.09527
G1 X138.250 Y113.250 E4341.90379
;LAYER:191
G0 F12000 X138.250 Y113.250 Z57.500
;TYPE:WALL-OUTER
G1 F2040 X138.250 Y191.750 E4346.79927
G1 X167.250 Y191.750 E4348.60779
G1 X167.250 Y192.250 E4348.63897
G1 X137.750 Y192.250 E4350.47867
G1 X137.750 Y112.750 E4355.43651
G1 X167.250 Y112.750 E4357.27621
G1 X167.250 Y113.250 E4357.30739
G1 X138.250 Y113.250 E4359.11591
;LAYER:192
G0 F12000 X138.250 Y113.250 Z57.800
;TYPE:WALL-OUTER
G1 F2040 X138.250 Y191.750 E4364.01139
G1 X167.250 Y191.750 E4365.81991
G1 X167.250 Y192.250 E4365.85109
G1 X137.750 Y192.250 E4367.69079
G1 X137.750 Y112.750 E4372.64863
G1 X167.250 Y112.750 E4374.48833
G1 X167.250 Y113.250 E4374.51951
G1 X138.250 Y113.250 E4376.32803
;LAYER:193
G0 F12000 X138.250 Y113.250 Z58.100
;TYPE:WALL-OUTER
G1 F2040 X138.250 Y191.750 E4381.22351
G1 X167.250 Y191.750 E4383.03203
G1 X167.250 Y192.250 E4383.06321
G1 X137.750 Y192.250 E4384.90291
G1 X137.750 Y112.750 E4389.86075
G1 X167.250 Y112.750 E4391.70045
G1 X167.250 Y113.250 E4391.73163
G1 X138.250 Y113.250 E4393.54015
;LAYER:194
G0 F12000 X138.250 Y113.250 Z58.400
;TYPE:WALL-OUTER
G1 F2040 X138.250 Y191.750 E4398.43563
G1 X167.250 Y191.750 E4400.24415
G1 X167.250 Y192.250 E4400.27533
G1 X137.750 Y192.250 E4402.11503
G1 X137.750 Y112.750 E4407.07287
G1 X167.250 Y112.750 E4408.91257
G1 X167.250 Y113.250 E4408.94375
G1 X138.250 Y113.250 E4410.75227
;LAYER:195
G0 F12000 X138.250 Y113.250 Z58.700
;TYPE:WALL-OUTER
G1 F2040 X138.250 Y191.750 E4415.64775
G1 X167.250 Y191.750 E4417.45627
G1 X167.250 Y192.250 E4417.48745
G1 X137.750 Y192.250 E4419.32715
G1 X137.750 Y112.750 E4424.28499
G1 X167.250 Y112.750 E4426.12469
G1 X167.250 Y113.250 E4426.15587
G1 X138.250 Y113.250 E4427.96439
;LAYER:196
G0 F12000 X138.250 Y113.250 Z59.000
;TYPE:WALL-OUTER
G1 F2040 X138.250 Y191.750 E4432.85987
G1 X167.250 Y191.750 E4434.66839
G1 X167.250 Y192.250 E4434.69957
G1 X137.750 Y192.250 E4436.53927
G1 X137.750 Y112.750 E4441.49711
G1 X167.250 Y112.750 E4443.33681
G1 X167.250 Y113.250 E4443.36799
G1 X138.250 Y113.250 E4445.17651
;LAYER:197
G0 F12000 X138.250 Y113.250 Z59.300
;TYPE:WALL-OUTER
G1 F2040 X138.250 Y191.750 E4450.07199
G1 X167.250 Y191.750 E4451.88051
G1 X167.250 Y192.250 E4451.91169
G1 X137.750 Y192.250 E4453.75139
G1 X137.750 Y112.750 E4458.70923
G1 X167.250 Y112.750 E4460.54893
G1 X167.250 Y113.250 E4460.58011
G1 X138.250 Y113.250 E4462.38863
;LAYER:198
G0 F12000 X138.250 Y113.250 Z59.600
;TYPE:WALL-OUTER
G1 F2040 X138.250 Y191.750 E4467.28411
G1 X167.250 Y191.750 E4469.09263
G1 X167.250 Y192.250 E4469.12381
G1 X137.750 Y192.250 E4470.96351
G1 X137.750 Y112.750 E4475.92135
G1 X167.250 Y112.750 E4477.76105
G1 X167.250 Y113.250 E4477.79223
G1 X138.250 Y113.250 E4479.60075
;LAYER:199
G0 F12000 X138.250 Y113.250 Z59.900
;TYPE:WALL-OUTER
G1 F2040 X138.250 Y191.750 E4484.49623
G1 X167.250 Y191.750 E4486.30475
G1 X167.250 Y192.250 E4486.33593
G1 X137.750 Y192.250 E4488.17563
G1 X137.750 Y112.750 E4493.13347
G1 X167.250 Y112.750 E4494.97317
G1 X167.250 Y113.250 E4495.00435
G1 X138.250 Y113.250 E4496.81287
;LAYER:200
G0 F12000 X138.250 Y113.250 Z60.200
;TYPE:WALL-OUTER
G1 F2040 X138.250 Y191.750 E4501.70835
G1 X167.250 Y191.750 E4503.51687
G1 X167.250 Y192.250 E4503.54805
G1 X137.750 Y192.250 E4505.38775
G1 X137.750 Y112.750 E4510.34559
G1 X167.250 Y112.750 E4512.18529
G1 X167.250 Y113.250 E4512.21647
G1 X138.250 Y113.250 E4514.02499
;LAYER:201
G0 F12000 X138.250 Y113.250 Z60.500
;TYPE:WALL-OUTER
G1 F2040 X138.250 Y191.750 E4518.92047
G1 X167.250 Y191.750 E4520.72899
G1 X167.250 Y192.250 E4520.76017
G1 X137.750 Y192.250 E4522.59987
G1 X137.750 Y112.750 E4527.55771
G1 X167.250 Y112.750 E4529.39741
G1 X167.250 Y113.250 E4529.42859
G1 X138.250 Y113.250 E4531.23711
;LAYER:202
G0 F12000 X138.250 Y113.250 Z60.800
;TYPE:WALL-OUTER
G1 F2040 X138.250 Y191.750 E4536.13259
G1 X167.250 Y191.750 E4537.94111
G1 X167.250 Y192.250 E4537.97229
G1 X137.750 Y192.250 E4539.81199
G1 X137.750 Y112.750 E4544.76983
G1 X167.250 Y112.750 E4546.60953
G1 X167.250 Y113.250 E4546.64071
G1 X138.250 Y113.250 E4548.44923
;LAYER:203
G0 F12000 X138.250 Y113.250 Z61.100
;TYPE:WALL-OUTER
G1 F2040 X138.250 Y191.750 E4553.34471
G1 X167.250 Y191.750 E4555.15323
G1 X167.250 Y192.250 E4555.18441
G1 X137.750 Y192.250 E4557.02411
G1 X137.750 Y112.750 E4561.98195
G1 X167.250 Y112.750 E4563.82165
G1 X167.250 Y113.250 E4563.85283
G1 X138.250 Y113.250 E4565.66135
;LAYER:204
G0 F12000 X138.250 Y113.250 Z61.400
;TYPE:WALL-OUTER
G1 F2040 X138.250 Y191.750 E4570.55683
G1 X167.250 Y191.750 E4572.36535
G1 X167.250 Y192.250 E4572.39653
G1 X137.750 Y192.250 E4574.23623
G1 X137.750 Y112.750 E4579.19407
G1 X167.250 Y112.750 E4581.03377
G1 X167.250 Y113.250 E4581.06495
G1 X138.250 Y113.250 E4582.87347
;LAYER:205
G0 F12000 X138.250 Y113.250 Z61.700
;TYPE:WALL-OUTER
G1 F2040 X138.250 Y191.750 E4587.76895
G1 X167.250 Y191.750 E4589.57747
G1 X167.250 Y192.250 E4589.60865
G1 X137.750 Y192.250 E4591.44835
G1 X137.750 Y112.750 E4596.40619
G1 X167.250 Y112.750 E4598.24589
G1 X167.250 Y113.250 E4598.27707
G1 X138.250 Y113.250 E4600.08559
;LAYER:206
G0 F12000 X138.250 Y113.250 Z62.000
;TYPE:WALL-OUTER
G1 F2040 X138.250 Y191.750 E4604.98107
G1 X167.250 Y191.750 E4606.78959
G1 X167.250 Y192.250 E4606.82077
G1 X137.750 Y192.250 E4608.66047
G1 X137.750 Y112.750 E4613.61831
G1 X167.250 Y112.750 E4615.45801
G1 X167.250 Y113.250 E4615.48919
G1 X138.250 Y113.250 E4617.29771
;LAYER:207
G0 F12000 X138.250 Y113.250 Z62.300
;TYPE:WALL-OUTER
G1 F2040 X138.250 Y191.750 E4622.19319
G1 X167.250 Y191.750 E4624.00171
G1 X167.250 Y192.250 E4624.03289
G1 X137.750 Y192.250 E4625.87259
G1 X137.750 Y112.750 E4630.83043
G1 X167.250 Y112.750 E4632.67013
G1 X167.250 Y113.250 E4632.70131
G1 X138.250 Y113.250 E4634.50983
;LAYER:208
G0 F12000 X138.250 Y113.250 Z62.600
;TYPE:WALL-OUTER
G1 F2040 X138.250 Y191.750 E4639.40531
G1 X167.250 Y191.750 E4641.21383
G1 X167.250 Y192.250 E4641.24501
G1 X137.750 Y192.250 E4643.08471
G1 X137.750 Y112.750 E4648.04255
G1 X167.250 Y112.750 E4649.88225
G1 X167.250 Y113.250 E4649.91343
G1 X138.250 Y113.250 E4651.72195
;LAYER:209
G0 F12000 X138.250 Y113.250 Z62.900
;TYPE:WALL-OUTER
G1 F2040 X138.250 Y191.750 E4656.61743
G1 X167.250 Y191.750 E4658.42595
G1 X167.250 Y192.250 E4658.45713
G1 X137.750 Y192.250 E4660.29683
G1 X137.750 Y112.750 E4665.25467
G1 X167.250 Y112.750 E4667.09437
G1 X167.250 Y113.250 E4667.12555
G1 X138.250 Y113.250 E4668.93407
;LAYER:210
G0 F12000 X138.250 Y113.250 Z63.200
;TYPE:WALL-OUTER
G1 F2040 X138.250 Y191.750 E4673.82955
G1 X167.250 Y191.750 E4675.63807
G1 X167.250 Y192.250 E4675.66925
G1 X137.750 Y192.250 E4677.50895
G1 X137.750 Y112.750 E4682.46679
G1 X167.250 Y112.750 E4684.30649
